/* XPM */
static char * 42_xpm[] = {
"200 200 235 2",
"  	c #FFFFFF",
". 	c #FEFEFE",
"+ 	c #FAFAFA",
"@ 	c #FDFDFD",
"# 	c #F9F9F9",
"$ 	c #FCFCFC",
"% 	c #FBFBFB",
"& 	c #F7F7F7",
"* 	c #F8F8F8",
"= 	c #6F6F6F",
"- 	c #515151",
"; 	c #494949",
"> 	c #484848",
", 	c #4D4D4D",
"' 	c #4A4A4A",
") 	c #4B4B4B",
"! 	c #4F4F4F",
"~ 	c #4C4C4C",
"{ 	c #555555",
"] 	c #525252",
"^ 	c #5B5B5B",
"/ 	c #565656",
"( 	c #585858",
"_ 	c #595959",
": 	c #6B6B6B",
"< 	c #CDCDCD",
"[ 	c #E6E6E6",
"} 	c #606060",
"| 	c #535353",
"1 	c #5E5E5E",
"2 	c #5C5C5C",
"3 	c #505050",
"4 	c #5D5D5D",
"5 	c #545454",
"6 	c #5A5A5A",
"7 	c #575757",
"8 	c #676767",
"9 	c #C2C2C2",
"0 	c #DEDEDE",
"a 	c #090909",
"b 	c #000000",
"c 	c #030303",
"d 	c #070707",
"e 	c #020202",
"f 	c #040404",
"g 	c #010101",
"h 	c #868686",
"i 	c #0A0A0A",
"j 	c #050505",
"k 	c #9E9E9E",
"l 	c #B7B7B7",
"m 	c #A8A8A8",
"n 	c #F6F6F6",
"o 	c #D3D3D3",
"p 	c #AEAEAE",
"q 	c #A2A2A2",
"r 	c #B3B3B3",
"s 	c #111111",
"t 	c #060606",
"u 	c #0B0B0B",
"v 	c #999999",
"w 	c #E1E1E1",
"x 	c #D5D5D5",
"y 	c #B0B0B0",
"z 	c #A1A1A1",
"A 	c #B5B5B5",
"B 	c #A0A0A0",
"C 	c #E4E4E4",
"D 	c #DDDDDD",
"E 	c #BCBCBC",
"F 	c #151515",
"G 	c #9A9A9A",
"H 	c #E2E2E2",
"I 	c #989898",
"J 	c #0E0E0E",
"K 	c #080808",
"L 	c #E3E3E3",
"M 	c #909090",
"N 	c #9F9F9F",
"O 	c #828282",
"P 	c #BEBEBE",
"Q 	c #7E7E7E",
"R 	c #EEEEEE",
"S 	c #707070",
"T 	c #BABABA",
"U 	c #9C9C9C",
"V 	c #ECECEC",
"W 	c #F4F4F4",
"X 	c #686868",
"Y 	c #0C0C0C",
"Z 	c #F0F0F0",
"` 	c #B8B8B8",
" .	c #101010",
"..	c #9B9B9B",
"+.	c #F3F3F3",
"@.	c #ADADAD",
"#.	c #141414",
"$.	c #474747",
"%.	c #B4B4B4",
"&.	c #0D0D0D",
"*.	c #404040",
"=.	c #E8E8E8",
"-.	c #3E3E3E",
";.	c #EAEAEA",
">.	c #363636",
",.	c #121212",
"'.	c #2E2E2E",
").	c #BBBBBB",
"!.	c #0F0F0F",
"~.	c #F2F2F2",
"{.	c #212121",
"].	c #1A1A1A",
"^.	c #E5E5E5",
"/.	c #1E1E1E",
"(.	c #1F1F1F",
"_.	c #DBDBDB",
":.	c #161616",
"<.	c #222222",
"[.	c #1B1B1B",
"}.	c #232323",
"|.	c #A3A3A3",
"1.	c #2B2B2B",
"2.	c #D6D6D6",
"3.	c #979797",
"4.	c #2C2C2C",
"5.	c #303030",
"6.	c #E0E0E0",
"7.	c #BDBDBD",
"8.	c #373737",
"9.	c #EFEFEF",
"0.	c #393939",
"a.	c #3A3A3A",
"b.	c #B6B6B6",
"c.	c #3C3C3C",
"d.	c #9D9D9D",
"e.	c #454545",
"f.	c #7D7D7D",
"g.	c #A5A5A5",
"h.	c #242424",
"i.	c #BFBFBF",
"j.	c #B9B9B9",
"k.	c #616161",
"l.	c #F5F5F5",
"m.	c #656565",
"n.	c #666666",
"o.	c #AFAFAF",
"p.	c #B2B2B2",
"q.	c #696969",
"r.	c #ABABAB",
"s.	c #636363",
"t.	c #646464",
"u.	c #B1B1B1",
"v.	c #626262",
"w.	c #A9A9A9",
"x.	c #AAAAAA",
"y.	c #DCDCDC",
"z.	c #F1F1F1",
"A.	c #969696",
"B.	c #929292",
"C.	c #959595",
"D.	c #C8C8C8",
"E.	c #C5C5C5",
"F.	c #6D6D6D",
"G.	c #949494",
"H.	c #C0C0C0",
"I.	c #131313",
"J.	c #D9D9D9",
"K.	c #D8D8D8",
"L.	c #D7D7D7",
"M.	c #C1C1C1",
"N.	c #A4A4A4",
"O.	c #D4D4D4",
"P.	c #D1D1D1",
"Q.	c #CFCFCF",
"R.	c #CECECE",
"S.	c #D0D0D0",
"T.	c #313131",
"U.	c #8A8A8A",
"V.	c #818181",
"W.	c #7C7C7C",
"X.	c #7F7F7F",
"Y.	c #808080",
"Z.	c #7A7A7A",
"`.	c #767676",
" +	c #747474",
".+	c #737373",
"++	c #787878",
"@+	c #717171",
"#+	c #848484",
"$+	c #CBCBCB",
"%+	c #C4C4C4",
"&+	c #DADADA",
"*+	c #CCCCCC",
"=+	c #C3C3C3",
"-+	c #A6A6A6",
";+	c #878787",
">+	c #838383",
",+	c #8D8D8D",
"'+	c #888888",
")+	c #898989",
"!+	c #858585",
"~+	c #8C8C8C",
"{+	c #919191",
"]+	c #939393",
"^+	c #8F8F8F",
"/+	c #D2D2D2",
"(+	c #C6C6C6",
"_+	c #C7C7C7",
":+	c #7B7B7B",
"<+	c #292929",
"[+	c #E9E9E9",
"}+	c #272727",
"|+	c #EDEDED",
"1+	c #252525",
"2+	c #191919",
"3+	c #ACACAC",
"4+	c #CACACA",
"5+	c #727272",
"6+	c #343434",
"7+	c #6A6A6A",
"8+	c #181818",
"9+	c #2F2F2F",
"0+	c #171717",
"a+	c #444444",
"b+	c #1D1D1D",
"c+	c #C9C9C9",
"d+	c #424242",
"e+	c #797979",
"f+	c #434343",
"g+	c #DFDFDF",
"h+	c #757575",
"i+	c #3B3B3B",
"j+	c #353535",
"k+	c #A7A7A7",
"l+	c #8E8E8E",
"                                                                                                                                                                                                                                                                                                                                                                                                                ",
"                                                                                                                                                                                                                                                                                                                                                                                                                ",
"                                                                                                                                                                                                                                                                                                                                                                                                                ",
"                                                                                                                                                                                                                                                                                                                                                                                                                ",
"                                                                                                                                                                                                                                                                                                                                                                                                                ",
"                                                                                                                                                                                                                                                                                                                                                                                                                ",
"                                                                                                                                                                                                                                                                                                                                                                                                                ",
"                                                                                                                                                                                                                                                                                                                                                                                                                ",
"                                                                                                                                                                                                                                                                                                                                                                                                                ",
"                                                                                                                                                                                                                                                                                                                                                                                                                ",
"                                                                                                                                                                                                                                                                                                                                                                                                                ",
"                                                                                                                                                                                                                                                                                                                                                                                                                ",
"                                                                                                                                                                                                                                                                                                                                                                                                                ",
"                                                                                                                                                                                                                                                                                                                                                                                                                ",
"                                                                                                                                                                                                                                                                                                                                                                                                                ",
"                                                                                                                                                                                                                                                                                                                                                                                                                ",
"                                                                                                                                                                                                                                                                                                                                                                                                                ",
"                                                                                                                                                                                                                                                                                                                                                                                                                ",
"                                                                                                                                                                                                                                                                                                                                                                                                                ",
"                                                                                                                                                                                                                                                                                                                                                                                                                ",
"                                                                                                                                                                                                                                                                                                                                                                                                                ",
"                                                                                                                                                                                                                                                                                                                                                                                                                ",
"                                                                                                                                                                                                                                                                                                                                                                                                                ",
"                                                                                                                                                                                                                                                                                                                                                                                                                ",
"                                .   +     @   .                                                   #     +     $                                   . $       .                   @   @ $   .   $     %   .   .                                       $     @   .                                                                                                                                                 ",
"                                  &     $     %                                                 $   +     * @                                           % &                             & +   . @ *     @ % $                   .               . .   $                                                                                                                                                         ",
"                                # = - ; > , , ' ) ) ) ) ) ) ) ) ) ) ) ) ) ) ) ) ) ) ) ) ) ) ) ) ! ~ ' { ] ^ ] / ( ( ( ( ( ( ( ( ( ( ( ( ( ( ( ( / ( ( ( _ : <                   $ $   [ } } | 1 2 ^ _ 3 _ 4 5 _ ( ( ( ( ( ( ( ( 6 _ 7 { ] ! , ~ ' 8 9 @ . $ +                                                                                                                                                   ",
"                                0 a b c d e b f g g g g g g g g g g g g g g g g g g g g g g g g h i c b j g d c g g g g g g g g g g g g g g g g f g g g b e k @                         l d e b b c c e b f b b g g g g g g g g g g g g b b b b b b c m   n   %                                                                                                                                                 ",
"                                [ e e g b e b f g g g g g g g g g g g g g g g g g g g g g g g g o p j e e b e b g g g g g g g g g g g g g g g g e b b f c b q                         *   r s b t c b u b b t b g g g g g g g g g g g e e c c c e f e b v     +                                                                                                                                                 ",
"                                w b c g b d g b g g g g g g g g g g g g g g g g g g g g g g g g x $ y b c g c e g g g g g g g g g g g g g g g g e e b b g b z +                 n   .     @ A d b f b g e f g c g g g g g g g g e e g b b b b b e b b c a B $                                                                                                                                                   ",
"                                C j e e b b g d e e e e e e e e e e e e e e e e e e e e e e e e D   @ v d f b d g g g g g g g g g g g g g g g g b f j g f c B                     #   +     * E F b c b d g b f g g g g g g g g b b b g e c f f b t c b b t G                                                                                                                                                   ",
"                                H a b b c j b b b b b b b b b b b b b b b b b b b b b b b b b b D $   $ I f b e g g g g g g g g g g g g g g g g c c b b c g G                   %       +     @ r J b g b b K b g g g g g g g g e e e g g b b b c b f g f b i B                                                                                                                                                 ",
"                                L c g g g g g g g g g g g g g g g g g g g g g g e b b e e g g c L     +   M d b g e g f b c b b g g g g g g g g g e e b c b N                                     r u g b j g b b t b f b j e b g g g g g g g g b b g g g g g g z   @ . .   .                                                                                                                                   ",
"                                L c g g g g g g g g g g g g g g g g g g g g g g e b b e e g g c C *       @ O b c b c b c b d e g g g g g g g g g e e b c b N                                   #   P t b b f t b b e K b b b t g g g g g g g g b g g g g g g g K G   .   @ @                                                                                                                                   ",
"                                L c g g g g g g g g g g g g g g g g g g g g g g g b g e g b e f H   * @   + . Q b b t b K j b j g g g g g g g g g e e b c b N                                       % P a j b b d e b b f j b f g g g g g g g g g g g g g g g g b e B   . %   @                                                                                                                                 ",
"                                L c g g g g g g g g g g g g g g g g g g g g g g g g g e g b e j R *     $   & $ S j b e f b c c g g g g g g g g g e e b c b N                                     +   . T J b K b e g e b c b e g g g g g g g g g g g g g g g g t c f U   %                                                                                                                                     ",
"                                L c g g g g g g g g g g g g g g g g g g g g g g g g g e g b e t V       .       W X c b c j b c g g g g g g g g g e e b c b N                                   @   @ $ $ T Y b j f b i b b d b g g g g g g g g g g g g g g g g b b f j U     &                                                                                                                                 ",
"                                L c g g g g g g g g g g g g g g g g g g g g g g g g g e b b c t Z     *   *   @   # ^ c b b c b g g g g g g g g g e e b c b N                                     % @     . `  .b t b b b j e g g g g g g g g g g g g g g g g g j b f g d ..                                                                                                                                    ",
"                                L c g g g g g g g g g g g g g g g g g g g g g g g g e e b b c d +.  &       &     @ W ] e f c c g g g g g g g g g e e b c b N                                   .     $   &   @.#.b c b d e b f g g g g g g g g g g g g g g g b b t g b c j k                                                                                                                                   ",
"                                L c g g g g g g g g g g g g g g g g g g g g g g g g e e b b c d & @   @ % @   . . %   W $.c b e g g g g g g g g g e e b c b N                                     $     +   $   %.&.b f g b t b g g g g g g g g g g g g g g b b g g b c b b t q                                                                                                                                 ",
"                                L c g g g g g g g g g g g g g g g g g g g g g g c b e b b c e K                 @     $ +.*.e b e b b j e b b j g e e b c b N                                                     r Y c b f g b e j b j g c g e g g g g g g g g b b g g g g g g q   %       $                                                                                                                   ",
"                                L c g g g g g g g g g g g g g g g g g g g g g g e b e g g e e a                 @         =.-.b c b a b K j b b g e e b c b N                                                   *   T a b b e t b b e d b b b j g g g g g g g g b g g g g g g g a ..      . .                                                                                                                   ",
"                                L c g g g g g g g g g g g g g g g g g g g g g g e b e g e e g Y                 $ n . . .   ;.>.b c b g b b e d g e e b c b N                                                     @   A ,.b e b j f e b e t b e g g g g g g g g g g g g g g g g b f q   $ @   %                                                                                                                 ",
"                                L c g g g g g g g g g g g g g g g g g g g g g g e g e g c g g  .                  $         $ L '.f b j d b b b g e e b c b N                                                     +   @ ).!.b d b c c e b f b b g g g g g g g g g g g g g g g g f c f ..  $                                                                                                                     ",
"                                L c g g g g g g g g g g g g g g g g g g g g g g g g e g c b b F                 +     ~.. %     w {.K b b d c j g e e b c b N                                                   $   %   * E i b t c b u b b t b g g g g g g g g g g g g g g g g b b c d k     #                                                                                                                 ",
"                                L c g g g g g g g g g g g g g g g g g g g g g g g e g b f b g ].                  $ %     + @     ^./.c d b d b g e e b c b N                                                     +       % ` s b f b b e f b e g g g g g g g g g g g g g g g g d b e c a v                                                                                                                     ",
"                                L c g g g g g g g g g g g g g g g g g g g g g g b e g b f b g (.                @       + #   # $   _.:.f c b b g e e b c b N                                                   @   .   . %   p F b c b d g b f g g g g g g g g g g g g g g g b b j b b c f U                                                                                                                   ",
"                                L c g g g g g g g g g g g g g g g g g g g g g g b e b b f b e <.                .   $ .     %     #   C [.g e g g e e b c b N                                                     #   +     .   r J b g b b K b g g g g g g g g g g g g g g b b b c e e b e K z                                                                                                                 ",
"                                L c g g g g g g g g g g g g g g g g g g g g g g e b c g b g b }.                                . $   # D <.c b c e e e b b |.$                                                                   A i j b t b b b t b c b f g b g g g g g g g g b b g g g g g g q   .   $     @                                                                                                 ",
"                                L c g g g g g g g g g g g g g g g g g g g g g g g b e g b f c 1.                                    @     2.<.b b b c b Y f 3.                                                                  #   P j b b f j b b c a g b b t g g g g g g g g b g g g g g g g j N   +   . *                                                                                                   ",
"                                L c g g g g g g g g g g g g g g g g g g g g g g c b e b b e g '.                                # $   n %   _.4.b i g b e b U                                                                       $ T &.f b b d e b b f f b f g g g g g g g g g g g g g g g g b g z   @ %   $                                                                                                 ",
"                                L c g g g g g g g g g g g g g g g g g g g g g g e g e b b b b 5.                                    @   %     6.4.b c j b Y B .                                                                   #   % 7.&.b d b g g g b e b g g g g g g g g g g g g g g g g g K b f B   +                                                                                                     ",
"                                L c g g g g g g g g g g g g g g g g g g g g g g b b e g c e e 8.                                +     @   n     9.0.b b u b U                                                                   $   @ . + ).u b t j b i b b K b g g g g g g g g g g g g g g g g b c c g N   % +                                                                                                 ",
"                                L c g g g g g g g g g g g g g g g g g g g g g g b g e g c b b a.                                .     @     # @ % W $.c b t m %                                                                 . @ $       b.,.b t b b b t e g g g g g g g g g g g g g g g g g j b c b K ..                                                                                                    ",
"                                L c g g g g g g g g g g g g g g g g g g g g g g g e g b e b b c.                                      % $ .       @   2 b b d.                                                                  .     @   *   @.#.b c b t g b c g g g g g g g g g g g g g g g b g g e e b f |..                                                                                                 ",
"                                L c g g g g g g g g g g g g g g g g g g g g g g b e g b f g f e.                                  . .     +   $ .   $ . f.b g.$                                                                   +   $ .   @   %.&.b f g b t b g g g g g g g g g g g g g g b b b f b b e g c |.                                                                                                ",
"                                9.d c b e j b j g g g g g g g g g g g g g g g g b b g f g b i h.  .   @ $   %                                         @   d.U                                                                                     A d e b K g b e j b j g c g e g g g g g g g g b b g g g g g g z   @ . .   .                                                                                   ",
"                                @ X t b c g f b g g g g g g g g g g g g g g g g e e b g e b b K g.  #   #     @                                 $     n   @ +                                                                                   &   i.d e b c c b b e d b b b j g g g g g g g g b g g g g g g g K G   .   @ @                                                                                   ",
"                                  & 6 e j b d c g g g g g g g g g g g g g g g g b c g b c f b b i %.      + @                                     @     +                                                                                           . T u e b b j f e b e t b e g g g g g g g g g g g g g g g g b e B   . %   @                                                                                 ",
"                                @   $ 6 b e b e g g g g g g g g g g g g g g g g b c e b e f c e b i j.#       @                                     $   + . * @                                                                                   +   + j.i b i b c c e b f b b g g g g g g g g g g g g g g g g t c f U   %                                                                                     ",
"                                $ .   W k.b b c g g g g g g g g g g g g g g g g b e g b g b b c a b K ` %   +                                   $   . .                                                                                         +   .   $ ).i b t c b u b b t b g g g g g g g g g g g g g g g g b b f j U     &                                                                                 ",
"                                  @ $   l.m.j b g g g g g g g g g g g g g g g g c g b g f g b g b b e u l # @                                     %     . # .                                                                                     $ %       b. .b f b b e f b e g g g g g g g g g g g g g g g g j b f g d ..                                                                                    ",
"                                &       . % n.j g g g g g g g g g g g g g g g g g g b g j c b e j j b g c T   %                                   . . @ +     *                                                                                       +   &   o.F b c b d g b f g g g g g g g g g g g g g g g b b t g b c j k                                                                                   ",
"                                  %   . .   % n.g g g g g g g g g g g g g g g g b c c b b b b c b b t b j K p.                                  @   $   .   #                                                                                     #   @     @   r J b g b b K b g g g g g g g g g g g g g g b b g g b c b b t q                                                                                 ",
"                                                m.b e g g b e g g g g g g g g g g g g g g g g g b t b b f b u y   $   @     %                                                                                                                                     l K b b d b b e j b j g c g e g g g g g g g g b b g g g g g g z   @ . .   .                                                                   ",
"                                                % q.b e b e c b g g g g g g g g g g g g g g g g f b g d b f b ,.r.  @     .   .                                                                                                                                 n   i.d e b e f b b e d b b b j g g g g g g g g b g g g g g g g K G   .   @ @                                                                   ",
"                                                    s.b e f b c g g g g g g g g g g g g g g g g b g j b b b j b &.j.+   +   *                                                                                                                                       @ ).u e g b j f e b e t b e g g g g g g g g g g g g g g g g b e B   . %   @                                                                 ",
"                                                # .   8 b j b b g g g g g g g g g g g g g g g g b t b b i b j t b a l &       %                                                                                                                                   *   $ ` u b K b c c e b f b b g g g g g g g g g g g g g g g g t c f U   %                                                                     ",
"                                                    @ @ 8 b e d g g g g g g g g g g g g g g g g g b c b e e c b a b u A     $ .                                                                                                                                 $   @   % E &.b t c b u b b t b g g g g g g g g g g g g g g g g b b f j U     &                                                                 ",
"                                                %   %   $ X b g g g g g g g g g g g g g g g g g c b j c b b c K b b e J l $ .                                                                                                                                     % %       l !.b f b b e f b e g g g g g g g g g g g g g g g g j b f g d ..                                                                    ",
"                                                  + .   @ @ m.e g g g g g g g g g g g g g g g g j b b b t b b b f e e b K l   +                                                                                                                                       #   &   y F b c b d g b f g g g g g g g g g g g g g g g b b t g b c j k                                                                   ",
"                                                      $     @ t.g g g g g g g g g g g g g g g g b e j b e b j g b c f e b Y u.                                                                                                                                  . $   $     +   r J b g b b K b g g g g g g g g g g g g g g b b g g b c b b t q                                                                 ",
"                                                                t.b e g g b e g g g g g g g g g g g g g g g g g b d b b e b Y o.  .   % .   % @                                                                                                                                   r u g b j g b b t b f b j e b g g g g g g g g b b g g g g g g z   @ . .   .                                                   ",
"                                                                + q.b e b e c b g g g g g g g g g g g g g g g g f b b d b c b ,.p   #     +                                                                                                                                     #   P t b b f t b b e K b b b t g g g g g g g g b g g g g g g g K G   .   @ @                                                   ",
"                                                                    s.b e f b f g g g g g g g g g g g g g g g g e b c g b b f b K E @   &   $                                                                                                                                       % P a j b b d e b b f j b f g g g g g g g g g g g g g g g g b e B   . %   @                                                 ",
"                                                                # .   8 b j b b g g g g g g g g g g g g g g g g b j b b u b f d b d A *   @   @                                                                                                                                   +   . T J b K b e g e b c b e g g g g g g g g g g g g g g g g t c f U   %                                                     ",
"                                                                    @ @ 8 b e d g g g g g g g g g g g g g g g g b b f b g c f b u b i l     +                                                                                                                                   @   @ $ $ T Y b j f b i b b d b g g g g g g g g g g g g g g g g b b f j U     &                                                 ",
"                                                                %   $   $ X b g g g g g g g g g g g g g g g g g e b t e b g f t b f t i r                                                                                                                                         % @     . `  .b t b b b j e g g g g g g g g g g g g g g g g g j b f g d ..                                                    ",
"                                                                  +     @ $ m.e g g g g g g g g g g g g g g g g f b b b t g b b K b b b u r   .                                                                                                                                 .     $   &   @.#.b c b d e b f g g g g g g g g g g g g g g g b b t g b c j k                                                   ",
"                                                                      $     @ s.g g g g g g g g g g g g g g g g g b c b c b f e b f j g b J r                                                                                                                                     $     +   $   %.&.b f g b t b g g g g g g g g g g g g g g b b g g b c b b t q                                                 ",
"                                .                                               8 b c c c b g e g g g g g g g g g g g g g g g g b K b b g b Y p $         # @                       @ @     $   . . . . . . . . . . . . . . . . . . . . . . . . . . . . . . . . . . . . . . . . . . . . . . . .   p.a e g t g b g g e b b g f g g g g g g g g g b b g g g g g g N   @       $                                   ",
"                                                                                + 8 b e b g e b g g g g g g g g g g g g g g g g c b g t b f b ,.r   #   $                       .       @ @ .                                                                                                   +   T u b b e d e e e e e e g b g g g g g g g g b g g g g g g g i B   $ $   @                                   ",
"                                                                                    v.b c f b t g g g g g g g g g g g g g g g g g b c b b b j b J y     +   % @                   $ %   +       . . . . . . . . . . . . . . . . . . . . . . . . . . . . . . . . . . . . . . . . . . . . . . . .   $   A  .b b b b b b b c g b c g g g g g g g g g g g g g g g g b K g.&   $   +                                 ",
"                                  . @ .   .                                     +     8 b t g b g g g g g g g g g g g g g g g g b t b b u b f t b t p.    %                         .   .   . $                                                                                                   %     ).J b K b e b b g b b c g g g g g g g g g g g g g g g g f b e w.@ $                                     ",
"                                  . .     .                                         @ $ n.b g t g g g g g g g g g g g g g g g g b b f b b c f b i c e b.%   %                   %     $     .                                                                                                   .   %   + E a b b j j g b g g b g g g g g g g g g g g g g g g g b b d b |.  . .                                 ",
"                                          . .                                   +   $   $ q.b b g g g g g g g g g g g g g g g g e b d g b g f j b t K f u.  $                       . $     @ $ . . . . . . . . . . . . . . . . . . . . . . . . . . . . . . . . . . . . . . . . . . . . . . . .   * @ .   + l !.g b g e b c f b g g g g g g g g g g g g g g g g b t b b i q $                                   ",
"                                . $ @     . .                                     %     . . m.b g g g g g g g g g g g g g g g g f b b b j g b b t b b u t y                     @ . .   +.                                                                                                      @   .     %   y s b b c b g t b g g g g g g g g g g g g g g g b g b f j g e x.                                  ",
"                                # & +     . .                                   .     @     + 1 g g g g g g g g g g g g g g g g b b c b c b j e b e b e c a y..                     $ z.d.I A.I I I I I I I I I I I I I I I I I I I I I I I I I I I I I I I I I I I I I I I I I I I I I I I I I G B.d.C.v I I N 4.K b t b b f b g g g g g g g g g g g g g g b b g j b e c b K D.                                ",
"                                +.:.E.$ $       . .   .   %   +                         .   @ 3.g g g g g g g g g g g g g g g g g g g g g g g g e b c g g e C.                  .     F.f e e e g g g g g g g g g g g g g g g g g g g g g g g g g g g g g g g g g g g g g g g g g g g g g g g g g g g g g g g g g g g g g g g g g g g g g g g g g g g g g g g g g g g g c b e 9                                 ",
"                                V u Y P     . %       @   +                             .   @ 3.g g g g g g g g g g g g g g g g g g g g g g g g e b c g g e C.                  .     q.b b g g g g g g g g g g g g g g g g g g g g g g g g g g g g g g g g g g g g g g g g g g g g g g g g g g g g g g g g g g g g g g g g g g g g g g g g g g g g g g g g g g g g g g c b e 9                                 ",
"                                V t b  .i.. +   @ $   @     $                   . .     .   @ I g g g g g g g g g g g g g g g g g g g g g g g g e b c g b e C.                  . . @ n.b b g g g g g g g g g g g g g g g g g g g g g g g g g g g g g g g g g g g g g g g g g g g g g g g g g g g g g g g g g g g g g g g g g g g g g g g g g g g g g g g g g g g g g g c b e 9                                 ",
"                                =.f t b s ).  #       @ $     .                 . .     .   @ I g g g g g g g g g g g g g g g g g g g g g g g g e b c g b g G.                      . 8 b b e e g g g g g g g g g g g g g g g g g g g g g g g g g g g g g g g g g g g g g g g g g g g g g g g g g g g g g g g g g g g g g g g g g g g g g g g g g g g g g g g g g g g g c b e 9                                 ",
"                                6.c b c g J 9   @ & .   $     .                   .     .   $ G g g g g g g g g g g g g g g g g g g g g g g g g e b c b b g G..                     . 8 b e e g g g g g g g g g g g g g g g g g g g g g g g g g g g g g g g g g g g g g g g g g g g g g g g g g g g g g g g g g g g g g g g g g g g g g g g g g g g g g g g g g g g g g c b e 9                                 ",
"                                L f j b b f u i.    $         $                         .   @ U g g g g g g g g g g g g g g g g g g g g g g g g e b c b b g G..                 .   . 8 b e e b g g g g g g g g g g g g g g g g g g g g g g g g g g g g g g g g g g g g g g g g g g g g g g g g g g g g g g g g g g g g g g g g g g g g g g g g g g g g g g g g g g g g c b e 9                                 ",
"                                ^.b b a b e g J P     $ $ .                       .     .     B g g g g g g g g g g g g g g g g g g g g g g g g e b e b b g G..                 .   . n.b e e b g g g g g g g g g g g g g g g g g g g g g g g g g g g g g g g g g g g g g g g g g g g g g g g g g g g g g g g g g g g g g g g g g g g g g g g g g g g g g g g g g g g g c b e 9                                 ",
"                                w d c b b c b c  .E @       @                     @ .   .     q g g g g g g g g g g g g g g g g g g g g g g g g e b e b b g G..                     . m.b c f b g g g g g g g g g g g g g g g g g g g g g g g g g g g g g g g g g g g g g g g g g g g g g g g g g g g g g g g g g g g g g g g g g g g g g g g g g g g g g g g g g g g g c b e 9                                 ",
"                                H f g g e g b c f &.H.  %   .   @   .   . .   +               |.g g g g g g g g g g g g g g g g g g g g g g g g g b e b e g B.                        s.e b e b g g g g g g g g g g g g g g g g g g g g g g g g g g g g g g g g g g g g g g g g g g g g g g g g g g g g g g g g g g g g g g g g g g g g g g g g g g g g g g g g g g g g c b e 9                                 ",
"                                H f g g e g b e b t u i.    . %           $ .                 |.g g g g g g g g g g g g g g g g g g g g g g g g g b e b e g B.                        s.e b e b g g g g g g g g g g g g g g g g g g g g g g g g g g g g g g g g g g g g g g g g g g g g g g g g g g g g g g g g g g g g g g g g g g g g g g g g g g g g g g g g g g g g c b e 9                                 ",
"                                w f g g e g b g g c b  .E   +   @ @ . .     $                 |.g g g g g g g g g g g g g g g g g g g g g g g g g b e b e g B.                        s.e b e b g g g g g g g g g g g g g g g g g g g g g g g g g g g g g g g g g g g g g g g g g g g g g g g g g g g g g g g g g g g g g g g g g g g g g g g g g g g g g g g g g g g g c b e 9                                 ",
"                                0 c g g e g b g f b j g I.j.  %       @ %     .               |.g g g g g g g g g g g g g g g g g g g g g g g g g b e b e g B.                        s.e b e b g g g g g g g g g g g g g g g g g g g g g g g g g g g g g g g g g g g g g g g g g g g g g g g g g g g g g g g g g g g g g g g g g g g g g g g g g g g g g g g g g g g g c b e 9                                 ",
"                                _.g g b g e b e b b b j f Y H.  @ & .   $     .               |.g g g g g g g g g g g g g g g g g g g g g g g g g b e b e g B.                        s.e b e b g g g g g g g g g g g g g g g g g g g g g g g g g g g g g g g g g g g g g g g g g g g g g g g g g g g g g g g g g g g g g g g g g g g g g g g g g g g g g g g g g g g g c b e 9                                 ",
"                                J.b g b g e g e b f K b b f J E     @         $               |.g g g g g g g g g g g g g g g g g g g g g g g g g b e b e g B.                        s.e b e b g g g g g g g g g g g g g g g g g g g g g g g g g g g g g g g g g g g g g g g g g g g g g g g g g g g g g g g g g g g g g g g g g g g g g g g g g g g g g g g g g g g g c b e 9                                 ",
"                                K.b g b g e g g e b b j b c f u i.    # . $                   |.g g g g g g g g g g g g g g g g g g g g g g g g g b e b e g B.                        s.e b e b g g g g g g g g g g g g g g g g g g g g g g g g g g g g g g g g g g g g g g g g g g g g g g g g g g g g g g g g g g g g g g g g g g g g g g g g g g g g g g g g g g g g c b e 9                                 ",
"                                L.b e b g g b g g g c b t g b f s ).  .   $   .               |.g g g g g g g g g g g g g g g g g g g g g g g g g b e b e g B.                        s.e b e b g g g g g g g g g g g g g g g g g g g g g g g g g g g g g g g g g g g g g g g g g g g g g g g g g g g g g g g g g g g g g g g g g g g g g g g g g g g g g g g g g g g g c b e 9                                 ",
"                                L.e b g e b e g g g g g g g g g e J M.  #       .   .   . .   N g g g g g g g g g g g g g g g g g g g g g g g g g b e b e g B.                        s.e b e b g g g g g g g g g g g g g g g g g g g g g g g g g g g g g g g g g g g g g g g g g g g g g g g g g g g g g g g g g g g g g g g g g g g g g g g g g g g g g g g g g g g g c b e 9                                 ",
"                                L.e b g g b g g g g g g g g g g b f a H.    $ @     .     $ . m g g g g g g g g g g g g g g g g g g g g g g g g g b e b e g B.                        s.e b e b g g g g g g g g g g g g g g g g g g g g g g g g g g g g g g g g g g g g g g g g g g g g g g g g g g g g g g g g g g g g g g g g g g g g g g g g g g g g g g g g g g g g c b e 9                                 ",
"                                L.e g g g b g b g g g g g g g g e g b s 7.. *   . @ .       % N.g g g g g g g g g g g g g g g g g g g g g g g g g b e b e g B.                        s.e b e b g g g g g g g g g g g g g g g g g g g g g g g g g g g g g g g g g g g g g g g g g g g g g g g g g g g g g g g g g g g g g g g g g g g g g g g g g g g g g g g g g g g g c b e 9                                 ",
"                                O.g g g g b e b g g g g g g g g e g t b s T   #       . $     |.g g g g g g g g g g g g g g g g g g g g g g g g g b e b e g B.                        s.e b e b g g g g g g g g g g g g g g g g g g g g g g g g g g g g g g g g g g g g g g g g g g g g g g g g g g g g g g g g g g g g g g g g g g g g g g g g g g g g g g g g g g g g c b e 9                                 ",
"                                P.b g g g b c b g g g g g g g g b g b c g &.9   @ & .   $     q g g g g g g g g g g g g g g g g g g g g g g g g g b e b e g B.                        s.e b e b g g g g g g g g g g g g g g g g g g g g g g g g g g g g g g g g g g g g g g g g g g g g g g g g g g g g g g g g g g g g g g g g g g g g g g g g g g g g g g g g g g g g c b e 9                                 ",
"                                Q.b g g g b c g g g g g g g g g e e t b b e Y P     @         B g g g g g g g g g g g g g g g g g g g g g g g g g b e b e g B.                        s.e b e b g g g g g g g g g g g g g g g g g g g g g g g g g g g g g g g g g g g g g g g g g g g g g g g g g g g g g g g g g g g g g g g g g g g g g g g g g g g g g g g g g g g g c b e 9                                 ",
"                                R.b e g g b c b g g g g g g g g f b b t b g e Y i.    + . $   g.g g g g g g g g g g g g g g g g g g g g g g g g g b e b e g B.                        s.e b e b g g g g g g g g g g g g g g g g g g g g g g g g g g g g g g g g g g g g g g g g g g g g g g g g g g g g g g g g g g g g g g g g g g g g g g g g g g g g g g g g g g g g c b e 9                                 ",
"                                R.b e e b b e b g g g g g g g g b c f b f e g e s ).      @   |.g g g g g g g g g g g g g g g g g g g g g g g g g b e b e g B.                        s.e b e b g g g g g g g g g g g g g g g g g g g g g g g g g g g g g g g g g g g g g g g g g g g g g g g g g g g g g g g g g g g g g g g g g g g g g g g g g g g g g g g g g g g g c b e 9                                 ",
"                                S.b j b b e g b g g g g g g g g b g g g b b b g c J E.%     $ g.e e e e e e e e e e e e e e e e e e e e e e e e c c b b f b B .                       s.e b e b g g g g g g g g g g g g g g g g g g g g g g g g e b T.U.Q V.V.W.X.X.X.X.X.X.X.X.X.X.X.X.X.X.X.X.X.X.X.X.X.X.X.X.X.Y.Y.X.f.Z.`. +.+.+.+.+.+.+.+.+.+.+.+.+.+.+.+.+++@+`.S `..+#+_.                                ",
"                                < b b f e b b c g g g g g g g g b b g e e c c f e b Y 9 . %   N b b b b b b b b b b b b b b b b b b b b b b b b b b g g e c U $                       s.e b e b g g g g g g g g g g g g g g g g g g g g g g g g b c $+$   . *                                                               . .                                 % @   + .   n                                   ",
"                                o c b f e f b c e e e e e e e e f c c e b b b b t c b I.%+  % g.g g g g g g g g g g g g g g g g g g g g g g g g t f c b b t k                         s.e b e b g g g g g g g g g g g g g g g g g g g g g g g g j b &+  .   $ % . . . . . . . . . . . . . . . . . . . . . . . . . @ @ . .       . . . . . . . . . . . . . . . .   @   . @     %                                 ",
"                                *+b e b b e b b b b b b b b b b b b b b g e e e b t j b !.l   g.e e e e e e e e e e e e e e e e e e e e e e e e b b b b c e k $                       s.e b e b g g g g g g g g g g g g g g g g g g g g g g g g b f $+  #                                                                                                         + @   . +                                     ",
"                                D.b K e g g e f c c c c c c c c e g g g e e e g b c b d g  .%+k b b b b b b b b b b b b b b b b b b b b b b b b c t e b c b q                         s.e b e b g g g g g g g g g g g g g g g g g g g g g g g g g b J.%   . * @ @ @ @ @ @ @ @ @ @ @ @ @ @ @ @ @ @ @ @ @ @ @ @ @     . . . . . @                                 .             +                                 ",
"                                =+d e b f b b b b b b b b b b b g b b b g g b b g g e b e f c X e e e e e e e e e e e e e e e e e e e e e e e e b e b b j t -+%                       s.e b e b g g g g g g g g g g g g g g g g g g g g g g g g d b O.n     +                                                                                                   #   $ * @                                       ",
"                                  ..;+>+,+'+)+!+'+'+'+'+'+'+'+'+'+;+)+~+{+G.A.C.M C.G.G.B.M G U ]+]+]+]+]+]+]+]+]+]+]+]+]+]+]+]+]+]+]+]+]+]+]+]+B.G.C.C.G.^+D                         s.e b e b g g g g g g g g g g g g g g g g g g g g g g g g b d S.  . $ .                                                   @ @ . . . . . .                                 .         . +                                   ",
"                                @         #                         . .       @   %   $   %   @                                                   % @   @ +                           s.e b e b g g g g g g g g g g g g g g g g g g g g g g g g g g /+  @     $                                                       . .       . . . . . . . . . . . . . . . .   +   @ %                                       ",
"                                                                                                                                                                                      s.e b e b g g g g g g g g g g g g g g g g g g g g g g g g g b L.$     @                                                                                                                                                   ",
"                                                                                                                                                                                      s.e b e b g g g g g g g g g g g g g g g g g g g g g g g g g b x @     .                                                                                                                                                   ",
"                                                                                                                                                                                      s.e b e b g g g g g g g g g g g g g g g g g g g g g g g g g b o @     .                                                                                                                                                   ",
"                                                                                                                                                                                      s.e b e b g g g g g g g g g g g g g g g g g g g g g g g g g g Q..     .                                                                                                                                                   ",
"                                                                                                                                                                                      s.e b e b g g g g g g g g g g g g g g g g g g g g g g g g g e $+                                                                                                                                                          ",
"                                                                                                                                                                                      s.e b e b g g g g g g g g g g g g g g g g g g g g g g g g g e D.                                                                                                                                                          ",
"                                                                                                                                                                                      s.e b e b g g g g g g g g g g g g g g g g g g g g g g g g g c E.                                                                                                                                                          ",
"                                                                                                                                                                                      s.e b e b g g g g g g g g g g g g g g g g g g g g g g g g g c %+                                                                                                                                                          ",
"                                                                                                                                                                                      s.e b e b g g g g g g g g g g g g g g g g g g g g g g g g b e (+                                                                                                                                                          ",
"                                                                                                                                                                                      s.e b e b g g g g g g g g g g g g g g g g g g g g g g g g b e (+                                                                                                                                                          ",
"                                                                                                                                                                                      s.e b e b g g g g g g g g g g g g g g g g g g g g g g g g b e (+                                                                                                                                                          ",
"                                                                                                                                                                                      s.e b e b g g g g g g g g g g g g g g g g g g g g g g g g b e (+                                                                                                                                                          ",
"                                                                                                                                                                                      s.e b e b g g g g g g g g g g g g g g g g g g g g g g g g b e (+                                                                                                                                                          ",
"                                                                                                                                                                                      s.e b e b g g g g g g g g g g g g g g g g g g g g g g g g b e (+                                                                                                                                                          ",
"                                                                                                                                                                                      s.e b e b g g g g g g g g g g g g g g g g g g g g g g g g b e (+                                                                                                                                                          ",
"                                                                                                                                                                                      s.e b e b g g g g g g g g g g g g g g g g g g g g g g g g b e (+                                                                                                                                                          ",
"                                                                                                                                                    %     %                           1 t b c e g g g g g g g g g g g g g g g g g g g g g g g g b t _+        %                                                                                                                                                 ",
"                                                                                                                                                +     @     %                   @   @ m.t b b c e e e e e e e e e e e e e e e e e e e e e e e e b b _+% . @ %                                                                                                                                                   ",
"                                                                                                                                                  $     *     %                     # s.f g f b b b b b b b b b b b b b b b b b b b b b b b b b t b _+        *                                                                                                                                                 ",
"                                                                                                                                                    %     # @                   +     n.b b e g e e e e e e e e e e e e e e e e e e e e e e e e g j D.@ . &                                                                                                                                                     ",
"                                                                                                                                                * $       .                       &   n.c b g f g g g g g g g g g g g g g g g g g g g g g g g g b f E.#     $                                                                                                                                                   ",
"                                                                                                                                                      $ +   @                         k.b e c b g g g g g g g g g g g g g g g g g g g g g g g g K b D.  $   %                                                                                                                                                   ",
"                                                                                                                                                $ . W       *                   #   * :+f e j g e e e e e e e e e e e e e e e e e e e e e e e e b u *+  *                                                                                                                                                       ",
"                                                                                                                                                  .   +.<+:.T                     @   W l H.9 =+9 9 9 9 9 9 9 9 9 9 9 9 9 9 9 9 9 9 9 9 9 9 9 9 E S.  +     @                                                                                                                                                   ",
"                                                  @ +     .     $     @     $             %   $     %     $ $           . $   .                   .   0 g c ^+                                                                                                                                                                                                                                                  ",
"                                                % .     $ % .       +     +         . @   @ %       $   #         $ . %   . $                     .   0 b e ^+                                                                                                                                                                                                                                                  ",
"                                                  @ . % .       %     . %     & $ @   . @   . + $ %         . %   .       @   @                       0 b g {+.                                                                                                                                                                                                                                                 ",
"                                                #     &   . % @   +         $     $ @     . %       $   & % $     @ @   . #   &                       6.b g C..                                                                                                                                                                                                                                                 ",
"                                                    *       % [+< P < ^.    l.  %   @ *   $ * n . $ $ @     @ $   + * z.%   l.                        w b e G                                                                                                                                                                                                                                                   ",
"                                                  $   @ V )+a.f b f b u }+f.|+    #     b.[.&.I.i.    .   $ P.2 1+u :.,.F a 2+H                       H b e k                                                                                                                                                                                                                                                   ",
"                                                      E.}.g b b f b u b c t #.w.    +   3+b f b ~+$ . .   -+f f b b t b b f b M.                    . L b g N                                                                                                                                                                                                                                                   ",
"                                                $   /+&.b b c b b g b e g b g t N .   @ 4+c b e F.  .   |+ .e b c g c &.e b b |.                    . L b b N @                                                                                                                                                                                                                                                 ",
"                                                $ . >.b e b b 7 m (+%.5+i b j b K 4+  @ +.b b c -   %   N.b b c (.E.+ p.g b b O     @     $         . L b b N @                                                                                                                                                                                                                                                 ",
"                                                  b.g b j j x.. .   +   =.6+b g g *.  % # s b b 0.W     Q K b b q * . 2.b b b v.        . @   .     . L b g N                                                                                                                                                                                                                                                   ",
"                                                & ++g f b 7+    .       . C 8+b b b <     9+g e 0+    # Q b b f C.  $   j c b $.. @     $     .       H b e k                                                                                                                                                                                                                                                   ",
"                                                  a+b b b O.  %     @ +   $ O b b e X..   ' b g K R @   b.b b b '.;.. . F b K b+. @     $   @         w b e G                                                                                                                                                                                                                                                   ",
"                                                @ }.b d Y +.#   # +     &   c+b c b {     F.t b b _.  + % a.e f b }.:+V.&.f b F #   .   @   %         6.b g C..                                                                                                                                                                                                                                                 ",
"                                                  6+g b g [+  .   $ . @   % K.b e b d+    ^+K b e E + $   H 5.b b b b b b j b b [   @   .   +         0 b g {+.                                                                                                                                                                                                                                                 ",
"                                                . 5 b c j 7.    *     &     %.j b t )   $ @.b b b d.    .   @ ^+0+b b c c b t b E.  @   .   $     .   0 b e ^+                                                                                                                                                                                                                                                  ",
"                                                  '+b b b m.%       . $   * Z.b f b e+.   < e b b W.$ @ .   * y.d c g b / j b f r.. @ . .         .   0 g c ^+                                                                                                                                                                                                                                                  ",
"                                                . 0 f e e f p.  . .   @ @ R.Y b g j P .   [+b c f /       #   f+b c b } b.b f b !+  @     &           g+b b ..%                                                                                                                                                                                                                                                 ",
"                                                  . 7 b b f a Q V   + l.3.&.b c f <+#   # + :.b b $.  +     N b b b 0+R K.b b b h+    +     @ .       g+b b d..                                                                                                                                                                                                                                                 ",
"                                                + . ;./.t f b j g :.4.e b g b b d D.  %   % 1+g b /.    . 6.2+c c b B . W K b b ' &     #   .         6.g b N                                                                                                                                                                                                                                                   ",
"                                                    . 2.}+b i b t b b b e b j i g.  l.  *   f+b g d @ . $ X e b f i+. + . /.b f j+  #   @     %       6.g g N                                                                                                                                                                                                                                                   ",
"                                                % $   + % Y.s f b c b g b c ; *+    . .   @ 1 j b b y.  7.e b b b L.  $ $ 5.b b J # .     . +         6.b b k                                                                                                                                                                                                                                                   ",
"                                                  % $   %   z.p  +5 $._ B./+    %     % %   L N.u.w.n   _+o.r.k+_+$       < z o.w.  @ $ %     @       6.b b k .                                                                                                                                                                                                                                                 ",
"                                                  +   % . $       $   @   $   .   %     @       +   + @   $     *     $ &         @ @   + $           6.b b k .                                                                                                                                                                                                                                                 ",
"                                                    @ @     @   @     . @     .     @   %   %     %   .     + @   $     .   $   @   + %   $           6.g b N                                                                                                                                                                                                                                                   ",
"                                                                                                                                                $   . 0 t b d.                                                                                                                                                                                                                                                  ",
"                                                                                                                                                  $   _.b c l+                                                                                                                                                                                                                                                  ",
"                                                                                                                                                  . * ^.b b v #                                                                                                                                                                                                                                                 ",
"                                                                                                                                                #     6.t e ^+                                                                                                                                                                                                                                                  ",
"                                                                                                                                                    . D b b ..+                                                                                                                                                                                                                                                 ",
"                                                                                                                                                *     . ( $./+                                                                                                                                                                                                                                                  ",
"                                                                                                                                                  @ * @     *                                                                                                                                                                                                                                                   ",
"                                                                                                                                                  @   .   @                                                                                                                                                                                                                                                     ",
"                                                                                                                                                                                                                                                                                                                                                                                                                ",
"                                                                                                                                                                                                                                                                                                                                                                                                                ",
"                                                                                                                                                                                                                                                                                                                                                                                                                ",
"                                                                                                                                                                                                                                                                                                                                                                                                                ",
"                                                                                                                                                                                                                                                                                                                                                                                                                ",
"                                                                                                                                                                                                                                                                                                                                                                                                                ",
"                                                                                                                                                                                                                                                                                                                                                                                                                ",
"                                                                                                                                                                                                                                                                                                                                                                                                                ",
"                                                                                                                                                                                                                                                                                                                                                                                                                ",
"                                                                                                                                                                                                                                                                                                                                                                                                                ",
"                                                                                                                                                                                                                                                                                                                                                                                                                ",
"                                                                                                                                                                                                                                                                                                                                                                                                                ",
"                                                                                                                                                                                                                                                                                                                                                                                                                ",
"                                                                                                                                                                                                                                                                                                                                                                                                                ",
"                                                                                                                                                                                                                                                                                                                                                                                                                ",
"                                                                                                                                                                                                                                                                                                                                                                                                                ",
"                                                                                                                                                                                                                                                                                                                                                                                                                ",
"                                                                                                                                                                                                                                                                                                                                                                                                                ",
"                                                                                                                                                                                                                                                                                                                                                                                                                ",
"                                                                                                                                                                                                                                                                                                                                                                                                                ",
"                                                                                                                                                                                                                                                                                                                                                                                                                ",
"                                                                                                                                                                                                                                                                                                                                                                                                                ",
"                                                                                                                                                                                                                                                                                                                                                                                                                ",
"                                                                                                                                                                                                                                                                                                                                                                                                                "};
