/* XPM */
static char * docker_xpm[] = {
"480 480 1140 2",
"  	c #81ED71",
". 	c #0288D1",
"+ 	c #01579B",
"@ 	c #5DCFC1",
"# 	c #5ACCC4",
"$ 	c #81ED72",
"% 	c #57CAC9",
"& 	c #03A9F4",
"* 	c #56C9CB",
"= 	c #80EC74",
"- 	c #51C6CF",
"; 	c #54C8CC",
"> 	c #81EC73",
", 	c #80EC76",
"' 	c #4BC1D5",
") 	c #52C6CE",
"! 	c #4DC3D4",
"~ 	c #50C5D1",
"{ 	c #53C7CD",
"] 	c #5CCEC2",
"^ 	c #5BCDC4",
"/ 	c #60D1BD",
"( 	c #64D4B6",
"_ 	c #06A8F3",
": 	c #68D7B1",
"< 	c #6DDBA8",
"[ 	c #0BA9F2",
"} 	c #10ABF1",
"| 	c #71DEA0",
"1 	c #75E295",
"2 	c #19ABF0",
"3 	c #22AEEE",
"4 	c #78E58E",
"5 	c #7CE981",
"6 	c #30B3E7",
"7 	c #34B5E6",
"8 	c #7DE97F",
"9 	c #43BDDC",
"0 	c #45BEDA",
"a 	c #58CAC8",
"b 	c #5DCEC1",
"c 	c #6EDCA5",
"d 	c #09AAF2",
"e 	c #6FDDA3",
"f 	c #7AE788",
"g 	c #24B0ED",
"h 	c #26AFEC",
"i 	c #44BDDC",
"j 	c #63D3B9",
"k 	c #64D4B7",
"l 	c #79E68C",
"m 	c #1BACF0",
"n 	c #1AADEF",
"o 	c #78E58D",
"p 	c #66D5B4",
"q 	c #7EEA7B",
"r 	c #2AB2EA",
"s 	c #25AFED",
"t 	c #7DEA7E",
"u 	c #59CBC7",
"v 	c #58CBC7",
"w 	c #78E58C",
"x 	c #12AAF1",
"y 	c #77E490",
"z 	c #50C5D0",
"A 	c #4AC2D5",
"B 	c #77E48F",
"C 	c #4CC3D5",
"D 	c #79E68D",
"E 	c #76E294",
"F 	c #7CE882",
"G 	c #17ABF0",
"H 	c #61D2BB",
"I 	c #33B5E6",
"J 	c #32B4E7",
"K 	c #71DF9E",
"L 	c #73E09B",
"M 	c #59CBC6",
"N 	c #80EC75",
"O 	c #2FB3E8",
"P 	c #75E297",
"Q 	c #55C8CB",
"R 	c #31B4E8",
"S 	c #48C0D8",
"T 	c #1DACEF",
"U 	c #68D8B0",
"V 	c #36B6E5",
"W 	c #5ACCC5",
"X 	c #74E199",
"Y 	c #35B6E5",
"Z 	c #20ADEE",
"` 	c #7FEB7A",
" .	c #4FC5D1",
"..	c #79E68B",
"+.	c #42BCDD",
"@.	c #78E48E",
"#.	c #33B4E7",
"$.	c #76E393",
"%.	c #7AE68A",
"&.	c #74E19A",
"*.	c #70DDA2",
"=.	c #6BD9AB",
"-.	c #6CDAAA",
";.	c #76E394",
">.	c #14AAF1",
",.	c #7BE787",
"'.	c #6BDAAA",
").	c #4EC4D3",
"!.	c #3AB9E1",
"~.	c #2BB1EA",
"{.	c #3EBBDF",
"].	c #4CC2D4",
"^.	c #5CCDC3",
"/.	c #6AD8AD",
"(.	c #75E296",
"_.	c #7FEB79",
":.	c #80EC77",
"<.	c #7DE980",
"[.	c #69D8AE",
"}.	c #2EB2E8",
"|.	c #67D6B3",
"1.	c #76E392",
"2.	c #7EEA7C",
"3.	c #66D5B5",
"4.	c #0EA9F2",
"5.	c #1FADEF",
"6.	c #4AC1D6",
"7.	c #54C7CC",
"8.	c #6EDCA6",
"9.	c #7FEC78",
"0.	c #2CB1E9",
"a.	c #1EAEEF",
"b.	c #4FC4D2",
"c.	c #7FEB7B",
"d.	c #3FBBDE",
"e.	c #72DF9C",
"f.	c #3FBADE",
"g.	c #4BC2D5",
"h.	c #5FD0BE",
"i.	c #62D2B9",
"j.	c #3EBADF",
"k.	c #61D2BC",
"l.	c #42BDDD",
"m.	c #57CACA",
"n.	c #60D1BE",
"o.	c #6AD9AC",
"p.	c #41BCDE",
"q.	c #7AE689",
"r.	c #45BEDB",
"s.	c #38B8E3",
"t.	c #5FD0BF",
"u.	c #28B0EB",
"v.	c #3AB8E2",
"w.	c #63D3B8",
"x.	c #7BE884",
"y.	c #2DB2E9",
"z.	c #48C0D7",
"A.	c #16ACF0",
"B.	c #23AEED",
"C.	c #7BE886",
"D.	c #6BD9AC",
"E.	c #7EEA7A",
"F.	c #69D8AF",
"G.	c #35B5E6",
"H.	c #39B8E2",
"I.	c #51C5CF",
"J.	c #29B0EA",
"K.	c #55C9CB",
"L.	c #74E298",
"M.	c #49C1D6",
"N.	c #70DDA1",
"O.	c #6CDBAA",
"P.	c #3CBAE0",
"Q.	c #40BCDE",
"R.	c #56C9CA",
"S.	c #38B7E4",
"T.	c #21AFEE",
"U.	c #58CBC8",
"V.	c #62D2BA",
"W.	c #6CDAA9",
"X.	c #5ECFC1",
"Y.	c #5BCDC3",
"Z.	c #7CE883",
"`.	c #03A8F3",
" +	c #1E759C",
".+	c #226F91",
"++	c #04A7F1",
"@+	c #04A8F2",
"#+	c #207196",
"$+	c #1684B6",
"%+	c #1B7CA8",
"&+	c #1D79A3",
"*+	c #1B7DAA",
"=+	c #0F93CE",
"-+	c #1784B6",
";+	c #67B863",
">+	c #6BC165",
",+	c #04A7F0",
"'+	c #256988",
")+	c #37474F",
"!+	c #2A607A",
"~+	c #08A0E5",
"{+	c #06A4EB",
"]+	c #28637E",
"^+	c #354B57",
"/+	c #0C96D5",
"(+	c #1A7DAB",
"_+	c #374850",
":+	c #1E769E",
"<+	c #1685B8",
"[+	c #374750",
"}+	c #2A617A",
"|+	c #03A9F3",
"1+	c #0C98D7",
"2+	c #276582",
"3+	c #05A5EC",
"4+	c #7EE66F",
"5+	c #56945A",
"6+	c #406251",
"7+	c #7DE66F",
"8+	c #0B9CDE",
"9+	c #2D5B72",
"0+	c #32505E",
"a+	c #128DC5",
"b+	c #128CC3",
"c+	c #305363",
"d+	c #334E5C",
"e+	c #0C97D6",
"f+	c #05A5ED",
"g+	c #226E91",
"h+	c #276683",
"i+	c #07A2E9",
"j+	c #1A7EAC",
"k+	c #1D78A2",
"l+	c #0C99DA",
"m+	c #2F5668",
"n+	c #0F92CE",
"o+	c #73D269",
"p+	c #456D53",
"q+	c #81EC71",
"r+	c #344C58",
"s+	c #246A8A",
"t+	c #08A0E4",
"u+	c #099DE0",
"v+	c #266684",
"w+	c #138BC0",
"x+	c #1091CB",
"y+	c #2F5567",
"z+	c #315160",
"A+	c #138BC2",
"B+	c #236D8F",
"C+	c #1C7AA5",
"D+	c #0E93CF",
"E+	c #32505F",
"F+	c #217094",
"G+	c #06A4EC",
"H+	c #52C7CE",
"I+	c #7EE770",
"J+	c #5FA95F",
"K+	c #38494E",
"L+	c #5EA75E",
"M+	c #2B5E76",
"N+	c #344D58",
"O+	c #0B9ADC",
"P+	c #364953",
"Q+	c #207195",
"R+	c #0B98D8",
"S+	c #28637F",
"T+	c #2E5769",
"U+	c #256987",
"V+	c #197FAE",
"W+	c #324F5C",
"X+	c #1B7CA9",
"Y+	c #6FDDA2",
"Z+	c #6DC666",
"`+	c #426753",
" @	c #5A9E5C",
".@	c #80EA70",
"+@	c #246B8B",
"@@	c #364952",
"#@	c #1D79A4",
"$@	c #108FC9",
"%@	c #256886",
"&@	c #364851",
"*@	c #315261",
"=@	c #29617B",
"-@	c #099FE2",
";@	c #236C8E",
">@	c #1587BC",
",@	c #0B9BDC",
"'@	c #2A5F77",
")@	c #72CF69",
"!@	c #4C7F56",
"~@	c #4D8257",
"{@	c #78DB6C",
"]@	c #118EC7",
"^@	c #266784",
"/@	c #256A89",
"(@	c #1D76A0",
"_@	c #315363",
":@	c #05A6EE",
"<@	c #099EE1",
"[@	c #2C5D74",
"}@	c #1489BF",
"|@	c #099EE2",
"1@	c #354A55",
"2@	c #2C5C73",
"3@	c #128DC4",
"4@	c #099FE3",
"5@	c #344C57",
"6@	c #226E92",
"7@	c #6FC967",
"8@	c #4E8257",
"9@	c #384E50",
"0@	c #61AC60",
"a@	c #7DE46F",
"b@	c #0D95D3",
"c@	c #1E759E",
"d@	c #305465",
"e@	c #2E586C",
"f@	c #1D78A1",
"g@	c #0D95D1",
"h@	c #1090C9",
"i@	c #1F749A",
"j@	c #2F576B",
"k@	c #1F749B",
"l@	c #1C7BA7",
"m@	c #2C5C72",
"n@	c #334F5B",
"o@	c #226D90",
"p@	c #266885",
"q@	c #0A9DE0",
"r@	c #7BE26E",
"s@	c #65B462",
"t@	c #456E53",
"u@	c #3B5450",
"v@	c #5FA85F",
"w@	c #77DA6C",
"x@	c #0C98D6",
"y@	c #1981B0",
"z@	c #32515F",
"A@	c #1488BE",
"B@	c #344C56",
"C@	c #2E576A",
"D@	c #0A9DDF",
"E@	c #1686B8",
"F@	c #226F93",
"G@	c #118FC8",
"H@	c #32505D",
"I@	c #07A3E9",
"J@	c #1882B2",
"K@	c #2B5F77",
"L@	c #2D5B70",
"M@	c #7ADE6C",
"N@	c #68BB63",
"O@	c #518B58",
"P@	c #384B4F",
"Q@	c #4A7A56",
"R@	c #63B261",
"S@	c #74D46A",
"T@	c #80EB70",
"U@	c #0A9BDE",
"V@	c #0E94D0",
"W@	c #1489BD",
"X@	c #1C7AA6",
"Y@	c #1D779F",
"Z@	c #0D95D2",
"`@	c #08A1E7",
" #	c #1783B4",
".#	c #1E769D",
"+#	c #315161",
"@#	c #2E5A6E",
"##	c #207297",
"$#	c #138AC0",
"%#	c #07A2E7",
"&#	c #0C99D9",
"*#	c #236C8D",
"=#	c #2B5E75",
"-#	c #1A7FAE",
";#	c #29627D",
">#	c #334D5A",
",#	c #276581",
"'#	c #66C789",
")#	c #80EB71",
"!#	c #7EE76F",
"~#	c #62AE60",
"{#	c #487755",
"]#	c #3A5450",
"^#	c #4F8558",
"/#	c #6FCA67",
"(#	c #76D76B",
"_#	c #7CE46E",
":#	c #2A6079",
"<#	c #266786",
"[#	c #246B8C",
"}#	c #1D7AA3",
"|#	c #2D596F",
"1#	c #354A54",
"2#	c #217195",
"3#	c #1685B7",
"4#	c #29627C",
"5#	c #0D97D4",
"6#	c #05A6EF",
"7#	c #138BC1",
"8#	c #344E59",
"9#	c #1587BB",
"0#	c #1090CA",
"a#	c #3A4F4F",
"b#	c #4A7C55",
"c#	c #5A9D5C",
"d#	c #66B862",
"e#	c #71CD68",
"f#	c #78DC6C",
"g#	c #7FE870",
"h#	c #7ADF6D",
"i#	c #67B963",
"j#	c #599C5C",
"k#	c #477455",
"l#	c #38494F",
"m#	c #3F5F52",
"n#	c #416552",
"o#	c #3F5E51",
"p#	c #305364",
"q#	c #2A5F78",
"r#	c #276684",
"s#	c #207398",
"t#	c #276583",
"u#	c #148ABF",
"v#	c #0B9ADB",
"w#	c #07A1E8",
"x#	c #1586BA",
"y#	c #2D5B71",
"z#	c #1784B5",
"A#	c #118EC6",
"B#	c #1980B1",
"C#	c #3E5B51",
"D#	c #549059",
"E#	c #5EA55E",
"F#	c #62AF60",
"G#	c #63B161",
"H#	c #56955B",
"I#	c #4D8156",
"J#	c #256888",
"K#	c #2C5C74",
"L#	c #60CAB1",
"M#	c #3AA8CD",
"N#	c #75E094",
"O#	c #0289D2",
"P#	c #73DE93",
"Q#	c #058CD4",
"R#	c #36A6CF",
"S#	c #1D96D5",
"T#	c #0288D2",
"U#	c #71DC98",
"V#	c #38A8CF",
"W#	c #31A3D0",
"X#	c #51BDC0",
"Y#	c #6ED99E",
"Z#	c #69D5A6",
"`#	c #2FA0D0",
" $	c #6ED99C",
".$	c #1591D4",
"+$	c #30A1D0",
"@$	c #32A3CF",
"#$	c #70DA98",
"$$	c #4FBBC0",
"%$	c #37A7CD",
"&$	c #6CD7A2",
"*$	c #75E092",
"=$	c #058AD3",
"-$	c #42AFC9",
";$	c #269BD2",
">$	c #088CD3",
",$	c #7BE781",
"'$	c #47B3C6",
")$	c #50BBC0",
"!$	c #67D1A8",
"~$	c #1490D4",
"{$	c #7FEB77",
"]$	c #7FEC76",
"^$	c #5EC8B4",
"/$	c #259AD2",
"($	c #1F96D3",
"_$	c #4AB4C4",
":$	c #6AD4A1",
"<$	c #6ED89D",
"[$	c #38A7CD",
"}$	c #0F8ED4",
"|$	c #0589D2",
"1$	c #3BA3DB",
"2$	c #7BC1E7",
"3$	c #AED9F0",
"4$	c #D5EBF7",
"5$	c #EEF7FC",
"6$	c #FAFDFE",
"7$	c #D4EBF7",
"8$	c #3AA2DB",
"9$	c #0489D1",
"0$	c #088BD2",
"a$	c #78E486",
"b$	c #1F96D6",
"c$	c #89C7EA",
"d$	c #E4F2FA",
"e$	c #FFFFFF",
"f$	c #E3F2FA",
"g$	c #88C7E9",
"h$	c #1E95D6",
"i$	c #52BCBC",
"j$	c #5EC8B3",
"k$	c #1792D5",
"l$	c #9ACFED",
"m$	c #F9FCFE",
"n$	c #98CEEC",
"o$	c #1691D5",
"p$	c #1B93D3",
"q$	c #7DE97C",
"r$	c #5BB2E1",
"s$	c #EDF7FC",
"t$	c #ECF6FC",
"u$	c #59B1E1",
"v$	c #6AD4A3",
"w$	c #299CD2",
"x$	c #078AD2",
"y$	c #9CD0ED",
"z$	c #99CFEC",
"A$	c #3BA9CC",
"B$	c #54BEBD",
"C$	c #0C8DD3",
"D$	c #B7DDF2",
"E$	c #B6DCF2",
"F$	c #0D8DD4",
"G$	c #7CE781",
"H$	c #7BE682",
"I$	c #0289D1",
"J$	c #BCDFF3",
"K$	c #5FC9B1",
"L$	c #289BD1",
"M$	c #31A1CF",
"N$	c #56C0BA",
"O$	c #5CB2E1",
"P$	c #58B1E1",
"Q$	c #78E289",
"R$	c #058BD2",
"S$	c #EBF6FB",
"T$	c #59C3B9",
"U$	c #FAFBFB",
"V$	c #BBC0C3",
"W$	c #7D878C",
"X$	c #56636A",
"Y$	c #404F57",
"Z$	c #BCC1C4",
"`$	c #96CEEC",
" %	c #2B9ED1",
".%	c #5EC9B3",
"+%	c #BEC3C6",
"@%	c #526066",
"#%	c #526067",
"$%	c #BFC5C7",
"%%	c #2096D6",
"&%	c #088CD2",
"*%	c #77E28C",
"=%	c #7FEB78",
"-%	c #088DD3",
";%	c #FDFDFD",
">%	c #919A9E",
",%	c #939BA0",
"'%	c #FDFEFE",
")%	c #5CC6B3",
"!%	c #3DAACB",
"~%	c #949CA0",
"{%	c #34A3CD",
"]%	c #70DC99",
"^%	c #C0C5C8",
"/%	c #38A1DB",
"(%	c #7BE680",
"_%	c #2398D2",
":%	c #515F66",
"<%	c #79C0E7",
"[%	c #66D0A8",
"}%	c #5AC4B7",
"|%	c #AFD9F0",
"1%	c #BCC2C4",
"2%	c #ACD8F0",
"3%	c #44B1C8",
"4%	c #7FEB76",
"5%	c #0B8DD3",
"6%	c #7C868C",
"7%	c #7E898E",
"8%	c #D2EAF7",
"9%	c #1F95D3",
"0%	c #43AFC8",
"a%	c #546269",
"b%	c #74DE92",
"c%	c #76E28D",
"d%	c #405057",
"e%	c #F8FCFE",
"f%	c #5FCAB1",
"g%	c #32A2CF",
"h%	c #425159",
"i%	c #43AFC9",
"j%	c #556269",
"k%	c #56646B",
"l%	c #2197D3",
"m%	c #289AD1",
"n%	c #7E888D",
"o%	c #808A8F",
"p%	c #75E08E",
"q%	c #65CFA7",
"r%	c #BDC2C5",
"s%	c #64CFAA",
"t%	c #2196D2",
"u%	c #FBFBFC",
"v%	c #536168",
"w%	c #78C0E6",
"x%	c #4FBBBF",
"y%	c #63CDAD",
"z%	c #384850",
"A%	c #C2C7C9",
"B%	c #37A1DB",
"C%	c #1E96D4",
"D%	c #E2F1FA",
"E%	c #959EA2",
"F%	c #E1F1FA",
"G%	c #2096D3",
"H%	c #7FEA78",
"I%	c #62CDAF",
"J%	c #949DA1",
"K%	c #87C7E9",
"L%	c #78E38A",
"M%	c #2298D3",
"N%	c #C1C6C8",
"O%	c #1D95D6",
"P%	c #6BD69F",
"Q%	c #6BD4A2",
"R%	c #57656B",
"S%	c #7F898E",
"T%	c #94CDEC",
"U%	c #5CC6B6",
"V%	c #0486CC",
"W%	c #1077AE",
"X%	c #20668E",
"Y%	c #34637C",
"Z%	c #416273",
"`%	c #2D576E",
" &	c #265C79",
".&	c #1B6993",
"+&	c #0D7BB7",
"@&	c #4CB8C4",
"#&	c #75E090",
"$&	c #058AD2",
"%&	c #0584CA",
"&&	c #1472A4",
"*&	c #265C7B",
"=&	c #354A56",
"-&	c #2A566D",
";&	c #0F78B2",
">&	c #56B0E0",
",&	c #3EACCA",
"'&	c #41ADC8",
")&	c #0287D0",
"!&	c #0C7CB9",
"~&	c #196B97",
"{&	c #295972",
"]&	c #364852",
"^&	c #364850",
"/&	c #1C6790",
"(&	c #95CDEC",
"_&	c #2DA0D0",
":&	c #7BE780",
"<&	c #0B8DD2",
"[&	c #0B7EBC",
"}&	c #176E9D",
"|&	c #255D7C",
"1&	c #324D5A",
"2&	c #1D678E",
"3&	c #B0DAF1",
"4&	c #B5DCF1",
"5&	c #068AD2",
"6&	c #7DE97D",
"7&	c #53BEBD",
"8&	c #0684C8",
"9&	c #1076AD",
"0&	c #285A74",
"a&	c #334B58",
"b&	c #1174AB",
"c&	c #B4DCF1",
"d&	c #1791D3",
"e&	c #7AE584",
"f&	c #1F97D4",
"g&	c #097FC0",
"h&	c #1373A7",
"i&	c #1D678F",
"j&	c #275B77",
"k&	c #304F5E",
"l&	c #2F5062",
"m&	c #0387CE",
"n&	c #0D8ED4",
"o&	c #75E091",
"p&	c #6DD99F",
"q&	c #0585CA",
"r&	c #1471A4",
"s&	c #1D6890",
"t&	c #255D7B",
"u&	c #2D5467",
"v&	c #354954",
"w&	c #1273A8",
"x&	c #EAF5FB",
"y&	c #70DB98",
"z&	c #40ADCB",
"A&	c #0782C4",
"B&	c #1175AB",
"C&	c #1E668C",
"D&	c #255D7A",
"E&	c #2C546A",
"F&	c #334C59",
"G&	c #245E7D",
"H&	c #6DD79D",
"I&	c #7DE880",
"J&	c #0F8ED5",
"K&	c #0486CD",
"L&	c #0881C4",
"M&	c #0C7BB9",
"N&	c #166F9F",
"O&	c #1C6891",
"P&	c #216284",
"Q&	c #2B556A",
"R&	c #314D5D",
"S&	c #364951",
"T&	c #65CFA9",
"U&	c #0683C7",
"V&	c #0B7DBB",
"W&	c #0F77AF",
"X&	c #1570A2",
"Y&	c #196C99",
"Z&	c #206388",
"`&	c #245F7F",
" *	c #275B76",
".*	c #2E5164",
"+*	c #324D5B",
"@*	c #D1EAF7",
"#*	c #058BD3",
"$*	c #67D1A6",
"%*	c #44A7C6",
"&*	c #4985A3",
"**	c #3B7D9F",
"=*	c #2E759B",
"-*	c #216D97",
";*	c #1B6A94",
">*	c #1E658C",
",*	c #206387",
"'*	c #226183",
")*	c #245F7E",
"!*	c #285B75",
"~*	c #295872",
"{*	c #2C5469",
"]*	c #2E5264",
"^*	c #305060",
"/*	c #334C58",
"(*	c #7CE77D",
"_*	c #416272",
":*	c #63CDAC",
"<*	c #61C4A1",
"[*	c #3B4E59",
"}*	c #2A576E",
"|*	c #64CDAC",
"1*	c #4594A3",
"2*	c #66D1A9",
"3*	c #427085",
"4*	c #6BD5A0",
"5*	c #71DA8E",
"6*	c #3E5764",
"7*	c #0D8DD3",
"8*	c #70DB99",
"9*	c #5ABAA6",
"0*	c #3A4C56",
"a*	c #2F5163",
"b*	c #118FD3",
"c*	c #4696A5",
"d*	c #0880C1",
"e*	c #1891D3",
"f*	c #77E28A",
"g*	c #81ED73",
"h*	c #427A90",
"i*	c #7AE681",
"j*	c #7AE581",
"k*	c #416677",
"l*	c #415A66",
"m*	c #568297",
"n*	c #6BAAC7",
"o*	c #1D94D4",
"p*	c #7EEA79",
"q*	c #6DD493",
"r*	c #3D5663",
"s*	c #3A4E57",
"t*	c #4D7182",
"u*	c #6299B2",
"v*	c #77C0E2",
"w*	c #81D4FA",
"x*	c #46B1E7",
"y*	c #42AEC8",
"z*	c #5EBEA4",
"A*	c #3C515B",
"B*	c #384952",
"C*	c #466371",
"D*	c #59899F",
"E*	c #6EAECC",
"F*	c #7FD0F5",
"G*	c #71CBF5",
"H*	c #0388D1",
"I*	c #55BFBA",
"J*	c #4FABAB",
"K*	c #394C55",
"L*	c #3D525C",
"M*	c #4C7081",
"N*	c #5C8EA5",
"O*	c #6FB1CF",
"P*	c #7FCFF4",
"Q*	c #209ADB",
"R*	c #65CEAA",
"S*	c #479CAD",
"T*	c #384851",
"U*	c #435E6B",
"V*	c #527A8D",
"W*	c #639BB6",
"X*	c #74BCDD",
"Y*	c #80D3F9",
"Z*	c #4BB4E9",
"`*	c #1390D3",
" =	c #71DB97",
".=	c #428DA1",
"+=	c #3F5560",
"@=	c #7ECFF3",
"#=	c #79D0F7",
"$=	c #078BD3",
"%=	c #7AE583",
"&=	c #428095",
"*=	c #3B4F59",
"==	c #486675",
"-=	c #558093",
";=	c #6198B0",
">=	c #6EAFCD",
",=	c #7BC9EC",
"'=	c #31A4E0",
")=	c #3EACCB",
"!=	c #427C92",
"~=	c #3A4B55",
"{=	c #456270",
"]=	c #52798C",
"^=	c #5F92AA",
"/=	c #6CABC8",
"(=	c #78C3E6",
"_=	c #64C3F1",
":=	c #5CC7B3",
"<=	c #477F96",
"[=	c #3C505B",
"}=	c #507688",
"|=	c #77C1E4",
"1=	c #1995D8",
"2=	c #1590D3",
"3=	c #6FD99A",
"4=	c #457A91",
"5=	c #3D525D",
"6=	c #4A6B7B",
"7=	c #517A8C",
"8=	c #58859A",
"9=	c #5E93AB",
"0=	c #659FBA",
"a=	c #6DAECB",
"b=	c #7FD1F7",
"c=	c #52B8EB",
"d=	c #30A1D1",
"e=	c #7CE87F",
"f=	c #7EE97B",
"g=	c #40778D",
"h=	c #3E545F",
"i=	c #415A65",
"j=	c #425C68",
"k=	c #496A7A",
"l=	c #4E7384",
"m=	c #537B8E",
"n=	c #568498",
"o=	c #5B8BA3",
"p=	c #5F94AC",
"q=	c #649CB6",
"r=	c #68A5C1",
"s=	c #6DADCB",
"t=	c #72B7D7",
"u=	c #79C6E8",
"v=	c #7FD1F6",
"w=	c #7ED3F9",
"x=	c #1191D5",
"y=	c #028AD2",
"z=	c #55C0BB",
"A=	c #7FEA76",
"B=	c #48A6CC",
"C=	c #7CCBEE",
"D=	c #49B2E8",
"E=	c #6CD69F",
"F=	c #4DB9E4",
"G=	c #7BD0F8",
"H=	c #0C8ED4",
"I=	c #36A5CD",
"J=	c #4DBBE2",
"K=	c #80D4FA",
"L=	c #48B1E7",
"M=	c #60CAAF",
"N=	c #52C1D8",
"O=	c #7DD2F9",
"P=	c #7DD1F9",
"Q=	c #2B9ED0",
"R=	c #78E387",
"S=	c #5BC8C6",
"T=	c #75CDF6",
"U=	c #50B7EA",
"V=	c #67D4B4",
"W=	c #6BC7F3",
"X=	c #7FD4F9",
"Y=	c #1A96D9",
"Z=	c #71DD9E",
"`=	c #5DC0EE",
" -	c #63C2F0",
".-	c #54BFBD",
"+-	c #50BBE5",
"@-	c #56C3D7",
"#-	c #7BD1F8",
"$-	c #138FD3",
"%-	c #63CCAB",
"&-	c #64D1B5",
"*-	c #68C6F2",
"=-	c #56BAEC",
"--	c #43AEC5",
";-	c #78E48A",
">-	c #50BCE9",
",-	c #2CA2DE",
"'-	c #269AD3",
")-	c #51C2D2",
"!-	c #77CEF6",
"~-	c #76CEF6",
"{-	c #0F90D5",
"]-	c #5CC7B4",
"^-	c #6CD8A6",
"/-	c #60C3EF",
"(-	c #62C1F0",
"_-	c #0489D2",
":-	c #4DB8C1",
"<-	c #53C1DF",
"[-	c #44B0E6",
"}-	c #3AA8CB",
"|-	c #79E484",
"1-	c #68D5AD",
"2-	c #5FC0EE",
"3-	c #80D3FA",
"4-	c #289FDD",
"5-	c #72DD94",
"6-	c #4FBED4",
"7-	c #73CCF6",
"8-	c #72DF9B",
"9-	c #54BDEB",
"0-	c #0E8FD5",
"a-	c #2399D2",
"b-	c #66D0A9",
"c-	c #5DCBC4",
"d-	c #6CC8F3",
"e-	c #68C5F2",
"f-	c #098DD4",
"g-	c #65CFA8",
"h-	c #7DE87F",
"i-	c #52BFDA",
"j-	c #279AD1",
"k-	c #76E292",
"l-	c #55C0E5",
"m-	c #5DBDEE",
"n-	c #068BD2",
"o-	c #6ED99D",
"p-	c #6EDAA7",
"q-	c #58BFEB",
"r-	c #5EBFEE",
"s-	c #078AD3",
"t-	c #73DE94",
"u-	c #68D5B1",
"v-	c #5BBFEC",
"w-	c #61C0EF",
"x-	c #0A8CD4",
"y-	c #47B3C7",
"z-	c #79E486",
"A-	c #67D3B5",
"B-	c #5AC1ED",
"C-	c #1391D6",
"D-	c #269AD1",
"E-	c #6DDAA8",
"F-	c #55BFE6",
"G-	c #77CEF7",
"H-	c #219ADB",
"I-	c #3BA9CB",
"J-	c #72DC96",
"K-	c #53BEE5",
"L-	c #78CFF7",
"M-	c #2EA2DF",
"N-	c #57C2BA",
"O-	c #79E48B",
"P-	c #53C1DA",
"Q-	c #3FADC8",
"R-	c #6FDA9A",
"S-	c #62D0C3",
"T-	c #5CC2ED",
"U-	c #65C3F1",
"V-	c #1493D6",
"W-	c #31A0CF",
"X-	c #62CBAE",
"Y-	c #73DF9C",
"Z-	c #52BEE0",
"`-	c #6DC9F4",
" ;	c #33A5E1",
".;	c #2B9DD0",
"+;	c #5BC5B7",
"@;	c #7EE97C",
"#;	c #64D1BD",
"$;	c #56BEE8",
"%;	c #58BBED",
"&;	c #0D8ED5",
"*;	c #7CE881",
"=;	c #7EEA7F",
"-;	c #5DCACB",
";;	c #5BC2ED",
">;	c #7AD0F8",
",;	c #39A8E3",
"';	c #32A1CE",
");	c #5DC7B4",
"!;	c #7CE885",
"~;	c #59C6CD",
"{;	c #54BCEA",
"];	c #6DC8F4",
"^;	c #249DDD",
"/;	c #1A93D4",
"(;	c #41AEC8",
"_;	c #68D3A7",
":;	c #7EEA7D",
"<;	c #61CDC6",
"[;	c #57C0E7",
"};	c #6FC9F5",
"|;	c #1693D7",
"1;	c #33A3CF",
"2;	c #57C1BA",
"3;	c #6DDAAC",
"4;	c #57C4DC",
"5;	c #61C3EF",
"6;	c #53B9EB",
"7;	c #299DD2",
"8;	c #4BB7C5",
"9;	c #6DD9A1",
"0;	c #7CE982",
"a;	c #61D0C3",
"b;	c #54BFE2",
"c;	c #65C5F1",
"d;	c #7ED2F9",
"e;	c #6BD4A0",
"f;	c #7EEA7E",
"g;	c #63CFBC",
"h;	c #51BFDF",
"i;	c #5BC0ED",
"j;	c #67C5F2",
"k;	c #3FACC9",
"l;	c #5CC6B5",
"m;	c #78E38C",
"n;	c #81EC74",
"o;	c #6BD8AD",
"p;	c #58C6D3",
"q;	c #56BFE5",
"r;	c #63C5F0",
"s;	c #72CBF6",
"t;	c #40ADE6",
"u;	c #1292D6",
"v;	c #289CD3",
"w;	c #41AEC9",
"x;	c #71DC99",
"y;	c #5AC9D0",
"z;	c #53C0E2",
"A;	c #5DC0ED",
"B;	c #7FD3F9",
"C;	c #61C2F0",
"D;	c #2096D2",
"E;	c #37A6CD",
"F;	c #4FBAC1",
"G;	c #65D0AB",
"H;	c #7AE586",
"I;	c #7DEA7F",
"J;	c #6AD7B4",
"K;	c #5CCACF",
"L;	c #56C2E0",
"M;	c #59C1E9",
"N;	c #64C5F0",
"O;	c #72CCF6",
"P;	c #5DBEEE",
"Q;	c #2198D3",
"R;	c #34A4CE",
"S;	c #46B2C6",
"T;	c #58C2B8",
"U;	c #69D3A5",
"V;	c #7AE684",
"W;	c #7DE982",
"X;	c #6AD6AE",
"Y;	c #5ECCC6",
"Z;	c #57C4D6",
"`;	c #55C1E2",
" >	c #57C0E8",
".>	c #61C4EE",
"+>	c #69C7F2",
"@>	c #73CDF6",
"#>	c #61C1EF",
"$>	c #3AA9E3",
"%>	c #1491D4",
"&>	c #2DA0D1",
"*>	c #3BAACC",
"=>	c #49B5C5",
"->	c #64CEA9",
";>	c #71DC97",
">>	c #63D0C0",
",>	c #5CCBCC",
"'>	c #58C5D5",
")>	c #55C1DD",
"!>	c #54C0E3",
"~>	c #56BFE6",
"{>	c #59C1EA",
"]>	c #5CC1ED",
"^>	c #62C3EE",
"/>	c #62C3EF",
"(>	c #67C6F1",
"_>	c #70CAF5",
":>	c #70CBF5",
"<>	c #5FC1EE",
"[>	c #5ABFEE",
"}>	c #55BEE9",
"|>	c #52BDE7",
"1>	c #51BEE5",
"2>	c #51C0E1",
"3>	c #4BBBD0",
"4>	c #53BFBD",
"5>	c #5AC5B7",
"6>	c #61CCAE",
"7>	c #74DF91",
"                                                                                                                                                                                                                                                                                                                                                                                                                                                                                                                                                                                                                                                                                                                                                                                                                                                                                                                                                                                                ",
"                                                                                                                                                                                                                                                                                                                                                                                                                                                                                                                                                                                                                                                                                                                                                                                                                                                                                                                                                                                                ",
"                                                                                                                                                                                                                                                                                                                                                                                                                                                                                                                                                                                                                                                                                                                                                                                                                                                                                                                                                                                                ",
"                                                                                                                                                                                                                                                                                                                                                                                                                                                                                                                                                                                                                                                                                                                                                                                                                                                                                                                                                                                                ",
"                                                                                                                                                                                                                                                                                                                                                                                                                                                                                                                                                                                                                                                                                                                                                                                                                                                                                                                                                                                                ",
"                                                                                                                                                                                                                                                                                                                                                                                                                                                                                                                                                                                                                                                                                                                                                                                                                                                                                                                                                                                                ",
"                                                                                                                                                                                                                                                                                                                                                                                                                                                                                                                                                                                                                                                                                                                                                                                                                                                                                                                                                                                                ",
"                                                                                                                                                                                                                                                                                                                                                                                                                                                                                                                                                                                                                                                                                                                                                                                                                                                                                                                                                                                                ",
"                                                                                                                                                                                                                                                                                                                                                                                                                                                                                                                                                                                                                                                                                                                                                                                                                                                                                                                                                                                                ",
"                                                                                                                                                                                                                                                                                                                                                                                                                                                                                                                                                                                                                                                                                                                                                                                                                                                                                                                                                                                                ",
"                                                                                                                                                                                                                                                                                                                                                                                                                                                                                                                                                                                                                                                                                                                                                                                                                                                                                                                                                                                                ",
"                                                                                                                                                                                                                                                                                                                                                                                                                                                                                                                                                                                                                                                                                                                                                                                                                                                                                                                                                                                                ",
"                                                                                                                                                                                                                                                                                                                                                                                                                                                                                                                                                                                                                                                                                                                                                                                                                                                                                                                                                                                                ",
"                                                                                                                                                                                                                                                                                                                                                                                                                                                                                                                                                                                                                                                                                                                                                                                                                                                                                                                                                                                                ",
"                                                                                                                                                                                                                                                                                                                                                                                                                                                                                                                                                                                                                                                                                                                                                                                                                                                                                                                                                                                                ",
"                                                                                                                                                                                                                                                                                                                                                                                                                                                                                                                                                                                                                                                                                                                                                                                                                                                                                                                                                                                                ",
"                                                                                                                                                                                                                                                                                                                                                                                                                                                                                                                                                                                                                                                                                                                                                                                                                                                                                                                                                                                                ",
"                                                                                                                                                                                                                                                                                                                                                                                                                                                                                                                                                                                                                                                                                                                                                                                                                                                                                                                                                                                                ",
"                                                                                                                                                                                                                                                                                                                                                                                                                                                                                                                                                                                                                                                                                                                                                                                                                                                                                                                                                                                                ",
"                                                                                                                                                                                                                                                                                                                                                                                                                                                                                                                                                                                                                                                                                                                                                                                                                                                                                                                                                                                                ",
"                                                                                                                                                                                                                                                                                                                                                                                                                                                                                                                                                                                                                                                                                                                                                                                                                                                                                                                                                                                                ",
"                                                                                                                                                                                                                                                                                                                                                                                                                                                                                                                                                                                                                                                                                                                                                                                                                                                                                                                                                                                                ",
"                                                                                                                                                                                                                                                                                                                                                                                                                                                                                                                                                                                                                                                                                                                                                                                                                                                                                                                                                                                                ",
"                                                                                                                                                                                                                                                                                                                                                                                                                                                                                                                                                                                                                                                                                                                                                                                                                                                                                                                                                                                                ",
"                                                                                                                                                                                                                                                                                                                                                                                                                                                                                                                                                                                                                                                                                                                                                                                                                                                                                                                                                                                                ",
"                                                                                                                                                                                                                                                                                                                                                                                                                                                                                                                                                                                                                                                                                                                                                                                                                                                                                                                                                                                                ",
"                                                                                                                                                                                                                                                                                                                                                                                                                                                                                                                                                                                                                                                                                                                                                                                                                                                                                                                                                                                                ",
"                                                                                                                                                                                                                                                                                                                                                                                                                                                                                                                                                                                                                                                                                                                                                                                                                                                                                                                                                                                                ",
"                                                                                                                                                                                                                                                                                                                                                                                                                                                                                                                                                                                                                                                                                                                                                                                                                                                                                                                                                                                                ",
"                                                                                                                                                                                                                                                                                                                                                                                                                                                                                                                                                                                                                                                                                                                                                                                                                                                                                                                                                                                                ",
"                                                                                                                                                                                                                                                                                                                                                                                                                                                                                                                                                                                                                                                                                                                                                                                                                                                                                                                                                                                                ",
"                                                                                                                                                                                                                                                                                                                                                                                                                                                                                                                                                                                                                                                                                                                                                                                                                                                                                                                                                                                                ",
"                                                                                                                                                                                                                                                                                                                                                                                                                                                                                                                                                                                                                                                                                                                                                                                                                                                                                                                                                                                                ",
"                                                                                                                                                                                                                                                                                                                                                                                                                                                                                                                                                                                                                                                                                                                                                                                                                                                                                                                                                                                                ",
"                                                                                                                                                                                                                                                                                                                                                                                                                                                                                                                                                                                                                                                                                                                                                                                                                                                                                                                                                                                                ",
"                                                                                                                                                                                                                                                                                                                                                                                                                                                                                                                                                                                                                                                                                                                                                                                                                                                                                                                                                                                                ",
"                                                                                                                                                                                                                                                                                                                                                                                                                                                                                                                                                                                                                                                                                                                                                                                                                                                                                                                                                                                                ",
"                                                                                                                                                                                                                                                                                                                                                                                                                                                                                                                                                                                                                                                                                                                                                                                                                                                                                                                                                                                                ",
"                                                                                                                                                                                                                                                                                                                                                                                                                                                                                                                                                                                                                                                                                                                                                                                                                                                                                                                                                                                                ",
"                                                                                                                                                                                                                                                                                                                                                                                                                                                                                                                                                                                                                                                                                                                                                                                                                                                                                                                                                                                                ",
"                                                                                                                                                                                                                                                                                                                                                                                                                                                                                                                                                                                                                                                                                                                                                                                                                                                                                                                                                                                                ",
"                                                                                                                                                                                                                                                                                                                                                                                                                                                                                                                                                                                                                                                                                                                                                                                                                                                                                                                                                                                                ",
"                                                                                                                                                                                                                                                                                                                                                                                                                                                                                                                                                                                                                                                                                                                                                                                                                                                                                                                                                                                                ",
"                                                                                                                                                                                                                                                                                                                                                                                                                                                                                                                                                                                                                                                                                                                                                                                                                                                                                                                                                                                                ",
"                                                                                                                                                                                                                                                                                                                                                                                                                                                                                                                                                                                                                                                                                                                                                                                                                                                                                                                                                                                                ",
"                                                                                                                                                                                                                                                                                                                                                                                                                                                                                                                                                                                                                                                                                                                                                                                                                                                                                                                                                                                                ",
"                                                                                                                                                                                                                                                                                                                                                                                                                                                                                                                                                                                                                                                                                                                                                                                                                                                                                                                                                                                                ",
"                                                                                                                                                                                                                                                                                                                                                                                                                                                                                                                                                                                                                                                                                                                                                                                                                                                                                                                                                                                                ",
"                                                                                                                                                                                                                                                                                                                                                                                                                                                                                                                                                                                                                                                                                                                                                                                                                                                                                                                                                                                                ",
"                                                                                                                                                                                                                                                                                                                                                                                                                                                                                                                                                                                                                                                                                                                                                                                                                                                                                                                                                                                                ",
"                                                                                                                                                                                                                                                                                                                                                                                                                                                                                                                                                                                                                                                                                                                                                                                                                                                                                                                                                                                                ",
"                                                                                                                                                                                                                                                                                                                                                                                                                                                                                                                                                                                                                                                                                                                                                                                                                                                                                                                                                                                                ",
"                                                                                                                                                                                                                                                                                                                                                                                                                                                                                                                                                                                                                                                                                                                                                                                                                                                                                                                                                                                                ",
"                                                                                                                                                                                                                                                                                                                                                                                                                                                                                                                                                                                                                                                                                                                                                                                                                                                                                                                                                                                                ",
"                                                                                                                                                                                                                                                                                                                                                                                                                                                                                                                                                                                                                                                                                                                                                                                                                                                                                                                                                                                                ",
"                                                                                                                                                                                                                                                                                                                                                                                                                                                                                                                                                                                                                                                                                                                                                                                                                                                                                                                                                                                                ",
"                                                                                                                                                                                                                                                                                                                                                                                                                                                                                                                                                                                                                                                                                                                                                                                                                                                                                                                                                                                                ",
"                                                                                                                                                                                                                                                                                                                                                                                                                                                                                                                                                                                                                                                                                                                                                                                                                                                                                                                                                                                                ",
"                                                                                                                                                                                                                                                                                                                                                                                                                                                                                                                                                                                                                                                                                                                                                                                                                                                                                                                                                                                                ",
"                                                                                                                                                                                                                                                                                                                                                                                                                                                                                                                                                                                                                                                                                                                                                                                                                                                                                                                                                                                                ",
"                                                                                                                                                                                                                                                                                                                                                                                                                                                                                                                                                                                                                                                                                                                                                                                                                                                                                                                                                                                                ",
"                                                                                                                                                                                                                                                                                                                                                                                                                                                                                                                                                                                                                                                                                                                                                                                                                                                                                                                                                                                                ",
"                                                                                                                                                                                                                                                                                                                                                                                                                                                                                                                                                                                                                                                                                                                                                                                                                                                                                                                                                                                                ",
"                                                                                                                                                                                                                                                                                                                                                                                                                                                                                                                                                                                                                                                                                                                                                                                                                                                                                                                                                                                                ",
"                                                                                                                                                                                                                                                                                                                                                                                                                                                                                                                                                                                                                                                                                                                                                                                                                                                                                                                                                                                                ",
"                                                                                                                                                                                                                                                                                                                                                                                                                                                                                                                                                                                                                                                                                                                                                                                                                                                                                                                                                                                                ",
"                                                                                                                                                                                                                                                                                                                                                                                                                                                                                                                                                                                                                                                                                                                                                                                                                                                                                                                                                                                                ",
"                                                                                                                                                                                                                                                                                                                                                                                                                                                                                                                                                                                                                                                                                                                                                                                                                                                                                                                                                                                                ",
"                                                                                                                                                                                                                                                                                                                                                                                                                                                                                                                                                                                                                                                                                                                                                                                                                                                                                                                                                                                                ",
"                                                                                                                                                                                                                                                                                                                                                                                                                                                                                                                                                                                                                                                                                                                                                                                                                                                                                                                                                                                                ",
"                                                                                                                                                                                                                                                                                                                                                                                                                                                                                                                                                                                                                                                                                                                                                                                                                                                                                                                                                                                                ",
"                                                                                                                                                                                                                                                                                                                                                                                                                                                                                                                                                                                                                                                                                                                                                                                                                                                                                                                                                                                                ",
"                                                                                                                                                                                                                                                                                                                                                                                                                                                                                                                                                                                                                                                                                                                                                                                                                                                                                                                                                                                                ",
"                                                                                                                                                                                                                                                                                                                                                                                                                                                                                                                                                                                                                                                                                                                                                                                                                                                                                                                                                                                                ",
"                                                                                                                                                                                                                                                                                                                                                                                                                                                                                                                                                                                                                                                                                                                                                                                                                                                                                                                                                                                                ",
"                                                                                                                                                                                                                                                                                                                                                                                                                                                                                                                                                                                                                                                                                                                                                                                                                                                                                                                                                                                                ",
"                                                                                                                                                                                                                                                                                                                                                                                                                                                                                                                                                                                                                                                                                                                                                                                                                                                                                                                                                                                                ",
"                                                                                                                                                                                                                                                                                                                                                                                                                                                                                                                                                                                                                                                                                                                                                                                                                                                                                                                                                                                                ",
"                                                                                                                                                                                                                                                                                                                                                                                                                                                                                                                                                                                                                                                                                                                                                                                                                                                                                                                                                                                                ",
"                                                                                                                                                                                                                                                                                                                                                                                                                                                                                                                                                                                                                                                                                                                                                                                                                                                                                                                                                                                                ",
"                                                                                                                                                                                                                                                                                                                                                                                                                                                                                                                                                                                                                                                                                                                                                                                                                                                                                                                                                                                                ",
"                                                                                                                                                                                                                                                                                                                                                                                                                                                                                                                                                                                                                                                                                                                                                                                                                                                                                                                                                                                                ",
"                                                                                                                                                                                                                                                                                                                                                                                                                                                                                                                                                                                                                                                                                                                                                                                                                                                                                                                                                                                                ",
"                                                                                                                                                                                                                                                                                                                                                                                                                                                                                                                                                                                                                                                                                                                                                                                                                                                                                                                                                                                                ",
"                                                                                                                                                                                                                                                                                                                                                                                                                                                                                                                                                                                                                                                                                                                                                                                                                                                                                                                                                                                                ",
"                                                                                                                                                                                                                                                                                                                                                                                                                                                                                                                                                                                                                                                                                                                                                                                                                                                                                                                                                                                                ",
"                                                                                                                                                                                                                                                                                                                                                                                                                                                                                                                                                                                                                                                                                                                                                                                                                                                                                                                                                                                                ",
"                                                                                                                                                                                                                                                                                                                                                                                                                                                                                                                                                                                                                                                                                                                                                                                                                                                                                                                                                                                                ",
"                                                                                                                                                                                                                                                                                                                                                                                                                                                                                                                                                                                                                                                                                                                                                                                                                                                                                                                                                                                                ",
"                                                                                                                                                                                                                                                                                                                                                                                                                                                                                                                                                                                                                                                                                                                                                                                                                                                                                                                                                                                                ",
"                                                                                                                                                                                                                                                                                                                                                                                                                                    . . . . . . . . . . . . . . . . . . . . . . . . . . . . . . . . . . . . . . . . . . . . . . . . . .                                                                                                                                                                                                                                                                                                                                                                                                                                                         ",
"                                                                                                                                                                                                                                                                                                                                                                                                                                    . . . . . . . . . . . . . . . . . . . . . . . . . . . . . . . . . . . . . . . . . . . . . . . . . .                                                                                                                                                                                                                                                                                                                                                                                                                                                         ",
"                                                                                                                                                                                                                                                                                                                                                                                                                                    . . . . . . . . . . . . . . . . . . . . . . . . . . . . . . . . . . . . . . . . . . . . . . . . . .                                                                                                                                                                                                                                                                                                                                                                                                                                                         ",
"                                                                                                                                                                                                                                                                                                                                                                                                                                    . . . . . . . . . . . . . . . . . . . . . . . . . . . . . . . . . . . . . . . . . . . . . . . . . .                                                                                                                                                                                                                                                                                                                                                                                                                                                         ",
"                                                                                                                                                                                                                                                                                                                                                                                                                                    . . . . . . . . . . . . . . . . . . . . . . . . . . . . . . . . . . . . . . . . . . . . . . . . . .                                                                                                                                                                                                                                                                                                                                                                                                                                                         ",
"                                                                                                                                                                                                                                                                                                                                                                                                                                    . . . . . . . . . . . . . . . . . . . . . . . . . . . . . . . . . . . . . . . . . . . . . . . . . .                                                                                                                                                                                                                                                                                                                                                                                                                                                         ",
"                                                                                                                                                                                                                                                                                                                                                                                                                                    . . . . . . . . . . . . . . . . . . . . . . . . . . . . . . . . . . . . . . . . . . . . . . . . . .                                                                                                                                                                                                                                                                                                                                                                                                                                                         ",
"                                                                                                                                                                                                                                                                                                                                                                                                                                    . . . . . . . . . . . . . . . . . . . . . . . . . . . . . . . . . . . . . . . . . . . . . . . . . .                                                                                                                                                                                                                                                                                                                                                                                                                                                         ",
"                                                                                                                                                                                                                                                                                                                                                                                                                                    . . . . . . . . . . . . . . . . . . . . . . . . . . . . . . . . . . . . . . . . . . . . . . . . . .                                                                                                                                                                                                                                                                                                                                                                                                                                                         ",
"                                                                                                                                                                                                                                                                                                                                                                                                                                    . . . . . . . . . . . . . . . . . . . . . . . . . . . . . . . . . . . . . . . . . . . . . . . . . .                                                                                                                                                                                                                                                                                                                                                                                                                                                         ",
"                                                                                                                                                                                                                                                                                                                                                                                                                                    . . . . . . . . . . . . . . . . . . . . . . . . . . . . . . . . . . . . . . . . . . . . . . . . . .                                                                                                                                                                                                                                                                                                                                                                                                                                                         ",
"                                                                                                                                                                                                                                                                                                                                                                                                                                    . . . . . . . . . . . . . . . . . . . . . . . . . . . . . . . . . . . . . . . . . . . . . . . . . .                                                                                                                                                                                                                                                                                                                                                                                                                                                         ",
"                                                                                                                                                                                                                                                                                                                                                                                                                                    . . . . . . . . . . . . . . . . . . . . . . . . . . . . . . . . . . . . . . . . . . . . . . . . . .                                                                                                                                                                                                                                                                                                                                                                                                                                                         ",
"                                                                                                                                                                                                                                                                                                                                                                                                                                    . . . . . . . . . . . . . . . . . . . . . . . . . . . . . . . . . . . . . . . . . . . . . . . . . .                                                                                                                                                                                                                                                                                                                                                                                                                                                         ",
"                                                                                                                                                                                                                                                                                                                                                                                                                                    . . . . . . . . . . . . . . . . . . . . . . . . . . . . . . . . . . . . . . . . . . . . . . . . . .                                                                                                                                                                                                                                                                                                                                                                                                                                                         ",
"                                                                                                                                                                                                                                                                                                                                                                                                                                    . . . . . . . . . . . . . . . . . . . . . . . . . . . . . . . . . . . . . . . . . . . . . . . . . .                                                                                                                                                                                                                                                                                                                                                                                                                                                         ",
"                                                                                                                                                                                                                                                                                                                                                                                                                                    . . . . . . . . . . . . . . . . . . . . . . . . . . . . . . . . . . . . . . . . . . . . . . . . . .                                                                                                                                                                                                                                                                                                                                                                                                                                                         ",
"                                                                                                                                                                                                                                                                                                                                                                                                                                    . . . . . . . . . . . . . . . . . . . . . . . . . . . . . . . . . . . . . . . . . . . . . . . . . .                                                                                                                                                                                                                                                                                                                                                                                                                                                         ",
"                                                                                                                                                                                                                                                                                                                                                                                                                                    . . . . . . . . . . . . . . . . . . . . . . . . . . . . . . . . . . . . . . . . . . . . . . . . . .                                                                                                                                                                                                                                                                                                                                                                                                                                                         ",
"                                                                                                                                                                                                                                                                                                                                                                                                                                    . . . . . . . . . . . . . . . . . . . . . . . . . . . . . . . . . . . . . . . . . . . . . . . . . .                                                                                                                                                                                                                                                                                                                                                                                                                                                         ",
"                                                                                                                                                                                                                                                                                                                                                                                                                                    . . . . . . . . . . . . . . . . . . . . . . . . . . . . . . . . . . . . . . . . . . . . . . . . . .                                                                                                                                                                                                                                                                                                                                                                                                                                                         ",
"                                                                                                                                                                                                                                                                                                                                                                                                                                    . . . . . . . . . . . . . . . . . . . . . . . . . . . . . . . . . . . . . . . . . . . . . . . . . .                                                                                                                                                                                                                                                                                                                                                                                                                                                         ",
"                                                                                                                                                                                                                                                                                                                                                                                                                                    . . . . . . . . . . . . . . . . . . . . . . . . . . . . . . . . . . . . . . . . . . . . . . . . . .                                                                                                                                                                                                                                                                                                                                                                                                                                                         ",
"                                                                                                                                                                                                                                                                                                                                                                                                                                    . . . . . . . . . . . . . . . . . . . . . . . . . . . . . . . . . . . . . . . . . . . . . . . . . .                                                                                                                                                                                                                                                                                                                                                                                                                                                         ",
"                                                                                                                                                                                                                                                                                                                                                                                                                                    . . . . . . . . . . . . . . . . . . . . . . . . . . . . . . . . . . . . . . . . . . . . . . . . . .                                                                                                                                                                                                                                                                                                                                                                                                                                                         ",
"                                                                                                                                                                                                                                                                                                                                                                                                                                    . . . . . . . . . . . . . . . . . . . . . . . . . . . . . . . . . . . . . . . . . . . . . . . . . .                                                                                                                                                                                                                                                                                                                                                                                                                                                         ",
"                                                                                                                                                                                                                                                                                                                                                                                                                                    . . . . . . . . . . . . . . . . . . . . . . . . . . . . . . . . . . . . . . . . . . . . . . . . . .                                                                                                                                                                                                                                                                                                                                                                                                                                                         ",
"                                                                                                                                                                                                                                                                                                                                                                                                                                    . . . . . . . . . . . . . . . . . . . . . . . . . . . . . . . . . . . . . . . . . . . . . . . . . .                                                                                                                                                                                                                                                                                                                                                                                                                                                         ",
"                                                                                                                                                                                                                                                                                                                                                                                                                                    . . . . . . . . . . . . . . . . . . . . . . . . . . . . . . . . . . . . . . . . . . . . . . . . . .                                                                                                                                                                                                                                                                                                                                                                                                                                                         ",
"                                                                                                                                                                                                                                                                                                                                                                                                                                    . . . . . . . . . . . . . . . . . . . . . . . . . . . . . . . . . . . . . . . . . . . . . . . . . .                                                                                                                                                                                                                                                                                                                                                                                                                                                         ",
"                                                                                                                                                                                                                                                                                                                                                                                                                                    . . . . . . . . . . . . . . . . . . . . . . . . . . . . . . . . . . . . . . . . . . . . . . . . . .                                                                                                                                                                                                                                                                                                                                                                                                                                                         ",
"                                                                                                                                                                                                                                                                                                                                                                                                                                    . . . . . . . . . . . . . . . . . . . . . . . . . . . . . . . . . . . . . . . . . . . . . . . . . .                                                                                                                                                                                                                                                                                                                                                                                                                                                         ",
"                                                                                                                                                                                                                                                                                                                                                                                                                                    . . . . . . . . . . . . . . . . . . . . . . . . . . . . . . . . . . . . . . . . . . . . . . . . . .                                                                                                                                                                                                                                                                                                                                                                                                                                                         ",
"                                                                                                                                                                                                                                                                                                                                                                                                                                    . . . . . . . . . . . . . . . . . . . . . . . . . . . . . . . . . . . . . . . . . . . . . . . . . .                                                                                                                                                                                                                                                                                                                                                                                                                                                         ",
"                                                                                                                                                                                                                                                                                                                                                                                                                                    . . . . . . . . . . . . . . . . . . . . . . . . . . . . . . . . . . . . . . . . . . . . . . . . . .                                                                                                                                                                                                                                                                                                                                                                                                                                                         ",
"                                                                                                                                                                                                                                                                                                                                                                                                                                    . . . . . . . . . . . . . . . . . . . . . . . . . . . . . . . . . . . . . . . . . . . . . . . . . .                                                                                                                                                                                                                                                                                                                                                                                                                                                         ",
"                                                                                                                                                                                                                                                                                                                                                                                                                                    . . . . . . . . . . . . . . . . . . . . . . . . . . . . . . . . . . . . . . . . . . . . . . . . . .                                                                                                                                                                                                                                                                                                                                                                                                                                                         ",
"                                                                                                                                                                                                                                                                                                                                                                                                                                    . . . . . . . . . . . . . . . . . . . . . . . . . . . . . . . . . . . . . . . . . . . . . . . . . .                                                                                                                                                                                                                                                                                                                                                                                                                                                         ",
"                                                                                                                                                                                                                                                                                                                                                                                                                                    . . . . . . . . . . . . . . . . . . . . . . . . . . . . . . . . . . . . . . . . . . . . . . . . . .                                                                                                                                                                                                                                                                                                                                                                                                                                                         ",
"                                                                                                                                                                                                                                                                                                                                                                                                                                    . . . . . . . . . . . . . . . . . . . . . . . . . . . . . . . . . . . . . . . . . . . . . . . . . .                                                                                                                                                                                                                                                                                                                                                                                                                                                         ",
"                                                                                                                                                                                                                                                                                                                                                                                                                                    . . . . . . . . . . . . . . . . . . . . . . . . . . . . . . . . . . . . . . . . . . . . . . . . . .                                                                                                                                                                                                                                                                                                                                                                                                                                                         ",
"                                                                                                                                                                                                                                                                                                                                                                                                                                    . . . . . . . . . . . . . . . . . . . . . . . . . . . . . . . . . . . . . . . . . . . . . . . . . .                                                                                                                                                                                                                                                                                                                                                                                                                                                         ",
"                                                                                                                                                                                                                                                                                                                                                                                                                                    . . . . . . . . . . . . . . . . . . . . . . . . . . . . . . . . . . . . . . . . . . . . . . . . . .                                                                                                                                                                                                                                                                                                                                                                                                                                                         ",
"                                                                                                                                                                                                                                                                                                                                                                                                                                    . . . . . . . . . . . . . . . . . . . . . . . . . . . . . . . . . . . . . . . . . . . . . . . . . .                                                                                                                                                                                                                                                                                                                                                                                                                                                         ",
"                                                                                                                                                                                                                                                                                                                                                                                                                                    . . . . . . . . . . . . . . . . . . . . . . . . . . . . . . . . . . . . . . . . . . . . . . . . . .                                                                                                                                                                                                                                                                                                                                                                                                                                                         ",
"                                                                                                                                                                                                                                                                                                                                                                                                                                    . . . . . . . . . . . . . . . . . . . . . . . . . . . . . . . . . . . . . . . . . . . . . . . . . .                                                                                                                                                                                                                                                                                                                                                                                                                                                         ",
"                                                                                                                                                                                                                                                                                                                                                                                                                                    . . . . . . . . . . . . . . . . . . . . . . . . . . . . . . . . . . . . . . . . . . . . . . . . . .                                                                                                                                                                                                                                                                                                                                                                                                                                                         ",
"                                                                                                                                                                                                                                                                                                                                                                                                                                    . . . . . . . . . . . . . . . . . . . . . . . . . . . . . . . . . . . . . . . . . . . . . . . . . .                                                                                                                                                                                                                                                                                                                                                                                                                                                         ",
"                                                                                                                                                                                                                                                                                                                                                                                                                                    . . . . . . . . . . . . . . . . . . . . . . . . . . . . . . . . . . . . . . . . . . . . . . . . . .                                                                                                                                                                                                                                                                                                                                                                                                                                                         ",
"                                                                                                                                                                                                                                                                                                                                                                                                                                    . . . . . . . . . . . . . . . . . . . . . . . . . . . . . . . . . . . . . . . . . . . . . . . . . .                                                                                                                                                                                                                                                                                                                                                                                                                                                         ",
"                                                                                                                                                                                                                            + + + + + + + + + + + + + + + + + + + + + + + + + + + + + + + + + + + + + + + + + + + + + + + + + + . . . . . . . . . . . . . . . . . . . . . . . . . . . . . . . . . . . . . . . . . . . . . . . . . . + + + + + + + + + + + + + + + + + + + + + + + + + + + + + + + + + + + + + + + + + + + + + + + + + +                                                                                                                                                                                                                                     @ #                                                                                                                                                                                                                 ",
"                                                                                                                                                                                                                            + + + + + + + + + + + + + + + + + + + + + + + + + + + + + + + + + + + + + + + + + + + + + + + + + + . . . . . . . . . . . . . . . . . . . . . . . . . . . . . . . . . . . . . . . . . . . . . . . . . . + + + + + + + + + + + + + + + + + + + + + + + + + + + + + + + + + + + + + + + + + + + + + + + + + +                                                                                                                                                                                                                                 $ % & & * $                                                                                                                                                                                                             ",
"                                                                                                                                                                                                                            + + + + + + + + + + + + + + + + + + + + + + + + + + + + + + + + + + + + + + + + + + + + + + + + + + . . . . . . . . . . . . . . . . . . . . . . . . . . . . . . . . . . . . . . . . . . . . . . . . . . + + + + + + + + + + + + + + + + + + + + + + + + + + + + + + + + + + + + + + + + + + + + + + + + + +                                                                                                                                                                                                                               = - & & & & ; >                                                                                                                                                                                                           ",
"                                                                                                                                                                                                                            + + + + + + + + + + + + + + + + + + + + + + + + + + + + + + + + + + + + + + + + + + + + + + + + + + . . . . . . . . . . . . . . . . . . . . . . . . . . . . . . . . . . . . . . . . . . . . . . . . . . + + + + + + + + + + + + + + + + + + + + + + + + + + + + + + + + + + + + + + + + + + + + + + + + + +                                                                                                                                                                                                                             , ' & & & & & & ) =                                                                                                                                                                                                         ",
"                                                                                                                                                                                                                            + + + + + + + + + + + + + + + + + + + + + + + + + + + + + + + + + + + + + + + + + + + + + + + + + + . . . . . . . . . . . . . . . . . . . . . . . . . . . . . . . . . . . . . . . . . . . . . . . . . . + + + + + + + + + + + + + + + + + + + + + + + + + + + + + + + + + + + + + + + + + + + + + + + + + +                                                                                                                                                                                                                           = ! & & & & & & & & - $                                                                                                                                                                                                       ",
"                                                                                                                                                                                                                            + + + + + + + + + + + + + + + + + + + + + + + + + + + + + + + + + + + + + + + + + + + + + + + + + + . . . . . . . . . . . . . . . . . . . . . . . . . . . . . . . . . . . . . . . . . . . . . . . . . . + + + + + + + + + + + + + + + + + + + + + + + + + + + + + + + + + + + + + + + + + + + + + + + + + +                                                                                                                                                                                                                         > ~ & & & & & & & & & & *                                                                                                                                                                                                       ",
"                                                                                                                                                                                                                            + + + + + + + + + + + + + + + + + + + + + + + + + + + + + + + + + + + + + + + + + + + + + + + + + + . . . . . . . . . . . . . . . . . . . . . . . . . . . . . . . . . . . . . . . . . . . . . . . . . . + + + + + + + + + + + + + + + + + + + + + + + + + + + + + + + + + + + + + + + + + + + + + + + + + +                                                                                                                                                                                                                       $ { & & & & & & & & & & & & ]                                                                                                                                                                                                     ",
"                                                                                                                                                                                                                            + + + + + + + + + + + + + + + + + + + + + + + + + + + + + + + + + + + + + + + + + + + + + + + + + + . . . . . . . . . . . . . . . . . . . . . . . . . . . . . . . . . . . . . . . . . . . . . . . . . . + + + + + + + + + + + + + + + + + + + + + + + + + + + + + + + + + + + + + + + + + + + + + + + + + +                                                                                                                                                                                                                       ^ & & & & & & & & & & & & & & /                                                                                                                                                                                                   ",
"                                                                                                                                                                                                                            + + + + + + + + + + + + + + + + + + + + + + + + + + + + + + + + + + + + + + + + + + + + + + + + + + . . . . . . . . . . . . . . . . . . . . . . . . . . . . . . . . . . . . . . . . . . . . . . . . . . + + + + + + + + + + + + + + + + + + + + + + + + + + + + + + + + + + + + + + + + + + + + + + + + + +                                                                                                                                                                                                                     ( & & & & & & & & & & & & & & & _ :                                                                                                                                                                                                 ",
"                                                                                                                                                                                                                            + + + + + + + + + + + + + + + + + + + + + + + + + + + + + + + + + + + + + + + + + + + + + + + + + + . . . . . . . . . . . . . . . . . . . . . . . . . . . . . . . . . . . . . . . . . . . . . . . . . . + + + + + + + + + + + + + + + + + + + + + + + + + + + + + + + + + + + + + + + + + + + + + + + + + +                                                                                                                                                                                                                   < [ & & & & & & & & & & & & & & & & } |                                                                                                                                                                                               ",
"                                                                                                                                                                                                                            + + + + + + + + + + + + + + + + + + + + + + + + + + + + + + + + + + + + + + + + + + + + + + + + + + . . . . . . . . . . . . . . . . . . . . . . . . . . . . . . . . . . . . . . . . . . . . . . . . . . + + + + + + + + + + + + + + + + + + + + + + + + + + + + + + + + + + + + + + + + + + + + + + + + + +                                                                                                                                                                                                                 1 2 & & & & & & & & & & & & & & & & & & 3 4                                                                                                                                                                                             ",
"                                                                                                                                                                                                                            + + + + + + + + + + + + + + + + + + + + + + + + + + + + + + + + + + + + + + + + + + + + + + + + + + . . . . . . . . . . . . . . . . . . . . . . . . . . . . . . . . . . . . . . . . . . . . . . . . . . + + + + + + + + + + + + + + + + + + + + + + + + + + + + + + + + + + + + + + + + + + + + + + + + + +                                                                                                                                                                                                               5 6 & & & & & & & & & & & & & & & & & & & & 7 8                                                                                                                                                                                           ",
"                                                                                                                                                                                                                            + + + + + + + + + + + + + + + + + + + + + + + + + + + + + + + + + + + + + + + + + + + + + + + + + + . . . . . . . . . . . . . . . . . . . . . . . . . . . . . . . . . . . . . . . . . . . . . . . . . . + + + + + + + + + + + + + + + + + + + + + + + + + + + + + + + + + + + + + + + + + + + + + + + + + +                                                                                                                                                                                                             , 9 & & & & & & & & & & & & & & & & & & & & & & 0 >                                                                                                                                                                                         ",
"                                                                                                                                                                                                                            + + + + + + + + + + + + + + + + + + + + + + + + + + + + + + + + + + + + + + + + + + + + + + + + + + . . . . . . . . . . . . . . . . . . . . . . . . . . . . . . . . . . . . . . . . . . . . . . . . . . + + + + + + + + + + + + + + + + + + + + + + + + + + + + + + + + + + + + + + + + + + + + + + + + + +                                                                                                                                                                                                             a & & & & & & & & & & & & & & & & & & & & & & & & b                                                                                                                                                                                         ",
"                                                                                                                                                                                                                            + + + + + + + + + + + + + + + + + + + + + + + + + + + + + + + + + + + + + + + + + + + + + + + + + + . . . . . . . . . . . . . . . . . . . . . . . . . . . . . . . . . . . . . . . . . . . . . . . . . . + + + + + + + + + + + + + + + + + + + + + + + + + + + + + + + + + + + + + + + + + + + + + + + + + +                                                                                                                                                                                                           c _ & & & & & & & & & & & & & & & & & & & & & & & & d e                                                                                                                                                                                       ",
"                                                                                                                                                                                                                            + + + + + + + + + + + + + + + + + + + + + + + + + + + + + + + + + + + + + + + + + + + + + + + + + + . . . . . . . . . . . . . . . . . . . . . . . . . . . . . . . . . . . . . . . . . . . . . . . . . . + + + + + + + + + + + + + + + + + + + + + + + + + + + + + + + + + + + + + + + + + + + + + + + + + +                                                                                                                                                                                                         f g & & & & & & & & & & & & & & & & & & & & & & & & & & h f                                                                                                                                                                                     ",
"                                                                                                                                                                                                                            + + + + + + + + + + + + + + + + + + + + + + + + + + + + + + + + + + + + + + + + + + + + + + + + + + . . . . . . . . . . . . . . . . . . . . . . . . . . . . . . . . . . . . . . . . . . . . . . . . . . + + + + + + + + + + + + + + + + + + + + + + + + + + + + + + + + + + + + + + + + + + + + + + + + + +                                                                                                                                                                                                       > 9 & & & & & & & & & & & & & & & & & & & & & & & & & & & & i $                                                                                                                                                                                   ",
"                                                                                                                                                                                                                            + + + + + + + + + + + + + + + + + + + + + + + + + + + + + + + + + + + + + + + + + + + + + + + + + + . . . . . . . . . . . . . . . . . . . . . . . . . . . . . . . . . . . . . . . . . . . . . . . . . . + + + + + + + + + + + + + + + + + + + + + + + + + + + + + + + + + + + + + + + + + + + + + + + + + +                                                                                                                                                                                                       j & & & & & & & & & & & & & & & & & & & & & & & & & & & & & & k                                                                                                                                                                                   ",
"                                                                                                                                                                                                                            + + + + + + + + + + + + + + + + + + + + + + + + + + + + + + + + + + + + + + + + + + + + + + + + + + . . . . . . . . . . . . . . . . . . . . . . . . . . . . . . . . . . . . . . . . . . . . . . . . . . + + + + + + + + + + + + + + + + + + + + + + + + + + + + + + + + + + + + + + + + + + + + + + + + + +                                                                                                                                                                                                     l m & & & & & & & & & & & & & & & & & & & & & & & & & & & & & & n o                                                                                                                                                                                 ",
"                                                                                                                                                                                                                            + + + + + + + + + + + + + + + + + + + + + + + + + + + + + + + + + + + + + + + + + + + + + + + + + + . . . . . . . . . . . . . . . . . . . . . . . . . . . . . . . . . . . . . . . . . . . . . . . . . . + + + + + + + + + + + + + + + + + + + + + + + + + + + + + + + + + + + + + + + + + + + + + + + + + +                                                                                                                                                                                                   $ i & & & & & & & & & & & & & & & & & & & & & & & & & & & & & & & & 9 $                                                                                                                                                                               ",
"                                                                                                                                                                                                                            + + + + + + + + + + + + + + + + + + + + + + + + + + + + + + + + + + + + + + + + + + + + + + + + + + . . . . . . . . . . . . . . . . . . . . . . . . . . . . . . . . . . . . . . . . . . . . . . . . . . + + + + + + + + + + + + + + + + + + + + + + + + + + + + + + + + + + + + + + + + + + + + + + + + + +                                                                                                                                                                                                   : & & & & & & & & & & & & & & & & & & & & & & & & & & & & & & & & & & p                                                                                                                                                                               ",
"                                                                                                                                                                                                                            + + + + + + + + + + + + + + + + + + + + + + + + + + + + + + + + + + + + + + + + + + + + + + + + + + . . . . . . . . . . . . . . . . . . . . . . . . . . . . . . . . . . . . . . . . . . . . . . . . . . + + + + + + + + + + + + + + + + + + + + + + + + + + + + + + + + + + + + + + + + + + + + + + + + + +                                                                                                                                                                                                 q r & & & & & & & & & & & & & & & & & & & & & & & & & & & & & & & & & & s t                                                                                                                                                                             ",
"                                                                                                                                                                                                                            + + + + + + + + + + + + + + + + + + + + + + + + + + + + + + + + + + + + + + + + + + + + + + + + + + . . . . . . . . . . . . . . . . . . . . . . . . . . . . . . . . . . . . . . . . . . . . . . . . . . + + + + + + + + + + + + + + + + + + + + + + + + + + + + + + + + + + + + + + + + + + + + + + + + + +                                                                                                                                                                                                 u & & & & & & & & & & & & & & & & & & & & & & & & & & & & & & & & & & & & v                                                                                                                                                                             ",
"                                                                                                                                                                                                                            + + + + + + + + + + + + + + + + + + + + + + + + + + + + + + + + + + + + + + + + + + + + + + + + + + . . . . . . . . . . . . . . . . . . . . . . . . . . . . . . . . . . . . . . . . . . . . . . . . . . + + + + + + + + + + + + + + + + + + + + + + + + + + + + + + + + + + + + + + + + + + + + + + + + + +                                                                                                                                                                                               w x & & & & & & & & & & & & & & & & & & & & & & & & & & & & & & & & & & & & } y                                                                                                                                                                           ",
"                                                                                                                                                                                                                            + + + + + + + + + + + + + + + + + + + + + + + + + + + + + + + + + + + + + + + + + + + + + + + + + + . . . . . . . . . . . . . . . . . . . . . . . . . . . . . . . . . . . . . . . . . . . . . . . . . . + + + + + + + + + + + + + + + + + + + + + + + + + + + + + + + + + + + + + + + + + + + + + + + + + +                                                                                                                                                                                               z & & & & & & & & & & & & & & & & & & & & & & & & & & & & & & & & & & & & & & A                                                                                                                                                                           ",
"                                                                                                                                                                                                                            + + + + + + + + + + + + + + + + + + + + + + + + + + + + + + + + + + + + + + + + + + + + + + + + + + . . . . . . . . . . . . . . . . . . . . . . . . . . . . . . . . . . . . . . . . . . . . . . . . . . + + + + + + + + + + + + + + + + + + + + + + + + + + + + + + + + + + + + + + + + + + + + + + + + + +                                                                                                                                                                                             B [ & & & & & & & & & & & & & & & & & & & & & & & & & & & & & & & & & & & & & & _ 1                                                                                                                                                                         ",
"                                                                                                                                                                                                                            + + + + + + + + + + + + + + + + + + + + + + + + + + + + + + + + + + + + + + + + + + + + + + + + + + . . . . . . . . . . . . . . . . . . . . . . . . . . . . . . . . . . . . . . . . . . . . . . . . . . + + + + + + + + + + + + + + + + + + + + + + + + + + + + + + + + + + + + + + + + + + + + + + + + + +                                                                                                                                                                                             ! & & & & & & & & & & & & & & & & & & & & & & & & & & & & & & & & & & & & & & & & C                                                                                                                                                                         ",
"                                                                                                                                                                                                                            + + + + + + + + + + + + + + + + + + + + + + + + + + + + + + + + + + + + + + + + + + + + + + + + + + . . . . . . . . . . . . . . . . . . . . . . . . . . . . . . . . . . . . . . . . . . . . . . . . . . + + + + + + + + + + + + + + + + + + + + + + + + + + + + + + + + + + + + + + + + + + + + + + + + + +                                                                                                                                                                                           D [ & & & & & & & & & & & & & & & & & & & & & & & & & & & & & & & & & & & & & & & & _ E                                                                                                                                                                       ",
"                                                                                                                                                                                                                            + + + + + + + + + + + + + + + + + + + + + + + + + + + + + + + + + + + + + + + + + + + + + + + + + + . . . . . . . . . . . . . . . . . . . . . . . . . . . . . . . . . . . . . . . . . . . . . . . . . . + + + + + + + + + + + + + + + + + + + + + + + + + + + + + + + + + + + + + + + + + + + + + + + + + +                                                                                                                                                                                           ; & & & & & & & & & & & & & & & & & & & & & & & & & & & & & & & & & & & & & & & & & & -                                                                                                                                                                       ",
"                                                                                                                                                                                                                            + + + + + + + + + + + + + + + + + + + + + + + + + + + + + + + + + + + + + + + + + + + + + + + + + + . . . . . . . . . . . . . . . . . . . . . . . . . . . . . . . . . . . . . . . . . . . . . . . . . . + + + + + + + + + + + + + + + + + + + + + + + + + + + + + + + + + + + + + + + + + + + + + + + + + +                                                                                                                                                                                         F G & & & & & & & & & & & & & & & & & & & & & & & & & & & & & & & & & & & & & & & & & & G 5                                                                                                                                                                     ",
"                                                                                                                                                                                                                            + + + + + + + + + + + + + + + + + + + + + + + + + + + + + + + + + + + + + + + + + + + + + + + + + + . . . . . . . . . . . . . . . . . . . . . . . . . . . . . . . . . . . . . . . . . . . . . . . . . . + + + + + + + + + + + + + + + + + + + + + + + + + + + + + + + + + + + + + + + + + + + + + + + + + +                                                                                                                                                                                         / & & & & & & & & & & & & & & & & & & & & & & & & & & & & & & & & & & & & & & & & & & & & H                                                                                                                                                                     ",
"                                                                                                                                                                                                                            + + + + + + + + + + + + + + + + + + + + + + + + + + + + + + + + + + + + + + + + + + + + + + + + + + . . . . . . . . . . . . . . . . . . . . . . . . . . . . . . . . . . . . . . . . . . . . . . . . . . + + + + + + + + + + + + + + + + + + + + + + + + + + + + + + + + + + + + + + + + + + + + + + + + + +                                                                                                                                                                                       $ I & & & & & & & & & & & & & & & & & & & & & & & & & & & & & & & & & & & & & & & & & & & & J $                                                                                                                                                                   ",
"                                                                                                                                                                                                                            + + + + + + + + + + + + + + + + + + + + + + + + + + + + + + + + + + + + + + + + + + + + + + + + + + . . . . . . . . . . . . . . . . . . . . . . . . . . . . . . . . . . . . . . . . . . . . . . . . . . + + + + + + + + + + + + + + + + + + + + + + + + + + + + + + + + + + + + + + + + + + + + + + + + + +                                                                                                                                                                                       K & & & & & & & & & & & & & & & & & & & & & & & & & & & & & & & & & & & & & & & & & & & & & & L                                                                                                                                                                   ",
"                                                                                                                                                                                                                            + + + + + + + + + + + + + + + + + + + + + + + + + + + + + + + + + + + + + + + + + + + + + + + + + + . . . . . . . . . . . . . . . . . . . . . . . . . . . . . . . . . . . . . . . . . . . . . . . . . . + + + + + + + + + + + + + + + + + + + + + + + + + + + + + + + + + + + + + + + + + + + + + + + + + +                                                                                                                                                                                       { & & & & & & & & & & & & & & & & & & & & & & & & & & & & & & & & & & & & & & & & & & & & & & M                                                                                                                                                                   ",
"                                                                                                                                                                                                                            + + + + + + + + + + + + + + + + + + + + + + + + + + + + + + + + + + + + + + + + + + + + + + + + + + . . . . . . . . . . . . . . . . . . . . . . . . . . . . . . . . . . . . . . . . . . . . . . . . . . + + + + + + + + + + + + + + + + + + + + + + + + + + + + + + + + + + + + + + + + + + + + + + + + + +                                                                                                                                                                                     N s & & & & & & & & & & & & & & & & & & & & & & & & & & & & & & & & & & & & & & & & & & & & & & O $                                                                                                                                                                 ",
"                                                                                                                                                                                                                            + + + + + + + + + + + + + + + + + + + + + + + + + + + + + + + + + + + + + + + + + + + + + + + + + + . . . . . . . . . . . . . . . . . . . . . . . . . . . . . . . . . . . . . . . . . . . . . . . . . . + + + + + + + + + + + + + + + + + + + + + + + + + + + + + + + + + + + + + + + + + + + + + + + + + +                                                                                                                                                                                     e & & & & & & & & & & & & & & & & & & & & & & & & & & & & & & & & & & & & & & & & & & & & & & & & P                                                                                                                                                                 ",
"                                                                                                                                                                                                                            + + + + + + + + + + + + + + + + + + + + + + + + + + + + + + + + + + + + + + + + + + + + + + + + + + . . . . . . . . . . . . . . . . . . . . . . . . . . . . . . . . . . . . . . . . . . . . . . . . . . + + + + + + + + + + + + + + + + + + + + + + + + + + + + + + + + + + + + + + + + + + + + + + + + + +                                                                                                                                                                                     Q & & & & & & & & & & & & & & & & & & & & & & & & & & & & & & & & & & & & & & & & & & & & & & & & /                                                                                                                                                                 ",
"                                                                                                                                                                                                                            + + + + + + + + + + + + + + + + + + + + + + + + + + + + + + + + + + + + + + + + + + + + + + + + + + . . . . . . . . . . . . . . . . . . . . . . . . . . . . . . . . . . . . . . . . . . . . . . . . . . + + + + + + + + + + + + + + + + + + + + + + + + + + + + + + + + + + + + + + + + + + + + + + + + + +                                                                                                                                                                                     R & & & & & & & & & & & & & & & & & & & & & & & & & & & & & & & & & & & & & & & & & & & & & & & & S                                                                                                                                                                 ",
"                                                                                                                                                                                                                            + + + + + + + + + + + + + + + + + + + + + + + + + + + + + + + + + + + + + + + + + + + + + + + + + + . . . . . . . . . . . . . . . . . . . . . . . . . . . . . . . . . . . . . . . . . . . . . . . . . . + + + + + + + + + + + + + + + + + + + + + + + + + + + + + + + + + + + + + + + + + + + + + + + + + +                                                                                                                                                                                   l & & & & & & & & & & & & & & & & & & & & & & & & & & & & & & & & & & & & & & & & & & & & & & & & & T N                                                                                                                                                               ",
"                                                                                                                                                                                                                            + + + + + + + + + + + + + + + + + + + + + + + + + + + + + + + + + + + + + + + + + + + + + + + + + + . . . . . . . . . . . . . . . . . . . . . . . . . . . . . . . . . . . . . . . . . . . . . . . . . . + + + + + + + + + + + + + + + + + + + + + + + + + + + + + + + + + + + + + + + + + + + + + + + + + +                                                                                                                                                                                   p & & & & & & & & & & & & & & & & & & & & & & & & & & & & & & & & & & & & & & & & & & & & & & & & & & P                                                                                                                                                               ",
"                                                                                                                                                                                                                            + + + + + + + + + + + + + + + + + + + + + + + + + + + + + + + + + + + + + + + + + + + + + + + + + + . . . . . . . . . . . . . . . . . . . . . . . . . . . . . . . . . . . . . . . . . . . . . . . . . . + + + + + + + + + + + + + + + + + + + + + + + + + + + + + + + + + + + + + + + + + + + + + + + + + +                                                                                                                                                                                   ) & & & & & & & & & & & & & & & & & & & & & & & & & & & & & & & & & & & & & & & & & & & & & & & & & & U                                                                                                                                                               ",
"                                                                                                                                                                                                                            + + + + + + + + + + + + + + + + + + + + + + + + + + + + + + + + + + + + + + + + + + + + + + + + + + . . . . . . . . . . . . . . . . . . . . . . . . . . . . . . . . . . . . . . . . . . . . . . . . . . + + + + + + + + + + + + + + + + + + + + + + + + + + + + + + + + + + + + + + + + + + + + + + + + + +                                                                                                                                                                                   V & & & & & & & & & & & & & & & & & & & & & & & & & & & & & & & & & & & & & & & & & & & & & & & & & & W                                                                                                                                                               ",
"                                                                                                                                                                                                                            + + + + + + + + + + + + + + + + + + + + + + + + + + + + + + + + + + + + + + + + + + + + + + + + + + . . . . . . . . . . . . . . . . . . . . . . . . . . . . . . . . . . . . . . . . . . . . . . . . . . + + + + + + + + + + + + + + + + + + + + + + + + + + + + + + + + + + + + + + + + + + + + + + + + + +                                                                                                                                                                                 q d & & & & & & & & & & & & & & & & & & & & & & & & & & & & & & & & & & & & & & & & & & & & & & & & & & S                                                                                                                                                               ",
"                                                                                                                                                                                                                            + + + + + + + + + + + + + + + + + + + + + + + + + + + + + + + + + + + + + + + + + + + + + + + + + + . . . . . . . . . . . . . . . . . . . . . . . . . . . . . . . . . . . . . . . . . . . . . . . . . . + + + + + + + + + + + + + + + + + + + + + + + + + + + + + + + + + + + + + + + + + + + + + + + + + +                                                                                                                                                                                 X & & & & & & & & & & & & & & & & & & & & & & & & & & & & & & & & & & & & & & & & & & & & & & & & & & & Y                                                                                                                                                               ",
"                                                                                                                                                                                                                            + + + + + + + + + + + + + + + + + + + + + + + + + + + + + + + + + + + + + + + + + + + + + + + + + + . . . . . . . . . . . . . . . . . . . . . . . . . . . . . . . . . . . . . . . . . . . . . . . . . . + + + + + + + + + + + + + + + + + + + + + + + + + + + + + + + + + + + + + + + + + + + + + + + + + +                                                                                                                                                                                 : & & & & & & & & & & & & & & & & & & & & & & & & & & & & & & & & & & & & & & & & & & & & & & & & & & & Z                                                                                                                                                               ",
"                                                                                                                                                                                                                            + + + + + + + + + + + + + + + + + + + + + + + + + + + + + + + + + + + + + + + + + + + + + + + + + + . . . . . . . . . . . . . . . . . . . . . . . . . . . . . . . . . . . . . . . . . . . . . . . . . . + + + + + + + + + + + + + + + + + + + + + + + + + + + + + + + + + + + + + + + + + + + + + + + + + +                                                                                                                                                                                 ^ & & & & & & & & & & & & & & & & & & & & & & & & & & & & & & & & & & & & & & & & & & & & & & & & & & & & `                                                                                                                                                             ",
"                                                                                                                                                                                                                            + + + + + + + + + + + + + + + + + + + + + + + + + + + + + + + + + + + + + + + + + + + + + + + + + + . . . . . . . . . . . . . . . . . . . . . . . . . . . . . . . . . . . . . . . . . . . . . . . . . . + + + + + + + + + + + + + + + + + + + + + + + + + + + + + + + + + + + + + + + + + + + + + + + + + +                                                                                                                                                                                  .& & & & & & & & & & & & & & & & & & & & & & & & & & & & & & & & & & & & & & & & & & & & & & & & & & & & ..                                                                                                                                                            ",
"                                                                                                                                                                                                                            + + + + + + + + + + + + + + + + + + + + + + + + + + + + + + + + + + + + + + + + + + + + + + + + + + . . . . . . . . . . . . . . . . . . . . . . . . . . . . . . . . . . . . . . . . . . . . . . . . . . + + + + + + + + + + + + + + + + + + + + + + + + + + + + + + + + + + + + + + + + + + + + + + + + + +                                                                                                                                                                                 +.& & & & & & & & & & & & & & & & & & & & & & & & & & & & & & & & & & & & & & & & & & & & & & & & & & & & @.                                                                                                                                                            ",
"                                                                                                                                                                                                                            + + + + + + + + + + + + + + + + + + + + + + + + + + + + + + + + + + + + + + + + + + + + + + + + + + . . . . . . . . . . . . . . . . . . . . . . . . . . . . . . . . . . . . . . . . . . . . . . . . . . + + + + + + + + + + + + + + + + + + + + + + + + + + + + + + + + + + + + + + + + + + + + + + + + + +                                                                                                                                                                                 #.& & & & & & & & & & & & & & & & & & & & & & & & & & & & & & & & & & & & & & & & & & & & & & & & & & & & $.                                                                                                                                                            ",
"                                                                                                                                                                                                                            + + + + + + + + + + + + + + + + + + + + + + + + + + + + + + + + + + + + + + + + + + + + + + + + + + . . . . . . . . . . . . . . . . . . . . . . . . . . . . . . . . . . . . . . . . . . . . . . . . . . + + + + + + + + + + + + + + + + + + + + + + + + + + + + + + + + + + + + + + + + + + + + + + + + + +                                                                                                                                                                                 s & & & & & & & & & & & & & & & & & & & & & & & & & & & & & & & & & & & & & & & & & & & & & & & & & & & & P                                               ` %.&.*.*.< =.-.*.&.;.f =                                                                                     ",
"                                                                                                                        + + + + + + + + + + + + + + + + + + + + + + + + + + + + + + + + + + + + + + + + + + + + + + + + + + . . . . . . . . . . . . . . . . . . . . . . . . . . . . . . . . . . . . . . . . . . . . . . . . . . + + + + + + + + + + + + + + + + + + + + + + + + + + + + + + + + + + + + + + + + + + + + + + + + + + . . . . . . . . . . . . . . . . . . . . . . . . . . . . . . . . . . . . . . . . . . . . . . . . . . + + + + + + + + + + + + + + + + + + + + + + + + + + + + + + + + + + + + + + + + + + + + + + + + + +                                                                             >.& & & & & & & & & & & & & & & & & & & & & & & & & & & & & & & & & & & & & & & & & & & & & & & & & & & & $.                                  ,.'.@ ).!.T & & & & & & & & & & & & [ ~.{.].^./.(._.                                                                      ",
"                                                                                                                        + + + + + + + + + + + + + + + + + + + + + + + + + + + + + + + + + + + + + + + + + + + + + + + + + + . . . . . . . . . . . . . . . . . . . . . . . . . . . . . . . . . . . . . . . . . . . . . . . . . . + + + + + + + + + + + + + + + + + + + + + + + + + + + + + + + + + + + + + + + + + + + + + + + + + + . . . . . . . . . . . . . . . . . . . . . . . . . . . . . . . . . . . . . . . . . . . . . . . . . . + + + + + + + + + + + + + + + + + + + + + + + + + + + + + + + + + + + + + + + + + + + + + + + + + +                                                                           :.& & & & & & & & & & & & & & & & & & & & & & & & & & & & & & & & & & & & & & & & & & & & & & & & & & & & & l                           <.[. .}.& & & & & & & & & & & & & & & & & & & & & & & & & [ V ) |.1.>                                                             ",
"                                                                                                                        + + + + + + + + + + + + + + + + + + + + + + + + + + + + + + + + + + + + + + + + + + + + + + + + + + . . . . . . . . . . . . . . . . . . . . . . . . . . . . . . . . . . . . . . . . . . . . . . . . . . + + + + + + + + + + + + + + + + + + + + + + + + + + + + + + + + + + + + + + + + + + + + + + + + + + . . . . . . . . . . . . . . . . . . . . . . . . . . . . . . . . . . . . . . . . . . . . . . . . . . + + + + + + + + + + + + + + + + + + + + + + + + + + + + + + + + + + + + + + + + + + + + + + + + + +                                                                           , & & & & & & & & & & & & & & & & & & & & & & & & & & & & & & & & & & & & & & & & & & & & & & & & & & & & & 5                     2.3.9 4.& & & & & & & & & & & & & & & & & & & & & & & & & & & & & & & & & 5.6.k @.                                                      ",
"                                                                                                                        + + + + + + + + + + + + + + + + + + + + + + + + + + + + + + + + + + + + + + + + + + + + + + + + + + . . . . . . . . . . . . . . . . . . . . . . . . . . . . . . . . . . . . . . . . . . . . . . . . . . + + + + + + + + + + + + + + + + + + + + + + + + + + + + + + + + + + + + + + + + + + + + + + + + + + . . . . . . . . . . . . . . . . . . . . . . . . . . . . . . . . . . . . . . . . . . . . . . . . . . + + + + + + + + + + + + + + + + + + + + + + + + + + + + + + + + + + + + + + + + + + + + + + + + + +                                                                           $ & & & & & & & & & & & & & & & & & & & & & & & & & & & & & & & & & & & & & & & & & & & & & & & & & & & & d N                 X z 2 & & & & & & & & & & & & & & & & & & & & & & & & & & & & & & & & & & & & & & & & O 7.8.9.                                              ",
"                                                                                                                        + + + + + + + + + + + + + + + + + + + + + + + + + + + + + + + + + + + + + + + + + + + + + + + + + + . . . . . . . . . . . . . . . . . . . . . . . . . . . . . . . . . . . . . . . . . . . . . . . . . . + + + + + + + + + + + + + + + + + + + + + + + + + + + + + + + + + + + + + + + + + + + + + + + + + + . . . . . . . . . . . . . . . . . . . . . . . . . . . . . . . . . . . . . . . . . . . . . . . . . . + + + + + + + + + + + + + + + + + + + + + + + + + + + + + + + + + + + + + + + + + + + + + + + + + +                                                                             4.& & & & & & & & & & & & & & & & & & & & & & & & & & & & & & & & & & & & & & & & & & & & & & & & & & & 0.            $ c 9 & & & & & & & & & & & & & & & & & & & & & & & & & & & & & & & & & & & & & & & & & & & & & & a.b.'.c.                                        ",
"                                                                                                                        + + + + + + + + + + + + + + + + + + + + + + + + + + + + + + + + + + + + + + + + + + + + + + + + + + . . . . . . . . . . . . . . . . . . . . . . . . . . . . . . . . . . . . . . . . . . . . . . . . . . + + + + + + + + + + + + + + + + + + + + + + + + + + + + + + + + + + + + + + + + + + + + + + + + + + . . . . . . . . . . . . . . . . . . . . . . . . . . . . . . . . . . . . . . . . . . . . . . . . . . + + + + + + + + + + + + + + + + + + + + + + + + + + + + + + + + + + + + + + + + + + + + + + + + + +                                                                             G & & & & & & & & & & & & & & & & & & & & & & & & & & & & & & & & & & & & & & & & & & & & & & & & & & & d.          e.f.& & & & & & & & & & & & & & & & & & & & & & & & & & & & & & & & & & & & & & & & & & & & & & & & & & & R                                         ",
"                                                                                                                        + + + + + + + + + + + + + + + + + + + + + + + + + + + + + + + + + + + + + + + + + + + + + + + + + + . . . . . . . . . . . . . . . . . . . . . . . . . . . . . . . . . . . . . . . . . . . . . . . . . . + + + + + + + + + + + + + + + + + + + + + + + + + + + + + + + + + + + + + + + + + + + + + + + + + + . . . . . . . . . . . . . . . . . . . . . . . . . . . . . . . . . . . . . . . . . . . . . . . . . . + + + + + + + + + + + + + + + + + + + + + + + + + + + + + + + + + + + + + + + + + + + + + + + + + +                                                                             T & & & & & & & & & & & & & & & & & & & & & & & & & & & & & & & & & & & & & & & & & & & & & & & & & & & b.      %.g.& & & & & & & & & & & & & & & & & & & & & & & & & & & & & & & & & & & & & & & & & & & & & & & & & & & & & )                                         ",
"                                                                                                                        + + + + + + + + + + + + + + + + + + + + + + + + + + + + + + + + + + + + + + + + + + + + + + + + + + . . . . . . . . . . . . . . . . . . . . . . . . . . . . . . . . . . . . . . . . . . . . . . . . . . + + + + + + + + + + + + + + + + + + + + + + + + + + + + + + + + + + + + + + + + + + + + + + + + + + . . . . . . . . . . . . . . . . . . . . . . . . . . . . . . . . . . . . . . . . . . . . . . . . . . + + + + + + + + + + + + + + + + + + + + + + + + + + + + + + + + + + + + + + + + + + + + + + + + + +                                                                             h & & & & & & & & & & & & & & & & & & & & & & & & & & & & & & & & & & & & & & & & & & & & & & & & & & & h.  = i.m & & & & & & & & & & & & & & & & & & & & & & & & & & & & & & & & & & & & & & & & & & & & & & & & & & & & & & '.                                        ",
"                                                                                                                        + + + + + + + + + + + + + + + + + + + + + + + + + + + + + + + + + + + + + + + + + + + + + + + + + + . . . . . . . . . . . . . . . . . . . . . . . . . . . . . . . . . . . . . . . . . . . . . . . . . . + + + + + + + + + + + + + + + + + + + + + + + + + + + + + + + + + + + + + + + + + + + + + + + + + + . . . . . . . . . . . . . . . . . . . . . . . . . . . . . . . . . . . . . . . . . . . . . . . . . . + + + + + + + + + + + + + + + + + + + + + + + + + + + + + + + + + + + + + + + + + + + + + + + + + +                                                                             !.& & & & & & & & & & & & & & & & & & & & & & & & & & & & & & & & & & & & & & & & & & & & & & & & & & & c w j.& & & & & & & & & & & & & & & & & & & & & & & & & & & & & & & & & & & & & & & & & & & & & & & & & & & & & & & 4.t                                         ",
"                                                                                                                        + + + + + + + + + + + + + + + + + + + + + + + + + + + + + + + + + + + + + + + + + + + + + + + + + + . . . . . . . . . . . . . . . . . . . . . . . . . . . . . . . . . . . . . . . . . . . . . . . . . . + + + + + + + + + + + + + + + + + + + + + + + + + + + + + + + + + + + + + + + + + + + + + + + + + + . . . . . . . . . . . . . . . . . . . . . . . . . . . . . . . . . . . . . . . . . . . . . . . . . . + + + + + + + + + + + + + + + + + + + + + + + + + + + + + + + + + + + + + + + + + + + + + + + + + +                                                                             6.& & & & & & & & & & & & & & & & & & & & & & & & & & & & & & & & & & & & & & & & & & & & & & & & & & & k.a.& & & & & & & & & & & & & & & & & & & & & & & & & & & & & & & & & & & & & & & & & & & & & & & & & & & & & & & & l.                                          ",
"                                                                                                                        + + + + + + + + + + + + + + + + + + + + + + + + + + + + + + + + + + + + + + + + + + + + + + + + + + . . . . . . . . . . . . . . . . . . . . . . . . . . . . . . . . . . . . . . . . . . . . . . . . . . + + + + + + + + + + + + + + + + + + + + + + + + + + + + + + + + + + + + + + + + + + + + + + + + + + . . . . . . . . . . . . . . . . . . . . . . . . . . . . . . . . . . . . . . . . . . . . . . . . . . + + + + + + + + + + + + + + + + + + + + + + + + + + + + + + + + + + + + + + + + + + + + + + + + + +                                                                             m.& & & & & & & & & & & & & & & & & & & & & & & & & & & & & & & & & & & & & & & & & & & & & & & & & & & & & & & & & & & & & & & & & & & & & & & & & & & & & & & & & & & & & & & & & & & & & & & & & & & & & & & & & & & & & n.                                          ",
"                                                                                                                        + + + + + + + + + + + + + + + + + + + + + + + + + + + + + + + + + + + + + + + + + + + + + + + + + + . . . . . . . . . . . . . . . . . . . . . . . . . . . . . . . . . . . . . . . . . . . . . . . . . . + + + + + + + + + + + + + + + + + + + + + + + + + + + + + + + + + + + + + + + + + + + + + + + + + + . . . . . . . . . . . . . . . . . . . . . . . . . . . . . . . . . . . . . . . . . . . . . . . . . . + + + + + + + + + + + + + + + + + + + + + + + + + + + + + + + + + + + + + + + + + + + + + + + + + +                                                                             k.& & & & & & & & & & & & & & & & & & & & & & & & & & & & & & & & & & & & & & & & & & & & & & & & & & & & & & & & & & & & & & & & & & & & & & & & & & & & & & & & & & & & & & & & & & & & & & & & & & & & & & & & & & & & & 1                                           ",
"                                                                                                                        + + + + + + + + + + + + + + + + + + + + + + + + + + + + + + + + + + + + + + + + + + + + + + + + + + . . . . . . . . . . . . . . . . . . . . . . . . . . . . . . . . . . . . . . . . . . . . . . . . . . + + + + + + + + + + + + + + + + + + + + + + + + + + + + + + + + + + + + + + + + + + + + + + + + + + . . . . . . . . . . . . . . . . . . . . . . . . . . . . . . . . . . . . . . . . . . . . . . . . . . + + + + + + + + + + + + + + + + + + + + + + + + + + + + + + + + + + + + + + + + + + + + + + + + + +                                                                             o.& & & & & & & & & & & & & & & & & & & & & & & & & & & & & & & & & & & & & & & & & & & & & & & & & & & & & & & & & & & & & & & & & & & & & & & & & & & & & & & & & & & & & & & & & & & & & & & & & & & & & & & & & & & & r $                                           ",
"                                                                                                                        + + + + + + + + + + + + + + + + + + + + + + + + + + + + + + + + + + + + + + + + + + + + + + + + + + . . . . . . . . . . . . . . . . . . . . . . . . . . . . . . . . . . . . . . . . . . . . . . . . . . + + + + + + + + + + + + + + + + + + + + + + + + + + + + + + + + + + + + + + + + + + + + + + + + + + . . . . . . . . . . . . . . . . . . . . . . . . . . . . . . . . . . . . . . . . . . . . . . . . . . + + + + + + + + + + + + + + + + + + + + + + + + + + + + + + + + + + + + + + + + + + + + + + + + + +                                                                             E & & & & & & & & & & & & & & & & & & & & & & & & & & & & & & & & & & & & & & & & & & & & & & & & & & & & & & & & & & & & & & & & & & & & & & & & & & & & & & & & & & & & & & & & & & & & & & & & & & & & & & & & & & & & %                                             ",
"                                                                                                                        + + + + + + + + + + + + + + + + + + + + + + + + + + + + + + + + + + + + + + + + + + + + + + + + + + . . . . . . . . . . . . . . . . . . . . . . . . . . . . . . . . . . . . . . . . . . . . . . . . . . + + + + + + + + + + + + + + + + + + + + + + + + + + + + + + + + + + + + + + + + + + + + + + + + + + . . . . . . . . . . . . . . . . . . . . . . . . . . . . . . . . . . . . . . . . . . . . . . . . . . + + + + + + + + + + + + + + + + + + + + + + + + + + + + + + + + + + + + + + + + + + + + + + + + + +                                                                             = n & & & & & & & & & & & & & & & & & & & & & & & & & & & & & & & & & & & & & & & & & & & & & & & & & & & & & & & & & & & & & & & & & & & & & & & & & & & & & & & & & & & & & & & & & & & & & & & & & & & & & & & & & & & P                                             ",
"                                                                                                                        + + + + + + + + + + + + + + + + + + + + + + + + + + + + + + + + + + + + + + + + + + + + + + + + + + . . . . . . . . . . . . . . . . . . . . . . . . . . . . . . . . . . . . . . . . . . . . . . . . . . + + + + + + + + + + + + + + + + + + + + + + + + + + + + + + + + + + + + + + + + + + + + + + + + + + . . . . . . . . . . . . . . . . . . . . . . . . . . . . . . . . . . . . . . . . . . . . . . . . . . + + + + + + + + + + + + + + + + + + + + + + + + + + + + + + + + + + + + + + + + + + + + + + + + + +                                                                               p.& & & & & & & & & & & & & & & & & & & & & & & & & & & & & & & & & & & & & & & & & & & & & & & & & & & & & & & & & & & & & & & & & & & & & & & & & & & & & & & & & & & & & & & & & & & & & & & & & & & & & & & & & & V                                               ",
"                                                                                                                        + + + + + + + + + + + + + + + + + + + + + + + + + + + + + + + + + + + + + + + + + + + + + + + + + + . . . . . . . . . . . . . . . . . . . . . . . . . . . . . . . . . . . . . . . . . . . . . . . . . . + + + + + + + + + + + + + + + + + + + + + + + + + + + + + + + + + + + + + + + + + + + + + + + + + + . . . . . . . . . . . . . . . . . . . . . . . . . . . . . . . . . . . . . . . . . . . . . . . . . . + + + + + + + + + + + + + + + + + + + + + + + + + + + + + + + + + + + + + + + + + + + + + + + + + +                                                                               u & & & & & & & & & & & & & & & & & & & & & & & & & & & & & & & & & & & & & & & & & & & & & & & & & & & & & & & & & & & & & & & & & & & & & & & & & & & & & & & & & & & & & & & & & & & & & & & & & & & & & & & & & & /                                               ",
"                                                                                                                        + + + + + + + + + + + + + + + + + + + + + + + + + + + + + + + + + + + + + + + + + + + + + + + + + + . . . . . . . . . . . . . . . . . . . . . . . . . . . . . . . . . . . . . . . . . . . . . . . . . . + + + + + + + + + + + + + + + + + + + + + + + + + + + + + + + + + + + + + + + + + + + + + + + + + + . . . . . . . . . . . . . . . . . . . . . . . . . . . . . . . . . . . . . . . . . . . . . . . . . . + + + + + + + + + + + + + + + + + + + + + + + + + + + + + + + + + + + + + + + + + + + + + + + + + +                                                                               o.& & & & & & & & & & & & & & & & & & & & & & & & & & & & & & & & & & & & & & & & & & & & & & & & & & & & & & & & & & & & & & & & & & & & & & & & & & & & & & & & & & & & & & & & & & & & & & & & & & & & & & & & & d q.                                              ",
"                                                                                                                        + + + + + + + + + + + + + + + + + + + + + + + + + + + + + + + + + + + + + + + + + + + + + + + + + + . . . . . . . . . . . . . . . . . . . . . . . . . . . . . . . . . . . . . . . . . . . . . . . . . . + + + + + + + + + + + + + + + + + + + + + + + + + + + + + + + + + + + + + + + + + + + + + + + + + + . . . . . . . . . . . . . . . . . . . . . . . . . . . . . . . . . . . . . . . . . . . . . . . . . . + + + + + + + + + + + + + + + + + + + + + + + + + + + + + + + + + + + + + + + + + + + + + + + + + +                                                                               q.& & & & & & & & & & & & & & & & & & & & & & & & & & & & & & & & & & & & & & & & & & & & & & & & & & & & & & & & & & & & & & & & & & & & & & & & & & & & & & & & & & & & & & & & & & & & & & & & & & & & & & & & & r.                                                ",
"                                                                                                                        + + + + + + + + + + + + + + + + + + + + + + + + + + + + + + + + + + + + + + + + + + + + + + + + + + . . . . . . . . . . . . . . . . . . . . . . . . . . . . . . . . . . . . . . . . . . . . . . . . . . + + + + + + + + + + + + + + + + + + + + + + + + + + + + + + + + + + + + + + + + + + + + + + + + + + . . . . . . . . . . . . . . . . . . . . . . . . . . . . . . . . . . . . . . . . . . . . . . . . . . + + + + + + + + + + + + + + + + + + + + + + + + + + + + + + + + + + + + + + + + + + + + + + + + + +                                                                                 s.& & & & & & & & & & & & & & & & & & & & & & & & & & & & & & & & & & & & & & & & & & & & & & & & & & & & & & & & & & & & & & & & & & & & & & & & & & & & & & & & & & & & & & & & & & & & & & & & & & & & & & & & :                                                 ",
"                                                                                                                        + + + + + + + + + + + + + + + + + + + + + + + + + + + + + + + + + + + + + + + + + + + + + + + + + + . . . . . . . . . . . . . . . . . . . . . . . . . . . . . . . . . . . . . . . . . . . . . . . . . . + + + + + + + + + + + + + + + + + + + + + + + + + + + + + + + + + + + + + + + + + + + + + + + + + + . . . . . . . . . . . . . . . . . . . . . . . . . . . . . . . . . . . . . . . . . . . . . . . . . . + + + + + + + + + + + + + + + + + + + + + + + + + + + + + + + + + + + + + + + + + + + + + + + + + +                                                                                 ] & & & & & & & & & & & & & & & & & & & & & & & & & & & & & & & & & & & & & & & & & & & & & & & & & & & & & & & & & & & & & & & & & & & & & & & & & & & & & & & & & & & & & & & & & & & & & & & & & & & & & & & h `                                                 ",
"                                                                                                                        + + + + + + + + + + + + + + + + + + + + + + + + + + + + + + + + + + + + + + + + + + + + + + + + + + . . . . . . . . . . . . . . . . . . . . . . . . . . . . . . . . . . . . . . . . . . . . . . . . . . + + + + + + + + + + + + + + + + + + + + + + + + + + + + + + + + + + + + + + + + + + + + + + + + + + . . . . . . . . . . . . . . . . . . . . . . . . . . . . . . . . . . . . . . . . . . . . . . . . . . + + + + + + + + + + + + + + + + + + + + + + + + + + + + + + + + + + + + + + + + + + + + + + + + + +                                                                                 &.& & & & & & & & & & & & & & & & & & & & & & & & & & & & & & & & & & & & & & & & & & & & & & & & & & & & & & & & & & & & & & & & & & & & & & & & & & & & & & & & & & & & & & & & & & & & & & & & & & & & & & & t.                                                  ",
"                                                                                                                        + + + + + + + + + + + + + + + + + + + + + + + + + + + + + + + + + + + + + + + + + + + + + + + + + + . . . . . . . . . . . . . . . . . . . . . . . . . . . . . . . . . . . . . . . . . . . . . . . . . . + + + + + + + + + + + + + + + + + + + + + + + + + + + + + + + + + + + + + + + + + + + + + + + + + + . . . . . . . . . . . . . . . . . . . . . . . . . . . . . . . . . . . . . . . . . . . . . . . . . . + + + + + + + + + + + + + + + + + + + + + + + + + + + + + + + + + + + + + + + + + + + + + + + + + +                                                                                 > u.& & & & & & & & & & & & & & & & & & & & & & & & & & & & & & & & & & & & & & & & & & & & & & & & & & & & & & & & & & & & & & & & & & & & & & & & & & & & & & & & & & & & & & & & & & & & & & & & & & & & & n 5                                                   ",
"                                                                                                                        + + + + + + + + + + + + + + + + + + + + + + + + + + + + + + + + + + + + + + + + + + + + + + + + + + . . . . . . . . . . . . . . . . . . . . . . . . . . . . . . . . . . . . . . . . . . . . . . . . . . + + + + + + + + + + + + + + + + + + + + + + + + + + + + + + + + + + + + + + + + + + + + + + + + + + . . . . . . . . . . . . . . . . . . . . . . . . . . . . . . . . . . . . . . . . . . . . . . . . . . + + + + + + + + + + + + + + + + + + + + + + + + + + + + + + + + + + + + + + + + + + + + + + + + + +                                                                                   ; & & & & & & & & & & & & & & & & & & & & & & & & & & & & & & & & & & & & & & & & & & & & & & & & & & & & & & & & & & & & & & & & & & & & & & & & & & & & & & & & & & & & & & & & & & & & & & & & & & & & & %                                                     ",
"                                                                                                                        + + + + + + + + + + + + + + + + + + + + + + + + + + + + + + + + + + + + + + + + + + + + + + + + + + . . . . . . . . . . . . . . . . . . . . . . . . . . . . . . . . . . . . . . . . . . . . . . . . . . + + + + + + + + + + + + + + + + + + + + + + + + + + + + + + + + + + + + + + + + + + + + + + + + + + . . . . . . . . . . . . . . . . . . . . . . . . . . . . . . . . . . . . . . . . . . . . . . . . . . + + + + + + + + + + + + + + + + + + + + + + + + + + + + + + + + + + + + + + + + + + + + + + + + + +                                                                                   L & & & & & & & & & & & & & & & & & & & & & & & & & & & & & & & & & & & & & & & & & & & & & & & & & & & & & & & & & & & & & & & & & & & & & & & & & & & & & & & & & & & & & & & & & & & & & & & & & & & & [ D                                                     ",
"                                                                                                                        + + + + + + + + + + + + + + + + + + + + + + + + + + + + + + + + + + + + + + + + + + + + + + + + + + . . . . . . . . . . . . . . . . . . . . . . . . . . . . . . . . . . . . . . . . . . . . . . . . . . + + + + + + + + + + + + + + + + + + + + + + + + + + + + + + + + + + + + + + + + + + + + + + + + + + . . . . . . . . . . . . . . . . . . . . . . . . . . . . . . . . . . . . . . . . . . . . . . . . . . + + + + + + + + + + + + + + + + + + + + + + + + + + + + + + + + + + + + + + + + + + + + + + + + + +                                                                                     v.& & & & & & & & & & & & & & & & & & & & & & & & & & & & & & & & & & & & & & & & & & & & & & & & & & & & & & & & & & & & & & & & & & & & & & & & & & & & & & & & & & & & & & & & & & & & & & & & & & & b.                                                      ",
"                                                                                                                        + + + + + + + + + + + + + + + + + + + + + + + + + + + + + + + + + + + + + + + + + + + + + + + + + + . . . . . . . . . . . . . . . . . . . . . . . . . . . . . . . . . . . . . . . . . . . . . . . . . . + + + + + + + + + + + + + + + + + + + + + + + + + + + + + + + + + + + + + + + + + + + + + + + + + + . . . . . . . . . . . . . . . . . . . . . . . . . . . . . . . . . . . . . . . . . . . . . . . . . . + + + + + + + + + + + + + + + + + + + + + + + + + + + + + + + + + + + + + + + + + + + + + + + + + +                                                                                     w.& & & & & & & & & & & & & & & & & & & & & & & & & & & & & & & & & & & & & & & & & & & & & & & & & & & & & & & & & & & & & & & & & & & & & & & & & & & & & & & & & & & & & & & & & & & & & & & & & & [ $.                                                      ",
"                                                                                                                        + + + + + + + + + + + + + + + + + + + + + + + + + + + + + + + + + + + + + + + + + + + + + + + + + + . . . . . . . . . . . . . . . . . . . . . . . . . . . . . . . . . . . . . . . . . . . . . . . . . . + + + + + + + + + + + + + + + + + + + + + + + + + + + + + + + + + + + + + + + + + + + + + + + + + + . . . . . . . . . . . . . . . . . . . . . . . . . . . . . . . . . . . . . . . . . . . . . . . . . . + + + + + + + + + + + + + + + + + + + + + + + + + + + + + + + + + + + + + + + + + + + + + + + + + +                                                                                     t G & & & & & & & & & & & & & & & & & & & & & & & & & & & & & & & & & & & & & & & & & & & & & & & & & & & & & & & & & & & & & & & & & & & & & & & & & & & & & & & & & & & & & & & & & & & & & & & & & ;                                                         ",
"                                                                                                                        + + + + + + + + + + + + + + + + + + + + + + + + + + + + + + + + + + + + + + + + + + + + + + + + + + . . . . . . . . . . . . . . . . . . . . . . . . . . . . . . . . . . . . . . . . . . . . . . . . . . + + + + + + + + + + + + + + + + + + + + + + + + + + + + + + + + + + + + + + + + + + + + + + + + + + . . . . . . . . . . . . . . . . . . . . . . . . . . . . . . . . . . . . . . . . . . . . . . . . . . + + + + + + + + + + + + + + + + + + + + + + + + + + + + + + + + + + + + + + + + + + + + + + + + + +                                                                                       { & & & & & & & & & & & & & & & & & & & & & & & & & & & & & & & & & & & & & & & & & & & & & & & & & & & & & & & & & & & & & & & & & & & & & & & & & & & & & & & & & & & & & & & & & & & & & & & & T x.                                                        ",
"                                                                                                                        + + + + + + + + + + + + + + + + + + + + + + + + + + + + + + + + + + + + + + + + + + + + + + + + + + . . . . . . . . . . . . . . . . . . . . . . . . . . . . . . . . . . . . . . . . . . . . . . . . . . + + + + + + + + + + + + + + + + + + + + + + + + + + + + + + + + + + + + + + + + + + + + + + + + + + . . . . . . . . . . . . . . . . . . . . . . . . . . . . . . . . . . . . . . . . . . . . . . . . . . + + + + + + + + + + + + + + + + + + + + + + + + + + + + + + + + + + + + + + + + + + + + + + + + + +                                                                                       w 4.& & & & & & & & & & & & & & & & & & & & & & & & & & & & & & & & & & & & & & & & & & & & & & & & & & & & & & & & & & & & & & & & & & & & & & & & & & & & & & & & & & & & & & & & & & & & & & & n.                                                          ",
"                                                                                                                        + + + + + + + + + + + + + + + + + + + + + + + + + + + + + + + + + + + + + + + + + + + + + + + + + + . . . . . . . . . . . . . . . . . . . . . . . . . . . . . . . . . . . . . . . . . . . . . . . . . . + + + + + + + + + + + + + + + + + + + + + + + + + + + + + + + + + + + + + + + + + + + + + + + + + + . . . . . . . . . . . . . . . . . . . . . . . . . . . . . . . . . . . . . . . . . . . . . . . . . . + + + + + + + + + + + + + + + + + + + + + + + + + + + + + + + + + + + + + + + + + + + + + + + + + +                                                                                         b.& & & & & & & & & & & & & & & & & & & & & & & & & & & & & & & & & & & & & & & & & & & & & & & & & & & & & & & & & & & & & & & & & & & & & & & & & & & & & & & & & & & & & & & & & & & & & & y.c.                                                          ",
"                                                                                                                        + + + + + + + + + + + + + + + + + + + + + + + + + + + + + + + + + + + + + + + + + + + + + + + + + + . . . . . . . . . . . . . . . . . . . . . . . . . . . . . . . . . . . . . . . . . . . . . . . . . . + + + + + + + + + + + + + + + + + + + + + + + + + + + + + + + + + + + + + + + + + + + + + + + + + + . . . . . . . . . . . . . . . . . . . . . . . . . . . . . . . . . . . . . . . . . . . . . . . . . . + + + + + + + + + + + + + + + + + + + + + + + + + + + + + + + + + + + + + + + + + + + + + + + + + +                                                                                         1.d & & & & & & & & & & & & & & & & & & & & & & & & & & & & & & & & & & & & & & & & & & & & & & & & & & & & & & & & & & & & & & & & & & & & & & & & & & & & & & & & & & & & & & & & & & & & & /.                                                            ",
"                                                                                                                        + + + + + + + + + + + + + + + + + + + + + + + + + + + + + + + + + + + + + + + + + + + + + + + + + + . . . . . . . . . . . . . . . . . . . . . . . . . . . . . . . . . . . . . . . . . . . . . . . . . . + + + + + + + + + + + + + + + + + + + + + + + + + + + + + + + + + + + + + + + + + + + + + + + + + + . . . . . . . . . . . . . . . . . . . . . . . . . . . . . . . . . . . . . . . . . . . . . . . . . . + + + + + + + + + + + + + + + + + + + + + + + + + + + + + + + + + + + + + + + + + + + + + + + + + +                                                                                           ! & & & & & & & & & & & & & & & & & & & & & & & & & & & & & & & & & & & & & & & & & & & & & & & & & & & & & & & & & & & & & & & & & & & & & & & & & & & & & & & & & & & & & & & & & & & & z.$                                                             ",
"                                                                                                                        + + + + + + + + + + + + + + + + + + + + + + + + + + + + + + + + + + + + + + + + + + + + + + + + + + . . . . . . . . . . . . . . . . . . . . . . . . . . . . . . . . . . . . . . . . . . . . . . . . . . + + + + + + + + + + + + + + + + + + + + + + + + + + + + + + + + + + + + + + + + + + + + + + + + + + . . . . . . . . . . . . . . . . . . . . . . . . . . . . . . . . . . . . . . . . . . . . . . . . . . + + + + + + + + + + + + + + + + + + + + + + + + + + + + + + + + + + + + + + + + + + + + + + + + + +                                                                                           l A.& & & & & & & & & & & & & & & & & & & & & & & & & & & & & & & & & & & & & & & & & & & & & & & & & & & & & & & & & & & & & & & & & & & & & & & & & & & & & & & & & & & & & & & & & & B.C.                                                              ",
"                                                                                                                        + + + + + + + + + + + + + + + + + + + + + + + + + + + + + + + + + + + + + + + + + + + + + + + + + + . . . . . . . . . . . . . . . . . . . . . . . . . . . . . . . . . . . . . . . . . . . . . . . . . . + + + + + + + + + + + + + + + + + + + + + + + + + + + + + + + + + + + + + + + + + + + + + + + + + + . . . . . . . . . . . . . . . . . . . . . . . . . . . . . . . . . . . . . . . . . . . . . . . . . . + + + + + + + + + + + + + + + + + + + + + + + + + + + + + + + + + + + + + + + + + + + + + + + + + +                                                                                             ^ & & & & & & & & & & & & & & & & & & & & & & & & & & & & & & & & & & & & & & & & & & & & & & & & & & & & & & & & & & & & & & & & & & & & & & & & & & & & & & & & & & & & & & & & & & D.                                                                ",
"                                                                                                                        + + + + + + + + + + + + + + + + + + + + + + + + + + + + + + + + + + + + + + + + + + + + + + + + + + . . . . . . . . . . . . . . . . . . . . . . . . . . . . . . . . . . . . . . . . . . . . . . . . . . + + + + + + + + + + + + + + + + + + + + + + + + + + + + + + + + + + + + + + + + + + + + + + + + + + . . . . . . . . . . . . . . . . . . . . . . . . . . . . . . . . . . . . . . . . . . . . . . . . . . + + + + + + + + + + + + + + + + + + + + + + + + + + + + + + + + + + + + + + + + + + + + + + + + + +                                                                                             E.r & & & & & & & & & & & & & & & & & & & & & & & & & & & & & & & & & & & & & & & & & & & & & & & & & & & & & & & & & & & & & & & & & & & & & & & & & & & & & & & & & & & & & & & &  .                                                                  ",
"                                                                                                                        + + + + + + + + + + + + + + + + + + + + + + + + + + + + + + + + + + + + + + + + + + + + + + + + + + . . . . . . . . . . . . . . . . . . . . . . . . . . . . . . . . . . . . . . . . . . . . . . . . . . + + + + + + + + + + + + + + + + + + + + + + + + + + + + + + + + + + + + + + + + + + + + + + + + + + . . . . . . . . . . . . . . . . . . . . . . . . . . . . . . . . . . . . . . . . . . . . . . . . . . + + + + + + + + + + + + + + + + + + + + + + + + + + + + + + + + + + + + + + + + + + + + + + + + + +                                                                                               F.& & & & & & & & & & & & & & & & & & & & & & & & & & & & & & & & & & & & & & & & & & & & & & & & & & & & & & & & & & & & & & & & & & & & & & & & & & & & & & & & & & & & & & & ~.8                                                                   ",
"                                                                                                                        + + + + + + + + + + + + + + + + + + + + + + + + + + + + + + + + + + + + + + + + + + + + + + + + + + . . . . . . . . . . . . . . . . . . . . . . . . . . . . . . . . . . . . . . . . . . . . . . . . . . + + + + + + + + + + + + + + + + + + + + + + + + + + + + + + + + + + + + + + + + + + + + + + + + + + . . . . . . . . . . . . . . . . . . . . . . . . . . . . . . . . . . . . . . . . . . . . . . . . . . + + + + + + + + + + + + + + + + + + + + + + + + + + + + + + + + + + + + + + + + + + + + + + + + + +                                                                                                 g.& & & & & & & & & & & & & & & & & & & & & & & & & & & & & & & & & & & & & & & & & & & & & & & & & & & & & & & & & & & & & & & & & & & & & & & & & & & & & & & & & & & & & x K                                                                     ",
"                                                                                                                        + + + + + + + + + + + + + + + + + + + + + + + + + + + + + + + + + + + + + + + + + + + + + + + + + + . . . . . . . . . . . . . . . . . . . . . . . . . . . . . . . . . . . . . . . . . . . . . . . . . . + + + + + + + + + + + + + + + + + + + + + + + + + + + + + + + + + + + + + + + + + + + + + + + + + + . . . . . . . . . . . . . . . . . . . . . . . . . . . . . . . . . . . . . . . . . . . . . . . . . . + + + + + + + + + + + + + + + + + + + + + + + + + + + + + + + + + + + + + + + + + + + + + + + + + +                                                                                                 F h & & & & & & & & & & & & & & & & & & & & & & & & & & & & & & & & & & & & & & & & & & & & & & & & & & & & & & & & & & & & & & & & & & & & & & & & & & & & & & & & & & & & p                                                                       ",
"                                                                                                                        + + + + + + + + + + + + + + + + + + + + + + + + + + + + + + + + + + + + + + + + + + + + + + + + + + . . . . . . . . . . . . . . . . . . . . . . . . . . . . . . . . . . . . . . . . . . . . . . . . . . + + + + + + + + + + + + + + + + + + + + + + + + + + + + + + + + + + + + + + + + + + + + + + + + + + . . . . . . . . . . . . . . . . . . . . . . . . . . . . . . . . . . . . . . . . . . . . . . . . . . + + + + + + + + + + + + + + + + + + + + + + + + + + + + + + + + + + + + + + + + + + + + + + + + + +                                                                                                   -.& & & & & & & & & & & & & & & & & & & & & & & & & & & & & & & & & & & & & & & & & & & & & & & & & & & & & & & & & & & & & & & & & & & & & & & & & & & & & & & & & & & M                                                                         ",
"                                                                                                                        + + + + + + + + + + + + + + + + + + + + + + + + + + + + + + + + + + + + + + + + + + + + + + + + + + . . . . . . . . . . . . . . . . . . . . . . . . . . . . . . . . . . . . . . . . . . . . . . . . . . + + + + + + + + + + + + + + + + + + + + + + + + + + + + + + + + + + + + + + + + + + + + + + + + + + . . . . . . . . . . . . . . . . . . . . . . . . . . . . . . . . . . . . . . . . . . . . . . . . . . + + + + + + + + + + + + + + + + + + + + + + + + + + + + + + + + + + + + + + + + + + + + + + + + + +                                                                                                   L & & & & & & & & & & & & & & & & & & & & & & & & & & & & & & & & & & & & & & & & & & & & & & & & & & & & & & & & & & & & & & & & & & & & & & & & & & & & & & & & & & S =                                                                         ",
"                                                                                                                        + + + + + + + + + + + + + + + + + + + + + + + + + + + + + + + + + + + + + + + + + + + + + + + + + + . . . . . . . . . . . . . . . . . . . . . . . . . . . . . . . . . . . . . . . . . . . . . . . . . . + + + + + + + + + + + + + + + + + + + + + + + + + + + + + + + + + + + + + + + + + + + + + + + + + + . . . . . . . . . . . . . . . . . . . . . . . . . . . . . . . . . . . . . . . . . . . . . . . . . . + + + + + + + + + + + + + + + + + + + + + + + + + + + + + + + + + + + + + + + + + + + + + + + + + +                                                                                                 c.v.& & & & & & & & & & & & & & & & & & & & & & & & & & & & & & & & & & & & & & & & & & & & & & & & & & & & & & & & & & & & & & & & & & & & & & & & & & & & & & & & & !.2.                                                                          ",
"                                                                                                                        + + + + + + + + + + + + + + + + + + + + + + + + + + + + + + + + + + + + + + + + + + + + + + + + + + . . . . . . . . . . . . . . . . . . . . . . . . . . . . . . . . . . . . . . . . . . . . . . . . . . + + + + + + + + + + + + + + + + + + + + + + + + + + + + + + + + + + + + + + + + + + + + + + + + + + . . . . . . . . . . . . . . . . . . . . . . . . . . . . . . . . . . . . . . . . . . . . . . . . . . + + + + + + + + + + + + + + + + + + + + + + + + + + + + + + + + + + + + + + + + + + + + + + + + + +                                                                                               2.r.& & & & & & & & & & & & & & & & & & & & & & & & & & & & & & & & & & & & & & & & & & & & & & & & & & & & & & & & & & & & & & & & & & & & & & & & & & & & & & & & & v.5                                                                             ",
"                                                                                                                        + + + + + + + + + + + + + + + + + + + + + + + + + + + + + + + + + + + + + + + + + + + + + + + + + + . . . . . . . . . . . . . . . . . . . . . . . . . . . . . . . . . . . . . . . . . . . . . . . . . . + + + + + + + + + + + + + + + + + + + + + + + + + + + + + + + + + + + + + + + + + + + + + + + + + + . . . . . . . . . . . . . . . . . . . . . . . . . . . . . . . . . . . . . . . . . . . . . . . . . . + + + + + + + + + + + + + + + + + + + + + + + + + + + + + + + + + + + + + + + + + + + + + + + + + +                                                                                             &.G.& & & & & & & & & & & & & & & & & & & & & & & & & & & & & & & & & & & & & & & & & & & & & & & & & & & & & & & & & & & & & & & & & & & & & & & & & & & & & & & & & v.5                                                                               ",
"                                                                                                                        + + + + + + + + + + + + + + + + + + + + + + + + + + + + + + + + + + + + + + + + + + + + + + + + + + . . . . . . . . . . . . . . . . . . . . . . . . . . . . . . . . . . . . . . . . . . . . . . . . . . + + + + + + + + + + + + + + + + + + + + + + + + + + + + + + + + + + + + + + + + + + + + + + + + + + . . . . . . . . . . . . . . . . . . . . . . . . . . . . . . . . . . . . . . . . . . . . . . . . . . + + + + + + + + + + + + + + + + + + + + + + + + + + + + + + + + + + + + + + + + + + + + + + + + + +                                                                                         f { [ & & & & & & & & & & & & & & & & & & & & & & & & & & & & & & & & & & & & & & & & & & & & & & & & & & & & & & & & & & & & & & & & & & & & & & & & & & & & & & & & & H.5                                                                                 ",
"                                                                                                                        + + + + + + + + + + + + + + + + + + + + + + + + + + + + + + + + + + + + + + + + + + + + + + + + + + . . . . . . . . . . . . . . . . . . . . . . . . . . . . . . . . . . . . . . . . . . . . . . . . . . + + + + + + + + + + + + + + + + + + + + + + + + + + + + + + + + + + + + + + + + + + + + + + + + + + . . . . . . . . . . . . . . . . . . . . . . . . . . . . . . . . . . . . . . . . . . . . . . . . . . + + + + + + + + + + + + + + + + + + + + + + + + + + + + + + + + + + + + + + + + + + + + + + + + + +                                                                                     X I.>.& & & & & & & & & & & & & & & & & & & & & & & & & & & & & & & & & & & & & & & & & & & & & & & & & & & & & & & & & & & & & & & & & & & & & & & & & & & & & & & & & & d.F                                                                                   ",
"                                                                                                                        + + + + + + + + + + + + + + + + + + + + + + + + + + + + + + + + + + + + + + + + + + + + + + + + + + . . . . . . . . . . . . . . . . . . . . . . . . . . . . . . . . . . . . . . . . . . . . . . . . . . + + + + + + + + + + + + + + + + + + + + + + + + + + + + + + + + + + + + + + + + + + + + + + + + + + . . . . . . . . . . . . . . . . . . . . . . . . . . . . . . . . . . . . . . . . . . . . . . . . . . + + + + + + + + + + + + + + + + + + + + + + + + + + + + + + + + + + + + + + + + + + + + + + + + + +                                                                               ;.@ Y & & & & & & & & & & & & & & & & & & & & & & & & & & & & & & & & & & & & & & & & & & & & & & & & & & & & & & & & & & & & & & & & & & & & & & & & & & & & & & & & & & & & - 9.                                                                                    ",
"                                                                                                                        + + + + + + + + + + + + + + + + + + + + + + + + + + + + + + + + + + + + + + + + + + + + + + + + + + . . . . . . . . . . . . . . . . . . . . . . . . . . . . . . . . . . . . . . . . . . . . . . . . . . + + + + + + + + + + + + + + + + + + + + + + + + + + + + + + + + + + + + + + + + + + + + + + + + + + . . . . . . . . . . . . . . . . . . . . . . . . . . . . . . . . . . . . . . . . . . . . . . . . . . + + + + + + + + + + + + + + + + + + + + + + + + + + + + + + + + + + + + + + + + + + + + + + + + + +                                                                     = 1.|. .J.& & & & & & & & & & & & & & & & & & & & & & & & & & & & & & & & & & & & & & & & & & & & & & & & & & & & & & & & & & & & & & & & & & & & & & & & & & & & & & & & & & & & & d /                                                                                         ",
"                                                                                                                        + + + + + + + + + + + + + + + + + + + + + + + + + + + + + + + + + + + + + + + + + + + + + + + + + + . . . . . . . . . . . . . . . . . . . . . . . . . . . . . . . . . . . . . . . . . . . . . . . . . . + + + + + + + + + + + + + + + + + + + + + + + + + + + + + + + + + + + + + + + + + + + + + + + + + + . . . . . . . . . . . . . . . . . . . . . . . . . . . . . . . . . . . . . . . . . . . . . . . . . . + + + + + + + + + + + + + + + + + + + + + + + + + + + + + + + + + + + + + + + + + + + + + + + + + +                                                         , @.8.w.K.f.2 & & & & & & & & & & & & & & & & & & & & & & & & & & & & & & & & & & & & & & & & & & & & & & & & & & & & & & & & & & & & & & & & & & & & & & & & & & & & & & & & & & & & & & & & 5.<                                                                                           ",
"                                                                                                                        + + + + + + + + + + + + + + + + + + + + + + + + + + + + + + + + + + + + + + + + + + + + + + + + + + . . . . . . . . . . . . . . . . . . . . . . . . . . . . . . . . . . . . . . . . . . . . . . . . . . + + + + + + + + + + + + + + + + + + + + + + + + + + + + + + + + + + + + + + + + + + + + + + + + + + . . . . . . . . . . . . . . . . . . . . . . . . . . . . . . . . . . . . . . . . . . . . . . . . . . + + + + + + + + + + + + + + + + + + + + + + + + + + + + + + + + + + + + + + + + + + + + + + + + + +                         8 8 8 <.D @.L.*.-.U ( @ 7.M.j.0.4.& & & & & & & & & & & & & & & & & & & & & & & & & & & & & & & & & & & & & & & & & & & & & & & & & & & & & & & & & & & & & & & & & & & & & & & & & & & & & & & & & & & & & & & & & & & & & r.q.                                                                                            ",
"                                      q & & & & & & & & & & & & & & & & & & & & & & & & & & & & & & & & & & & & & & & & & & & & & & & & & & & & & & & & & & & & & & & & & & & & & & & & & & & & & & & & & & & & & & & & & & & & & & & & & & & & & & & & & & & & & & & & & & & & & & & & & & & & & & & & & & & & & & & & & & & & & & & & & & & & & & & & & & & & & & & & & & & & & & & & & & & & & & & & & & & & & & & & & & & & & & & & & & & & & & & & & & & & & & & & & & & & & & & & & & & & & & & & & & & & & & & & & & & & & & & & & & & & & & & & & & & & & & & & & & & & & & & & & & & & & & & & & & & & & & & & & & & & & & & & & & & & & & & & & & & & & & & & & & & & & & & & & & & & & & & & & & & & & & & & & & & & & & & & & & & & & & & & & & & & & & & & & & & & & & & & & & & & & & & & & & & & & & & & & & & & & & & & & & & & & & & & & & & & & & & & & & & & & & & & & & G / >                                                                                               ",
"                                      o & & & & & & & & & & & & & & & & & & & & & & & & & & & & & & & & & & & & & & & & & & & & & & & & & & & & & & & & & & & & & & & & & & & & & & & & & & & & & & & & & & & & & & & & & & & & & & & & & & & & & & & & & & & & & & & & & & & & & & & & & & & & & & & & & & & & & & & & & & & & & & & & & & & & & & & & & & & & & & & & & & & & & & & & & & & & & & & & & & & & & & & & & & & & & & & & & & & & & & & & & & & & & & & & & & & & & & & & & & & & & & & & & & & & & & & & & & & & & & & & & & & & & & & & & & & & & & & & & & & & & & & & & & & & & & & & & & & & & & & & & & & & & & & & & & & & & & & & & & & & & & & & & & & & & & & & & & & & & & & & & & & & & & & & & & & & & & & & & & & & & & & & & & & & & & & & & & & & & & & & & & & & & & & & & & & & & & & & & & & & & & & & & & & & & & & & & & & & & & & & & & & & & & & & & 9 4                                                                                                   ",
"                                      X & & & & & & & & & & & & & & & & & & & & & & & & & & & & & & & & & & & & & & & & & & & & & & & & & & & & & & & & & & & & & & & & & & & & & & & & & & & & & & & & & & & & & & & & & & & & & & & & & & & & & & & & & & & & & & & & & & & & & & & & & & & & & & & & & & & & & & & & & & & & & & & & & & & & & & & & & & & & & & & & & & & & & & & & & & & & & & & & & & & & & & & & & & & & & & & & & & & & & & & & & & & & & & & & & & & & & & & & & & & & & & & & & & & & & & & & & & & & & & & & & & & & & & & & & & & & & & & & & & & & & & & & & & & & & & & & & & & & & & & & & & & & & & & & & & & & & & & & & & & & & & & & & & & & & & & & & & & & & & & & & & & & & & & & & & & & & & & & & & & & & & & & & & & & & & & & & & & & & & & & & & & & & & & & & & & & & & & & & & & & & & & & & & & & & & & & & & & & & & & & & & & & & & & #.=.                                                                                                      ",
"                                      N.& & & & & & & & & & & & & & & & & & & & & & & & & & & & & & & & & & & & & & & & & & & & & & & & & & & & & & & & & & & & & & & & & & & & & & & & & & & & & & & & & & & & & & & & & & & & & & & & & & & & & & & & & & & & & & & & & & & & & & & & & & & & & & & & & & & & & & & & & & & & & & & & & & & & & & & & & & & & & & & & & & & & & & & & & & & & & & & & & & & & & & & & & & & & & & & & & & & & & & & & & & & & & & & & & & & & & & & & & & & & & & & & & & & & & & & & & & & & & & & & & & & & & & & & & & & & & & & & & & & & & & & & & & & & & & & & & & & & & & & & & & & & & & & & & & & & & & & & & & & & & & & & & & & & & & & & & & & & & & & & & & & & & & & & & & & & & & & & & & & & & & & & & & & & & & & & & & & & & & & & & & & & & & & & & & & & & & & & & & & & & & & & & & & & & & & & & & & & & & & & & & & & & B.w.,                                                                                                         ",
"                                      O.& & & & & & & & & & & & & & & & & & & & & & & & & & & & & & & & & & & & & & & & & & & & & & & & & & & & & & & & & & & & & & & & & & & & & & & & & & & & & & & & & & & & & & & & & & & & & & & & & & & & & & & & & & & & & & & & & & & & & & & & & & & & & & & & & & & & & & & & & & & & & & & & & & & & & & & & & & & & & & & & & & & & & & & & & & & & & & & & & & & & & & & & & & & & & & & & & & & & & & & & & & & & & & & & & & & & & & & & & & & & & & & & & & & & & & & & & & & & & & & & & & & & & & & & & & & & & & & & & & & & & & & & & & & & & & & & & & & & & & & & & & & & & & & & & & & & & & & & & & & & & & & & & & & & & & & & & & & & & & & & & & & & & & & & & & & & & & & & & & & & & & & & & & & & & & & & & & & & & & & & & & & & & & & & & & & & & & & & & & & & & & & & & & & & & & & & & & & & & & & & & & & 6 / t                                                                                                             ",
"                                      : & & & & & & & & & & & & & & & & & & & & & & & & & & & & & & & & & & & & & & & & & & & & & & & & & & & & & & & & & & & & & & & & & & & & & & & & & & & & & & & & & & & & & & & & & & & & & & & & & & & & & & & & & & & & & & & & & & & & & & & & & & & & & & & & & & & & & & & & & & & & & & & & & & & & & & & & & & & & & & & & & & & & & & & & & & & & & & & & & & & & & & & & & & & & & & & & & & & & & & & & & & & & & & & & & & & & & & & & & & & & & & & & & & & & & & & & & & & & & & & & & & & & & & & & & & & & & & & & & & & & & & & & & & & & & & & & & & & & & & & & & & & & & & & & & & & & & & & & & & & & & & & & & & & & & & & & & & & & & & & & & & & & & & & & & & & & & & & & & & & & & & & & & & & & & & & & & & & & & & & & & & & & & & & & & & & & & & & & & & & & & & & & & & & & & & & & & & & & & & & & & f.=.=                                                                                                                 ",
"                                      k & & & & & & & & & & & & & & & & & & & & & & & & & & & & & & & & & & & & & & & & & & & & & & & & & & & & & & & & & & & & & & & & & & & & & & & & & & & & & & & & & & & & & & & & & & & & & & & & & & & & & & & & & & & & & & & & & & & & & & & & & & & & & & & & & & & & & & & & & & & & & & & & & & & & & & & & & & & & & & & & & & & & & & & & & & & & & & & & & & & & & & & & & & & & & & & & & & & & & & & & & & & & & & & & & & & & & & & & & & & & & & & & & & & & & & & & & & & & & & & & & & & & & & & & & & & & & & & & & & & & & & & & & & & & & & & & & & & & & & & & & & & & & & & & & & & & & & & & & & & & & & & & & & & & & & & & & & & & & & & & & & & & & & & & & & & & & & & & & & & & & & & & & & & & & & & & & & & & & & & & & & & & & & & & & & & & & & & & & & & & & & & & & & & & & & & & & & & & & & R ] y                                                                                                                       ",
"                                      H & & & & & & & & & & & & & & & & & & & & & & & & & & & & & & & & & & & & & & & & & & & & & & & & & & & & & & & & & & & & & & & & & & & & & & & & & & & & & & & & & & & & & & & & & & & & & & & & & & & & & & & & & & & & & & & & & & & & & & & & & & & & & & & & & & & & & & & & & & & & & & & & & & & & & & & & & & & & & & & & & & & & & & & & & & & & & & & & & & & & & & & & & & & & & & & & & & & & & & & & & & & & & & & & & & & & & & & & & & & & & & & & & & & & & & & & & & & & & & & & & & & & & & & & & & & & & & & & & & & & & & & & & & & & & & & & & & & & & & & & & & & & & & & & & & & & & & & & & & & & & & & & & & & & & & & & & & & & & & & & & & & & & & & & & & & & & & & & & & & & & & & & & & & & & & & & & & & & & & & & & & & & & & & & & & & & & & & & & & & & & & & & & & & & & & & & & & d P.# L                                                                                                                             ",
"                                      / & & & & & & & & & & & & & & & & & & & & & & & & & & & & & & & & & & & & & & & & & & & & & & & & & & & & & & & & & & & & & & & & & & & & & & & & & & & & & & & & & & & & & & & & & & & & & & & & & & & & & & & & & & & & & & & & & & & & & & & & & & & & & & & & & & & & & & & & & & & & & & & & & & & & & & & & & & & & & & & & & & & & & & & & & & & & & & & & & & & & & & & & & & & & & & & & & & & & & & & & & & & & & & & & & & & & & & & & & & & & & & & & & & & & & & & & & & & & & & & & & & & & & & & & & & & & & & & & & & & & & & & & & & & & & & & & & & & & & & & & & & & & & & & & & & & & & & & & & & & & & & & & & & & & & & & & & & & & & & & & & & & & & & & & & & & & & & & & & & & & & & & & & & & & & & & & & & & & & & & & & & & & & & & & & & & & & & & & & & & & & & & & & & & & & & a.Q.R.'.<.                                                                                                                                  ",
"                                      n.& & & & & & & & & & & & & & & & & & & & & & & & & & & & & & & & & & & & & & & & & & & & & & & & & & & & & & & & & & & & & & & & & & & & & & & & & & & & & & & & & & & & & & & & & & & & & & & & & & & & & & & & & & & & & & & & & & & & & & & & & & & & & & & & & & & & & & & & & & & & & & & & & & & & & & & & & & & & & & & & & & & & & & & & & & & & & & & & & & & & & & & & & & & & & & & & & & & & & & & & & & & & & & & & & & & & & & & & & & & & & & & & & & & & & & & & & & & & & & & & & & & & & & & & & & & & & & & & & & & & & & & & & & & & & & & & & & & & & & & & & & & & & & & & & & & & & & & & & & & & & & & & & & & & & & & & & & & & & & & & & & & & & & & & & & & & & & & & & & & & & & & & & & & & & & & & & & & & & & & & & & & & & & & & p U / % ! Q.S.6 }.T.Z & 4.T.0.J d.].U.V.W.w $                                                                                                                                           ",
"                                      t.& & & & & & & & & & & & & & & & & & & & & & & & & & & & & & & & & & & & & & & & & & & & & & & & & & & & & & & & & & & & & & & & & & & & & & & & & & & & & & & & & & & & & & & & & & & & & & & & & & & & & & & & & & & & & & & & & & & & & & & & & & & & & & & & & & & & & & & & & & & & & & & & & & & & & & & & & & & & & & & & & & & & & & & & & & & & & & & & & & & & & & & & & & & & & & & & & & & & & & & & & & & & & & & & & & & & & & & & & & & & & & & & & & & & & & & & & & & & & & & & & & & & & & & & & & & & & & & & & & & & & & & & & & & & & & & & & & & & & & & & & & & & & & & & & & & & & & & & & & & & & & & & & & & & & & & & & & & & & & & & & & & & & & & & & & & & & & & & & & & & & & & & & & & & & & & & & & & & & & & & & & & & & & & r $                                                                                                                                                                                       ",
"                                      X.& & & & & & & & & & & & & & & & & & & & & & & & & & & & & & & & & & & & & & & & & & & & & & & & & & & & & & & & & & & & & & & & & & & & & & & & & & & & & & & & & & & & & & & & & & & & & & & & & & & & & & & & & & & & & & & & & & & & & & & & & & & & & & & & & & & & & & & & & & & & & & & & & & & & & & & & & & & & & & & & & & & & & & & & & & & & & & & & & & & & & & & & & & & & & & & & & & & & & & & & & & & & & & & & & & & & & & & & & & & & & & & & & & & & & & & & & & & & & & & & & & & & & & & & & & & & & & & & & & & & & & & & & & & & & & & & & & & & & & & & & & & & & & & & & & & & & & & & & & & & & & & & & & & & & & & & & & & & & & & & & & & & & & & & & & & & & & & & & & & & & & & & & & & & & & & & & & & & & & & & & & & & & & & Q                                                                                                                                                                                         ",
"                                      @ & & & & & & & & & & & & & & & & & & & & & & & & & & & & & & & & & & & & & & & & & & & & & & & & & & & & & & & & & & & & & & & & & & & & & & & & & & & & & & & & & & & & & & & & & & & & & & & & & & & & & & & & & & & & & & & & & & & & & & & & & & & & & & & & & & & & & & & & & & & & & & & & & & & & & & & & & & & & & & & & & & & & & & & & & & & & & & & & & & & & & & & & & & & & & & & & & & & & & & & & & & & & & & & & & & & & & & & & & & & & & & & & & & & & & & & & & & & & & & & & & & & & & & & & & & & & & & & & & & & & & & & & & & & & & & & & & & & & & & & & & & & & & & & & & & & & & & & & & & & & & & & & & & & & & & & & & & & & & & & & & & & & & & & & & & & & & & & & & & & & & & & & & & & & & & & & & & & & & & & & & & & & & & & 8.                                                                                                                                                                                        ",
"                                      ] & & & & & & & & & & & & & & & & & & & & & & & & & & & & & & & & & & & & & & & & & & & & & & & & & & & & & & & & & & & & & & & & & & & & & & & & & & & & & & & & & & & & & & & & & & & & & & & & & & & & & & & & & & & & & & & & & & & & & & & & & & & & & & & & & & & & & & & & & & & & & & & & & & & & & & & & & & & & & & & & & & & & & & & & & & & & & & & & & & & & & & & & & & & & & & & & & & & & & & & & & & & & & & & & & & & & & & & & & & & & & & & & & & & & & & & & & & & & & & & & & & & & & & & & & & & & & & & & & & & & & & & & & & & & & & & & & & & & & & & & & & & & & & & & & & & & & & & & & & & & & & & & & & & & & & & & & & & & & & & & & & & & & & & & & & & & & & & & & & & & & & & & & & & & & & & & & & & & & & & & & & & & & & 2 c.                                                                                                                                                                                        ",
"                                      Y.& & & & & & & & & & & & & & & & & & & & & & & & & & & & & & & & & & & & & & & & & & & & & & & & & & & & & & & & & & & & & & & & & & & & & & & & & & & & & & & & & & & & & & & & & & & & & & & & & & & & & & & & & & & & & & & & & & & & & & & & & & & & & & & & & & & & & & & & & & & & & & & & & & & & & & & & & & & & & & & & & & & & & & & & & & & & & & & & & & & & & & & & & & & & & & & & & & & & & & & & & & & & & & & & & & & & & & & & & & & & & & & & & & & & & & & & & & & & & & & & & & & & & & & & & & & & & & & & & & & & & & & & & & & & & & & & & & & & & & & & & & & & & & & & & & & & & & & & & & & & & & & & & & & & & & & & & & & & & & & & & & & & & & & & & & & & & & & & & & & & & & & & & & & & & & & & & & & & & & & & & & & & & & 6.                                                                                                                                                                                          ",
"                                      b & & & & & & & & & & & & & & & & & & & & & & & & & & & & & & & & & & & & & & & & & & & & & & & & & & & & & & & & & & & & & & & & & & & & & & & & & & & & & & & & & & & & & & & & & & & & & & & & & & & & & & & & & & & & & & & & & & & & & & & & & & & & & & & & & & & & & & & & & & & & & & & & & & & & & & & & & & & & & & & & & & & & & & & & & & & & & & & & & & & & & & & & & & & & & & & & & & & & & & & & & & & & & & & & & & & & & & & & & & & & & & & & & & & & & & & & & & & & & & & & & & & & & & & & & & & & & & & & & & & & & & & & & & & & & & & & & & & & & & & & & & & & & & & & & & & & & & & & & & & & & & & & & & & & & & & & & & & & & & & & & & & & & & & & & & & & & & & & & & & & & & & & & & & & & & & & & & & & & & & & & & & & & & |.                                                                                                                                                                                          ",
"                                      t.& & & & & & & & & & & & & & & & & & & & & & & & & & & & & & & & & & & & & & & & & & & & & & & & & & & & & & & & & & & & & & & & & & & & & & & & & & & & & & & & & & & & & & & & & & & & & & & & & & & & & & & & & & & & & & & & & & & & & & & & & & & & & & & & & & & & & & & & & & & & & & & & & & & & & & & & & & & & & & & & & & & & & & & & & & & & & & & & & & & & & & & & & & & & & & & & & & & & & & & & & & & & & & & & & & & & & & & & & & & & & & & & & & & & & & & & & & & & & & & & & & & & & & & & & & & & & & & & & & & & & & & & & & & & & & & & & & & & & & & & & & & & & & & & & & & & & & & & & & & & & & & & & & & & & & & & & & & & & & & & & & & & & & & & & & & & & & & & & & & & & & & & & & & & & & & & & & & & & & & & & & & & & 4.Z.                                                                                                                                                                                          ",
"                                      H & & & & & & & & & & & & & & & & & & & & & & & & & & & & & & & & & & & & & & & & & & & & & & & & & & & & & & & & & & & & & & & & & & & & & & & & & & & & & & & & & & & & & & & & & & & & & & & & & & & & & & & & & & & & & & & & & & & & & & & & & & & & & & & & & & & & & & & & & & & & & & & & & & & & & & & & & & & & & & & & & & & & & & & & & & & & & & & & & & & & & & & & & & & & & & & & & & & & & & & & & & & & & & & & & & & & & & & & & & & & & & & & & & & & & & & & & & & & & & & & & & & & & & & & & & & & & & & & & & & & & & & & & & & & & & & & & & & & & & & & & & & & & & & & & & & & & & & & & & & & & & & & & & & & & & & & & & & & & & & & & & & & & & & & & & & & & & & & & & & & & & & & & & & & & & & & & & & & & & & & & & & & & S                                                                                                                                                                                             ",
"                                      k & & & & & & & & & & & & & & & & & & & & & & & & & & & & & & & & & & & & & & & & & & & & & & & & & & & & & & & & & & & & & & & & & & & & & & & & & & & & & & & & & & & & & & & & & & & & & & & & & & & & & & & & & & & & & & & & & & & & & & & & & & & & & & & & & & & & & & & & & & & & & & & & & & & & & & & & & & & & & & & & & & & & & & & & & & & & & & & & & & & & & & & & & & & & & & & & & & & & & & & & & & & & & & & & & & & & & & & & & & & & & & & & & & & & & & & & & & & & & & & & & & & & & & & & & & & & & & & & & & & & & & & & & & & & & & & & & & & & & & & & & & & & & & & & & & & & & & & & & & & & & & & & & & & & & & & & & & & & & & & & & & & & & & & & & & & & & & & & & & & & & & & & & & & & & & & & & & & & & & & & & & & & & F.                                                                                                                                                                                            ",
"                                      p & & & & & & & & & & & & & & & & & & & & & & & & & & & & & & & & & & & & & & & & & & & & & & & & & & & & & & & & & & & & & & & & & & & & & & & & & & & & & & & & & & & & & & & & & & & & & & & & & & & & & & & & & & & & & & & & & & & & & & & & & & & & & & & & & & & & & & & & & & & & & & & & & & & & & & & & & & & & & & & & & & & & & & & & & & & & & & & & & & & & & & & & & & & & & & & & & & & & & & & & & & & & & & & & & & & & & & & & & & & & & & & & & & & & & & & & & & & & & & & & & & & & & & & & & & & & & & & & & & & & & & & & & & & & & & & & & & & & & & & & & & & & & & & & & & & & & & & & & & & & & & & & & & & & & & & & & & & & & & & & & & & & & & & & & & & & & & & & & & & & & & & & & & & & & & & & & & & & & & & & & & & & G q                                                                                                                                                                                             ",
"                                      o.& & & & & & & & & & & & & & & & & & & & & & & & & & & & `. +.+++& & & & & & & & & & & & & & & & & & & & & & & & & & & & & & & & & & & & & & & & & & & & & & & & & & & & & & & & & & & & & & & & & & @+#+$+& & & & & & & & & & & & & & & & & & & & & & & & & & & & & & & & & & & & & & & & & & & & & & & & & & & & & & & & & & & & & & & & & & & & & & & & & & & & & & %+&+& & & & & & & & & & & & & & & & & & & & & & & & & & & & & & & & & & & & & & & & & & & & & & & & & & & & & & & & & & & & & & & & & & & & & & & & & & & & & & *+=+& & & & & & & & & & & & & & & & & & & & & & & & & & & & & & & & & & & & & & & & & & & & & & & & & & & & & & & & & & & & & & & & & & & & & & & & & & & & & & -+.+++& & & & & & & & & & & & & & & & & & & & & & !                                                                                               ;+>+                                                                                            ",
"                                      c & & & & & & & & & & & & & & & & & & & & & & & & & & & ,+'+)+)+!+~+& & & & & & & & & & & & & & & & & & & & & & & & & & & & & & & & & & & & & & & & & & & & & & & & & & & & & & & & & & & & & & & & {+]+)+^+/+& & & & & & & & & & & & & & & & & & & & & & & & & & & & & & & & & & & & & & & & & & & & & & & & & & & & & & & & & & & & & & & & & & & & & & & & & & & & (+_+)+:+`.& & & & & & & & & & & & & & & & & & & & & & & & & & & & & & & & & & & & & & & & & & & & & & & & & & & & & & & & & & & & & & & & & & & & & & & & & & & <+[+}+|+& & & & & & & & & & & & & & & & & & & & & & & & & & & & & & & & & & & & & & & & & & & & & & & & & & & & & & & & & & & & & & & & & & & & & & & & & & & & 1+^+)+2+3+& & & & & & & & & & & & & & & & & & & & & O.                                                                                          4+5+)+6+7+                                                                                          ",
"                                      L & & & & & & & & & & & & & & & & & & & & & & & & & & 8+9+)+)+)+)+0+a+& & & & & & & & & & & & & & & & & & & & & & & & & & & & & & & & & & & & & & & & & & & & & & & & & & & & & & & & & & & & & & b+c+)+)+)+d+e+& & & & & & & & & & & & & & & & & & & & & & & & & & & & & & & & & & & & & & & & & & & & & & & & & & & & & & & & & & & & & & & & & & & & & & & & & f+g+)+)+)+)+h+i+& & & & & & & & & & & & & & & & & & & & & & & & & & & & & & & & & & & & & & & & & & & & & & & & & & & & & & & & & & & & & & & & & & & & & & & & & j+[+)+)+k+& & & & & & & & & & & & & & & & & & & & & & & & & & & & & & & & & & & & & & & & & & & & & & & & & & & & & & & & & & & & & & & & & & & & & & & & & & & l+0+)+)+)+m+n+& & & & & & & & & & & & & & & & & & & a.`                                                                                         o+p+)+)+)+5+q+                                                                                        ",
"                                      1.& & & & & & & & & & & & & & & & & & & & & & & & `.$+r+)+)+)+)+)+)+)+s+t+& & & & & & & & & & & & & & & & & & & & & & & & & & & & & & & & & & & & & & & & & & & & & & & & & & & & & & & & & & u+v+)+)+)+)+)+)+r+w+& & & & & & & & & & & & & & & & & & & & & & & & & & & & & & & & & & & & & & & & & & & & & & & & & & & & & & & & & & & & & & & & & & & & & & & x+y+)+)+)+)+)+)+z+A+& & & & & & & & & & & & & & & & & & & & & & & & & & & & & & & & & & & & & & & & & & & & & & & & & & & & & & & & & & & & & & & & & & & & & & 3+B+)+)+)+)+)+C+& & & & & & & & & & & & & & & & & & & & & & & & & & & & & & & & & & & & & & & & & & & & & & & & & & & & & & & & & & & & & & & & & & & & & & & & & D+E+)+)+)+)+)+[+F+G+& & & & & & & & & & & & & & & & & H+                                                                                      I+J+K+)+)+)+)+)+L+                                                                                        ",
"                                      f & & & & & & & & & & & & & & & & & & & & & & & e+M+)+)+)+)+)+)+)+)+)+)+N+C+3+& & & & & & & & & & & & & & & & & & & & & & & & & & & & & & & & & & & & & & & & & & & & & & & & & & & & & & O+B+P+)+)+)+)+)+)+)+)+_+Q+G+& & & & & & & & & & & & & & & & & & & & & & & & & & & & & & & & & & & & & & & & & & & & & & & & & & & & & & & & & & & & & & & & & & & R+v+)+)+)+)+)+)+)+)+)+)+S+l+& & & & & & & & & & & & & & & & & & & & & & & & & & & & & & & & & & & & & & & & & & & & & & & & & & & & & & & & & & & & & & & & & & & n+T+)+)+)+)+)+)+)+U+{+& & & & & & & & & & & & & & & & & & & & & & & & & & & & & & & & & & & & & & & & & & & & & & & & & & & & & & & & & & & & & & & & & & & & & `.V+P+)+)+)+)+)+)+)+)+W+X+f+& & & & & & & & & & & & & & & Y+                                                                                  q+Z+`+)+)+)+)+)+)+)+)+ @.@                                                                                    ",
"                                      ` & & & & & & & & & & & & & & & & & & & & & l++@@@)+)+)+)+)+)+)+)+)+)+)+)+)+E+#@~+& & & & & & & & & & & & & & & & & & & & & & & & & & & & & & & & & & & & & & & & & & & & & & & & & |+$@%@&@)+)+)+)+)+)+)+)+)+)+)+)+*@<+@+& & & & & & & & & & & & & & & & & & & & & & & & & & & & & & & & & & & & & & & & & & & & & & & & & & & & & & & & & & & & & & |+b+=@_+)+)+)+)+)+)+)+)+)+)+)+)+[+h+n+& & & & & & & & & & & & & & & & & & & & & & & & & & & & & & & & & & & & & & & & & & & & & & & & & & & & & & & & & & & & & & & -@;@_+)+)+)+)+)+)+)+)+)+*@>@& & & & & & & & & & & & & & & & & & & & & & & & & & & & & & & & & & & & & & & & & & & & & & & & & & & & & & & & & & & & & & & & & & & ,@'@)+)+)+)+)+)+)+)+)+)+)+)+E+j+G+& & & & & & & & & & & & 6 >                                                                                 )@!@)+)+)+)+)+)+)+)+)+)+)+~@{@                                                                                  ",
"                                        m & & & & & & & & & & & & & & & & & |+]@^@[+)+)+)+)+)+)+)+)+)+)+)+)+)+)+)+)+)+P+/@=+& & & & & & & & & & & & & & & & & & & & & & & & & & & & & & & & & & & & & & & & & & & & & O+(@_@)+)+)+)+)+)+)+)+)+)+)+)+)+)+)+)+)+T+$+:@& & & & & & & & & & & & & & & & & & & & & & & & & & & & & & & & & & & & & & & & & & & & & & & & & & & & & & & & & & <@j+y+)+)+)+)+)+)+)+)+)+)+)+)+)+)+)+)+)+)+[@}@++& & & & & & & & & & & & & & & & & & & & & & & & & & & & & & & & & & & & & & & & & & & & & & & & & & & & & & & & & & |@#+1@)+)+)+)+)+)+)+)+)+)+)+)+)+2@3@& & & & & & & & & & & & & & & & & & & & & & & & & & & & & & & & & & & & & & & & & & & & & & & & & & & & & & & & & & & & & & & 4@F+P+)+)+)+)+)+)+)+)+)+)+)+)+)+)+)+5@6@/+& & & & & & & & & & h.                                                                            q+7@8@)+)+)+)+)+)+)+)+)+)+)+)+)+)+9@0@a@                                                                              ",
"                                        6 & & & & & & & & & & & & & & & b@c@d@)+)+)+)+)+)+)+)+)+)+)+)+)+)+)+)+)+)+)+)+)+)+)+e@f@g@`.& & & & & & & & & & & & & & & & & & & & & & & & & & & & & & & & & & & & & ,+h@i@j@)+)+)+)+)+)+)+)+)+)+)+)+)+)+)+)+)+)+)+)+)+)+W+k@e+& & & & & & & & & & & & & & & & & & & & & & & & & & & & & & & & & & & & & & & & & & & & & & & & & & & & & O+l@m@_+)+)+)+)+)+)+)+)+)+)+)+)+)+)+)+)+)+)+)+)+)+)+n@o@]@@+& & & & & & & & & & & & & & & & & & & & & & & & & & & & & & & & & & & & & & & & & & & & & & & & & & & & @+$@p@@@)+)+)+)+)+)+)+)+)+)+)+)+)+)+)+)+)+T+%+4@& & & & & & & & & & & & & & & & & & & & & & & & & & & & & & & & & & & & & & & & & & & & & & & & & & & & & & & & & & R+.+1@)+)+)+)+)+)+)+)+)+)+)+)+)+)+)+)+)+)+)+)+2@(+q@& & & & & & 4.,.                                                                        r@s@t@)+)+)+)+)+)+)+)+)+)+)+)+)+)+)+)+)+)+u@v@w@                                                                          ",
"                                        f.& & & & & & & & & & |+x@y@s+*@)+)+)+)+)+)+)+)+)+)+)+)+)+)+)+)+)+)+)+)+)+)+)+)+)+)+)+)+)+z@o@A@q@& & & & & & & & & & & & & & & & & & & & & & & & & & & & & & i+a+f@]+B@)+)+)+)+)+)+)+)+)+)+)+)+)+)+)+)+)+)+)+)+)+)+)+)+)+)+)+)+C@c@n+@+& & & & & & & & & & & & & & & & & & & & & & & & & & & & & & & & & & & & & & & & & & & & & D@E@F@C@)+)+)+)+)+)+)+)+)+)+)+)+)+)+)+)+)+)+)+)+)+)+)+)+)+)+)+)+)+W+F@w+i+& & & & & & & & & & & & & & & & & & & & & & & & & & & & & & & & & & & & & & & & & & & & & & ++G@6@H@)+)+)+)+)+)+)+)+)+)+)+)+)+)+)+)+)+)+)+)+)+)+&@S+>@G+& & & & & & & & & & & & & & & & & & & & & & & & & & & & & & & & & & & & & & & & & & & & & & & & & & & & I@J@K@)+)+)+)+)+)+)+)+)+)+)+)+)+)+)+)+)+)+)+)+)+)+)+)+)+)+L@C+/+|+& & ].                                                                    M@N@O@P@)+)+)+)+)+)+)+)+)+)+)+)+)+)+)+)+)+)+)+)+)+)+)+Q@R@S@T@                                                                  ",
"                                        6.& & `.I@U@V@W@X@o@}+N+)+)+)+)+)+)+)+)+)+)+)+)+)+)+)+)+)+)+)+)+)+)+)+)+)+)+)+)+)+)+)+)+)+)+)+)+)+W+]+Y@A@Z@~+& & & & & & & & & & & & & & & & & & `@n+ #.#v+y+)+)+)+)+)+)+)+)+)+)+)+)+)+)+)+)+)+)+)+)+)+)+)+)+)+)+)+)+)+)+)+)+)+)+)+)+r+!+:+w+4@& & & & & & & & & & & & & & & & & & & & & & & & & & & & & & & & & & & `.D@a+X+U++#)+)+)+)+)+)+)+)+)+)+)+)+)+)+)+)+)+)+)+)+)+)+)+)+)+)+)+)+)+)+)+)+)+)+)+)+[+@###$#%#& & & & & & & & & & & & & & & & & & & & & & & & & & & & & & & & & & & & & & `.&# #*#n@)+)+)+)+)+)+)+)+)+)+)+)+)+)+)+)+)+)+)+)+)+)+)+)+)+)+)+)+@@=#k+n+++& & & & & & & & & & & & & & & & & & & & & & & & & & & & & & & & & & & & & & & & & & & & & 8+-#;#P+)+)+)+)+)+)+)+)+)+)+)+)+)+)+)+)+)+)+)+)+)+)+)+)+)+)+)+)+)+)+)+>#,#*+'#)#                                                          !#o+~#{#)+)+)+)+)+)+)+)+)+)+)+)+)+)+)+)+)+)+)+)+)+)+)+)+)+)+)+)+)+)+]#^#L+N@/#(#_#                                                      ",
"                                        )+)+)+)+)+)+)+)+)+)+)+)+)+)+)+)+)+)+)+)+)+)+)+)+)+)+)+)+)+)+)+)+)+)+)+)+)+)+)+)+)+)+)+)+)+)+)+)+)+)+)+)+)+)+)+1@m+:#<#[#6@ +k+}# + +i@.+[#]+|#+#1#)+)+)+)+)+)+)+)+)+)+)+)+)+)+)+)+)+)+)+)+)+)+)+)+)+)+)+)+)+)+)+)+)+)+)+)+)+)+)+)+)+)+)+)+)+)+)+*@S+2#(+$#x@G+& & & & & & & & & & & & & & & & & & & & & {+&#G@3##@*#9+B@)+)+)+)+)+)+)+)+)+)+)+)+)+)+)+)+)+)+)+)+)+)+)+)+)+)+)+)+)+)+)+)+)+)+)+)+)+)+)+)+)+)+)+)+)+)+z+4#k@3#5#:@& & & & & & & & & & & & & & & & & & & & & & & & & & & 6#l+7#f@]+8#)+)+)+)+)+)+)+)+)+)+)+)+)+)+)+)+)+)+)+)+)+)+)+)+)+)+)+)+)+)+)+)+)+)+)+)+B@;# +9#&#@+& & & & & & & & & & & & & & & & & & & & & & & & & & & & & & & & & & & {+0#X@h+z+)+)+)+)+)+)+)+)+)+)+)+)+)+)+)+)+)+)+)+)+)+)+)+)+)+)+)+)+)+)+)+)+)+)+)+)+)+)+)+a#b#c#d#e#f#g#                                  .@h#o+i#j#k#l#)+)+)+)+)+)+)+)+)+)+)+)+)+)+)+)+)+)+)+)+)+)+)+)+)+)+)+)+)+)+)+)+)+)+)+)+)+)+)+)+)+a#m#n#m#o#)+                                        ",
"                                        )+)+)+)+)+)+)+)+)+)+)+)+)+)+)+)+)+)+)+)+)+)+)+)+)+)+)+)+)+)+)+)+)+)+)+)+)+)+)+)+)+)+)+)+)+)+)+)+)+)+)+)+)+)+)+)+)+)+)+)+)+)+)+)+)+)+)+)+)+)+)+)+)+)+)+)+)+)+)+)+)+)+)+)+)+)+)+)+)+)+)+)+)+)+)+)+)+)+)+)+)+)+)+)+)+)+)+)+)+)+)+)+)+)+)+)+)+)+)+)+)+)+)+)+)+)+)+N+p#@#q#r#;@s# + + + + + + +.+s+t#!+L@m+^+)+)+)+)+)+)+)+)+)+)+)+)+)+)+)+)+)+)+)+)+)+)+)+)+)+)+)+)+)+)+)+)+)+)+)+)+)+)+)+)+)+)+)+)+)+)+)+)+)+)+)+)+)+)+)+)+)+)+)+)+W+@#,#F+X@$+u#G@Z@v#4@I@I@I@I@I@I@w#O+V@a+x#V+k+g+}+_@[+)+)+)+)+)+)+)+)+)+)+)+)+)+)+)+)+)+)+)+)+)+)+)+)+)+)+)+)+)+)+)+)+)+)+)+)+)+)+)+)+)+)+)+)+)+)+1@y#*#k+z#G@,@:@& & & & & & & & & & & & & & & & & & & & & ,+,@A#B#k@^@j@[+)+)+)+)+)+)+)+)+)+)+)+)+)+)+)+)+)+)+)+)+)+)+)+)+)+)+)+)+)+)+)+)+)+)+)+)+)+)+)+)+)+)+)+)+)+)+)+)+)+)+C#Q@D# @E#0@F#d#;+;+G#F#L+E#H#I#`+)+)+)+)+)+)+)+)+)+)+)+)+)+)+)+)+)+)+)+)+)+)+)+)+)+)+)+)+)+)+)+)+)+)+)+)+)+)+)+)+)+)+)+)+)+)+)+)+)+)+)+)+)+)+                                        ",
"                                        )+)+)+)+)+)+)+)+)+)+)+)+)+)+)+)+)+)+)+)+)+)+)+)+)+)+)+)+)+)+)+)+)+)+)+)+)+)+)+)+)+)+)+)+)+)+)+)+)+)+)+)+)+)+)+)+)+)+)+)+)+)+)+)+)+)+)+)+)+)+)+)+)+)+)+)+)+)+)+)+)+)+)+)+)+)+)+)+)+)+)+)+)+)+)+)+)+)+)+)+)+)+)+)+)+)+)+)+)+)+)+)+)+)+)+)+)+)+)+)+)+)+)+)+)+)+)+)+)+)+)+)+)+)+)+)+)+)+)+)+)+)+)+)+)+)+)+)+)+)+)+)+)+)+)+)+)+)+)+)+)+)+)+)+)+)+)+)+)+)+)+)+)+)+)+)+)+)+)+)+)+)+)+)+)+)+)+)+)+)+)+)+)+)+)+)+)+)+)+)+)+)+)+)+)+)+)+)+)+)+)+)+)+)+)+)+)+)+)+)+)+)+)+)+)+)+)+)+)+)+)+)+)+)+)+)+)+)+)+)+)+)+)+)+)+)+)+)+)+)+)+)+)+)+)+)+)+)+)+)+)+)+)+)+)+)+)+)+)+)+)+)+)+)+)+)+)+)+)+)+)+)+)+)+)+)+)+)+)+)+0+T+2@4#<#.+i@}#l@l@}# + + + +F@J#]+K#T+z@[+)+)+)+)+)+)+)+)+)+)+)+)+)+)+)+)+)+)+)+)+)+)+)+)+)+)+)+)+)+)+)+)+)+)+)+)+)+)+)+)+)+)+)+)+)+)+)+)+)+)+)+)+)+)+)+)+)+)+)+)+)+)+)+)+)+)+)+)+)+)+)+)+)+)+)+)+)+)+)+)+)+)+)+)+)+)+)+)+)+)+)+)+)+)+)+)+)+)+)+)+)+)+)+)+)+)+)+)+)+)+)+)+)+)+)+)+)+)+)+)+)+)+)+)+)+)+)+)+                                        ",
"                                        )+)+)+)+)+)+)+)+)+)+)+)+)+)+)+)+)+)+)+)+)+)+)+)+)+)+)+)+)+)+)+)+)+)+)+)+)+)+)+)+)+)+)+)+)+)+)+)+)+)+)+)+)+)+)+)+)+)+)+)+)+)+)+)+)+)+)+)+)+)+)+)+)+)+)+)+)+)+)+)+)+)+)+)+)+)+)+)+)+)+)+)+)+)+)+)+)+)+)+)+)+)+)+)+)+)+)+)+)+)+)+)+)+)+)+)+)+)+)+)+)+)+)+)+)+)+)+)+)+)+)+)+)+)+)+)+)+)+)+)+)+)+)+)+)+)+)+)+)+)+)+)+)+)+)+)+)+)+)+)+)+)+)+)+)+)+)+)+)+)+)+)+)+)+)+)+)+)+)+)+)+)+)+)+)+)+)+)+)+)+)+)+)+)+)+)+)+)+)+)+)+)+)+)+)+)+)+)+)+)+)+)+)+)+)+)+)+)+)+)+)+)+)+)+)+)+)+)+)+)+)+)+)+)+)+)+)+)+)+)+)+)+)+)+)+)+)+)+)+)+)+)+)+)+)+)+)+)+)+)+)+)+)+)+)+)+)+)+)+)+)+)+)+)+)+)+)+)+)+)+)+)+)+)+)+)+)+)+)+)+)+)+)+)+)+)+)+)+)+)+)+)+)+)+)+)+)+)+)+)+)+)+)+)+)+)+)+)+)+)+)+)+)+)+)+)+)+)+)+)+)+)+)+)+)+)+)+)+)+)+)+)+)+)+)+)+)+)+)+)+)+)+)+)+)+)+)+)+)+)+)+)+)+)+)+)+)+)+)+)+)+)+)+)+)+)+)+)+)+)+)+)+)+)+)+)+)+)+)+)+)+)+)+)+)+)+)+)+)+)+)+)+)+)+)+)+)+)+)+)+)+)+)+)+)+)+)+)+)+)+)+)+)+)+)+)+)+)+)+)+)+)+)+)+)+)+)+)+)+)+                                        ",
"                                        )+)+)+)+)+)+)+)+)+)+)+)+)+)+)+)+)+)+)+)+)+)+)+)+)+)+)+)+)+)+)+)+)+)+)+)+)+)+)+)+)+)+)+)+)+)+)+)+)+)+)+)+)+)+)+)+)+)+)+)+)+)+)+)+)+)+)+)+)+)+)+)+)+)+)+)+)+)+)+)+)+)+)+)+)+)+)+)+)+)+)+)+)+)+)+)+)+)+)+)+)+)+)+)+)+)+)+)+)+)+)+)+)+)+)+)+)+)+)+)+)+)+)+)+)+)+)+)+)+)+)+)+)+)+)+)+)+)+)+)+)+)+)+)+)+)+)+)+)+)+)+)+)+)+)+)+)+)+)+)+)+)+)+)+)+)+)+)+)+)+)+)+)+)+)+)+)+)+)+)+)+)+)+)+)+)+)+)+)+)+)+)+)+)+)+)+)+)+)+)+)+)+)+)+)+)+)+)+)+)+)+)+)+)+)+)+)+)+)+)+)+)+)+)+)+)+)+)+)+)+)+)+)+)+)+)+)+)+)+)+)+)+)+)+)+)+)+)+)+)+)+)+)+)+)+)+)+)+)+)+)+)+)+)+)+)+)+)+)+)+)+)+)+)+)+)+)+)+)+)+)+)+)+)+)+)+)+)+)+)+)+)+)+)+)+)+)+)+)+)+)+)+)+)+)+)+)+)+)+)+)+)+)+)+)+)+)+)+)+)+)+)+)+)+)+)+)+)+)+)+)+)+)+)+)+)+)+)+)+)+)+)+)+)+)+)+)+)+)+)+)+)+)+)+)+)+)+)+)+)+)+)+)+)+)+)+)+)+)+)+)+)+)+)+)+)+)+)+)+)+)+)+)+)+)+)+)+)+)+)+)+)+)+)+)+)+)+)+)+)+)+)+)+)+)+)+)+)+)+)+)+)+)+)+)+)+)+)+)+)+)+)+)+)+)+)+)+)+)+)+)+)+)+)+)+)+)+)+)+)+                                        ",
"                                        )+)+)+)+)+)+)+)+)+)+)+)+)+)+)+)+)+)+)+)+)+)+)+)+)+)+)+)+)+)+)+)+)+)+)+)+)+)+)+)+)+)+)+)+)+)+)+)+)+)+)+)+)+)+)+)+)+)+)+)+)+)+)+)+)+)+)+)+)+)+)+)+)+)+)+)+)+)+)+)+)+)+)+)+)+)+)+)+)+)+)+)+)+)+)+)+)+)+)+)+)+)+)+)+)+)+)+)+)+)+)+)+)+)+)+)+)+)+)+)+)+)+)+)+)+)+)+)+)+)+)+)+)+)+)+)+)+)+)+)+)+)+)+)+)+)+)+)+)+)+)+)+)+)+)+)+)+)+)+)+)+)+)+)+)+)+)+)+)+)+)+)+)+)+)+)+)+)+)+)+)+)+)+)+)+)+)+)+)+)+)+)+)+)+)+)+)+)+)+)+)+)+)+)+)+)+)+)+)+)+)+)+)+)+)+)+)+)+)+)+)+)+)+)+)+)+)+)+)+)+)+)+)+)+)+)+)+)+)+)+)+)+)+)+)+)+)+)+)+)+)+)+)+)+)+)+)+)+)+)+)+)+)+)+)+)+)+)+)+)+)+)+)+)+)+)+)+)+)+)+)+)+)+)+)+)+)+)+)+)+)+)+)+)+)+)+)+)+)+)+)+)+)+)+)+)+)+)+)+)+)+)+)+)+)+)+)+)+)+)+)+)+)+)+)+)+)+)+)+)+)+)+)+)+)+)+)+)+)+)+)+)+)+)+)+)+)+)+)+)+)+)+)+)+)+)+)+)+)+)+)+)+)+)+)+)+)+)+)+)+)+)+)+)+)+)+)+)+)+)+)+)+)+)+)+)+)+)+)+)+)+)+)+)+)+)+)+)+)+)+)+)+)+)+)+)+)+)+)+)+)+)+)+)+)+)+)+)+)+)+)+)+)+)+)+)+)+)+)+)+)+)+)+)+)+)+)+)+)+)+                                        ",
"                                        )+)+)+)+)+)+)+)+)+)+)+)+)+)+)+)+)+)+)+)+)+)+)+)+)+)+)+)+)+)+)+)+)+)+)+)+)+)+)+)+)+)+)+)+)+)+)+)+)+)+)+)+)+)+)+)+)+)+)+)+)+)+)+)+)+)+)+)+)+)+)+)+)+)+)+)+)+)+)+)+)+)+)+)+)+)+)+)+)+)+)+)+)+)+)+)+)+)+)+)+)+)+)+)+)+)+)+)+)+)+)+)+)+)+)+)+)+)+)+)+)+)+)+)+)+)+)+)+)+)+)+)+)+)+)+)+)+)+)+)+)+)+)+)+)+)+)+)+)+)+)+)+)+)+)+)+)+)+)+)+)+)+)+)+)+)+)+)+)+)+)+)+)+)+)+)+)+)+)+)+)+)+)+)+)+)+)+)+)+)+)+)+)+)+)+)+)+)+)+)+)+)+)+)+)+)+)+)+)+)+)+)+)+)+)+)+)+)+)+)+)+)+)+)+)+)+)+)+)+)+)+)+)+)+)+)+)+)+)+)+)+)+)+)+)+)+)+)+)+)+)+)+)+)+)+)+)+)+)+)+)+)+)+)+)+)+)+)+)+)+)+)+)+)+)+)+)+)+)+)+)+)+)+)+)+)+)+)+)+)+)+)+)+)+)+)+)+)+)+)+)+)+)+)+)+)+)+)+)+)+)+)+)+)+)+)+)+)+)+)+)+)+)+)+)+)+)+)+)+)+)+)+)+)+)+)+)+)+)+)+)+)+)+)+)+)+)+)+)+)+)+)+)+)+)+)+)+)+)+)+)+)+)+)+)+)+)+)+)+)+)+)+)+)+)+)+)+)+)+)+)+)+)+)+)+)+)+)+)+)+)+)+)+)+)+)+)+)+)+)+)+)+)+)+)+)+)+)+)+)+)+)+)+)+)+)+)+)+)+)+)+)+)+)+)+)+)+)+)+)+)+)+)+)+)+)+)+)+)+)+                                        ",
"                                        )+)+)+)+)+)+)+)+)+)+)+)+)+)+)+)+)+)+)+)+)+)+)+)+)+)+)+)+)+)+)+)+)+)+)+)+)+)+)+)+)+)+)+)+)+)+)+)+)+)+)+)+)+)+)+)+)+)+)+)+)+)+)+)+)+)+)+)+)+)+)+)+)+)+)+)+)+)+)+)+)+)+)+)+)+)+)+)+)+)+)+)+)+)+)+)+)+)+)+)+)+)+)+)+)+)+)+)+)+)+)+)+)+)+)+)+)+)+)+)+)+)+)+)+)+)+)+)+)+)+)+)+)+)+)+)+)+)+)+)+)+)+)+)+)+)+)+)+)+)+)+)+)+)+)+)+)+)+)+)+)+)+)+)+)+)+)+)+)+)+)+)+)+)+)+)+)+)+)+)+)+)+)+)+)+)+)+)+)+)+)+)+)+)+)+)+)+)+)+)+)+)+)+)+)+)+)+)+)+)+)+)+)+)+)+)+)+)+)+)+)+)+)+)+)+)+)+)+)+)+)+)+)+)+)+)+)+)+)+)+)+)+)+)+)+)+)+)+)+)+)+)+)+)+)+)+)+)+)+)+)+)+)+)+)+)+)+)+)+)+)+)+)+)+)+)+)+)+)+)+)+)+)+)+)+)+)+)+)+)+)+)+)+)+)+)+)+)+)+)+)+)+)+)+)+)+)+)+)+)+)+)+)+)+)+)+)+)+)+)+)+)+)+)+)+)+)+)+)+)+)+)+)+)+)+)+)+)+)+)+)+)+)+)+)+)+)+)+)+)+)+)+)+)+)+)+)+)+)+)+)+)+)+)+)+)+)+)+)+)+)+)+)+)+)+)+)+)+)+)+)+)+)+)+)+)+)+)+)+)+)+)+)+)+)+)+)+)+)+)+)+)+)+)+)+)+)+)+)+)+)+)+)+)+)+)+)+)+)+)+)+)+)+)+)+)+)+)+)+)+)+)+)+)+)+)+)+)+)+)+                                        ",
"                                        )+)+)+)+)+)+)+)+)+)+)+)+)+)+)+)+)+)+)+)+)+)+)+)+)+)+)+)+)+)+)+)+)+)+)+)+)+)+)+)+)+)+)+)+)+)+)+)+)+)+)+)+)+)+)+)+)+)+)+)+)+)+)+)+)+)+)+)+)+)+)+)+)+)+)+)+)+)+)+)+)+)+)+)+)+)+)+)+)+)+)+)+)+)+)+)+)+)+)+)+)+)+)+)+)+)+)+)+)+)+)+)+)+)+)+)+)+)+)+)+)+)+)+)+)+)+)+)+)+)+)+)+)+)+)+)+)+)+)+)+)+)+)+)+)+)+)+)+)+)+)+)+)+)+)+)+)+)+)+)+)+)+)+)+)+)+)+)+)+)+)+)+)+)+)+)+)+)+)+)+)+)+)+)+)+)+)+)+)+)+)+)+)+)+)+)+)+)+)+)+)+)+)+)+)+)+)+)+)+)+)+)+)+)+)+)+)+)+)+)+)+)+)+)+)+)+)+)+)+)+)+)+)+)+)+)+)+)+)+)+)+)+)+)+)+)+)+)+)+)+)+)+)+)+)+)+)+)+)+)+)+)+)+)+)+)+)+)+)+)+)+)+)+)+)+)+)+)+)+)+)+)+)+)+)+)+)+)+)+)+)+)+)+)+)+)+)+)+)+)+)+)+)+)+)+)+)+)+)+)+)+)+)+)+)+)+)+)+)+)+)+)+)+)+)+)+)+)+)+)+)+)+)+)+)+)+)+)+)+)+)+)+)+)+)+)+)+)+)+)+)+)+)+)+)+)+)+)+)+)+)+)+)+)+)+)+)+)+)+)+)+)+)+)+)+)+)+)+)+)+)+)+)+)+)+)+)+)+)+)+)+)+)+)+)+)+)+)+)+)+)+)+)+)+)+)+)+)+)+)+)+)+)+)+)+)+)+)+)+)+)+)+)+)+)+)+)+)+)+)+)+)+)+)+)+)+)+)+)+)+                                        ",
"                                        )+)+)+)+)+)+)+)+)+)+)+)+)+)+)+)+)+)+)+)+)+)+)+)+)+)+)+)+)+)+)+)+)+)+)+)+)+)+)+)+)+)+)+)+)+)+)+)+)+)+)+)+)+)+)+)+)+)+)+)+)+)+)+)+)+)+)+)+)+)+)+)+)+)+)+)+)+)+)+)+)+)+)+)+)+)+)+)+)+)+)+)+)+)+)+)+)+)+)+)+)+)+)+)+)+)+)+)+)+)+)+)+)+)+)+)+)+)+)+)+)+)+)+)+)+)+)+)+)+)+)+)+)+)+)+)+)+)+)+)+)+)+)+)+)+)+)+)+)+)+)+)+)+)+)+)+)+)+)+)+)+)+)+)+)+)+)+)+)+)+)+)+)+)+)+)+)+)+)+)+)+)+)+)+)+)+)+)+)+)+)+)+)+)+)+)+)+)+)+)+)+)+)+)+)+)+)+)+)+)+)+)+)+)+)+)+)+)+)+)+)+)+)+)+)+)+)+)+)+)+)+)+)+)+)+)+)+)+)+)+)+)+)+)+)+)+)+)+)+)+)+)+)+)+)+)+)+)+)+)+)+)+)+)+)+)+)+)+)+)+)+)+)+)+)+)+)+)+)+)+)+)+)+)+)+)+)+)+)+)+)+)+)+)+)+)+)+)+)+)+)+)+)+)+)+)+)+)+)+)+)+)+)+)+)+)+)+)+)+)+)+)+)+)+)+)+)+)+)+)+)+)+)+)+)+)+)+)+)+)+)+)+)+)+)+)+)+)+)+)+)+)+)+)+)+)+)+)+)+)+)+)+)+)+)+)+)+)+)+)+)+)+)+)+)+)+)+)+)+)+)+)+)+)+)+)+)+)+)+)+)+)+)+)+)+)+)+)+)+)+)+)+)+)+)+)+)+)+)+)+)+)+)+)+)+)+)+)+)+)+)+)+)+)+)+)+)+)+)+)+)+)+)+)+)+)+)+)+)+)+                                        ",
"                                          L#. . . . . . . . . . . . . . . . . . . . . . . . . . . . . . . . . . . . . . . . . . . . . . . . . . . . . . . . . . . . . . . . . . . . . . . . . . . . . . . . . . . . . . . . . . . . . . . . . . . . . . . . . . . . . . . . . . . . . . . . . . . . . . . . . . . . . . . . . . . . . . . . . . . . . . . . . . . . . . . . . . . . . . . . . . . . . . . . . . . . . . . . . . . . . . . . . . . . . . . . . . . . . . . . . . . . . . . . . . . . . . . . . . . . . . . . . . . . . . . . . . . . . . . . . . . . . . . . . . . . . . . . . . . . . . . . . . . . . . . . . . . . . . . . . . . . . . . . . . . . . . . . . . . . . . . . . . . . . . . . . . . . . . . . . . . . . . . . . . . . . . . . . . . . . . . . . . M#                                                                                                                                                                                                              ",
"                                          N#. . . . . . . . . . . . . . . . . . . . . . . . . . . . . . . . . . . . . . . . . . . . . . . . . . . . . . . . . . . . . . . . . . . . . . . . . . . . . . . . . . . . . . . . . . . . . . . . . . . . . . . . . . . . . . . . . . . . . . . . . . . . . . . . . . . . . . . . . . . . . . . . . . . . . . . . . . . . . . . . . . . . . . . . . . . . . . . . . . . . . . . . . . . . . . . . . . . . . . . . . . . . . . . . . . . . . . . . . . . . . . . . . . . . . . . . . . . . . . . . . . . . . . . . . . . . . . . . . . . . . . . . . . . . . . . . . . . . . . . . . . . . . . . . . . . . . . . . . . . . . . . . . . . . . . . . . . . . . . . . . . . . . . . . . . . . . . . . . . . . . . . . . . . . . . . . . O#P#                                                                                                                                                                                                              ",
"                                          > Q#. . . . . . . . . . . . . . . . . . . . . . . . . . . . . . . . . . . . . . . . . . . . . . . . . . . . . . . . . . . . . . . . . . . . . . . . . . . . . . . . . . . . . . . . . . . . . . . . . . . . . . . . . . . . . . . . . . . . . . . . . . . . . . . . . . . . . . . . . . . . . . . . . . . . . . . . . . . . . . . . . . . . . . . . . . . . . . . . . . . . . . . . . . . . . . . . . . . . . . . . . . . . . . . . . . . . . . . . . . . . . . . . . . . . . . . . . . . . . . . . . . . . . . . . . . . . . . . . . . . . . . . . . . . . . . . . . . . . . . . . . . . . . . . . . . . . . . . . . . . . . . . . . . . . . . . . . . . . . . . . . . . . . . . . . . . . . . . . . . . . . . . . . . . . . . . . R#                                                                                                                                                                                                                ",
"                                            S#. . . . . . . . . . . . . . . . . . . . . . . . . . . . . . . . . . . . . . . . . . . . . . . . . . . . . . . . . . . . . . . . . . . . . . . . . . . . . . . . . . . . . . . . . . . . . . . . . . . . . . . . . . . . . . . . . . . . . . . . . . . . . . . . . . . . . . . . . . . . . . . . . . . . . . . . . . . . . . . . . . . . . . . . . . . . . . . . . . . . . . . . . . . . . . . . . . . . . . . . . . . . . . . . . . . . . . . . . . . . . . . . . . . . . . . . . . . . . . . . . . . . . . . . . . . . . . . . . . . . . . . . . . . . . . . . . . . . . . . . . . . . . . . . . . . . . . . . . . . . . . . . . . . . . . . . . . . . . . . . . . . . . . . . . . . . . . . . . . . . . . . . . . . . . . . T#U#                                                                                                                                                                                                                ",
"                                            V#. . . . . . . . . . . . . . . . . . . . . . . . . . . . . . . . . . . . . . . . . . . . . . . . . . . . . . . . . . . . . . . . . . . . . . . . . . . . . . . . . . . . . . . . . . . . . . . . . . . . . . . . . . . . . . . . . . . . . . . . . . . . . . . . . . . . . . . . . . . . . . . . . . . . . . . . . . . . . . . . . . . . . . . . . . . . . . . . . . . . . . . . . . . . . . . . . . . . . . . . . . . . . . . . . . . . . . . . . . . . . . . . . . . . . . . . . . . . . . . . . . . . . . . . . . . . . . . . . . . . . . . . . . . . . . . . . . . . . . . . . . . . . . . . . . . . . . . . . . . . . . . . . . . . . . . . . . . . . . . . . . . . . . . . . . . . . . . . . . . . . . . . . . . . . . . W#                                                                                                                                                                                                                  ",
"                                            X#. . . . . . . . . . . . . . . . . . . . . . . . . . . . . . . . . . . . . . . . . . . . . . . . . . . . . . . . . . . . . . . . . . . . . . . . . . . . . . . . . . . . . . . . . . . . . . . . . . . . . . . . . . . . . . . . . . . . . . . . . . . . . . . . . . . . . . . . . . . . . . . . . . . . . . . . . . . . . . . . . . . . . . . . . . . . . . . . . . . . . . . . . . . . . . . . . . . . . . . . . . . . . . . . . . . . . . . . . . . . . . . . . . . . . . . . . . . . . . . . . . . . . . . . . . . . . . . . . . . . . . . . . . . . . . . . . . . . . . . . . . . . . . . . . . . . . . . . . . . . . . . . . . . . . . . . . . . . . . . . . . . . . . . . . . . . . . . . . . . . . . . . . . . . . . T#Y#                                                                                                                                                                                                                  ",
"                                            Z#. . . . . . . . . . . . . . . . . . . . . . . . . . . . . . . . . . . . . . . . . . . . . . . . . . . . . . . . . . . . . . . . . . . . . . . . . . . . . . . . . . . . . . . . . . . . . . . . . . . . . . . . . . . . . . . . . . . . . . . . . . . . . . . . . . . . . . . . . . . . . . . . . . . . . . . . . . . . . . . . . . . . . . . . . . . . . . . . . . . . . . . . . . . . . . . . . . . . . . . . . . . . . . . . . . . . . . . . . . . . . . . . . . . . . . . . . . . . . . . . . . . . . . . . . . . . . . . . . . . . . . . . . . . . . . . . . . . . . . . . . . . . . . . . . . . . . . . . . . . . . . . . . . . . . . . . . . . . . . . . . . . . . . . . . . . . . . . . . . . . . . . . . . . . . . `#                                                                                                                                                                                                                    ",
"                                            2.O#. . . . . . . . . . . . . . . . . . . . . . . . . . . . . . . . . . . . . . . . . . . . . . . . . . . . . . . . . . . . . . . . . . . . . . . . . . . . . . . . . . . . . . . . . . . . . . . . . . . . . . . . . . . . . . . . . . . . . . . . . . . . . . . . . . . . . . . . . . . . . . . . . . . . . . . . . . . . . . . . . . . . . . . . . . . . . . . . . . . . . . . . . . . . . . . . . . . . . . . . . . . . . . . . . . . . . . . . . . . . . . . . . . . . . . . . . . . . . . . . . . . . . . . . . . . . . . . . . . . . . . . . . . . . . . . . . . . . . . . . . . . . . . . . . . . . . . . . . . . . . . . . . . . . . . . . . . . . . . . . . . . . . . . . . . . . . . . . . . . . . . . . . . . . T# $                                                                                                                                                                                                                    ",
"                                              .$. . . . . . . . . . . . . . . . . . . . . . . . . . . . . . . . . . . . . . . . . . . . . . . . . . . . . . . . . . . . . . . . . . . . . . . . . . . . . . . . . . . . . . . . . . . . . . . . . . . . . . . . . . . . . . . . . . . . . . . . . . . . . . . . . . . . . . . . . . . . . . . . . . . . . . . . . . . . . . . . . . . . . . . . . . . . . . . . . . . . . . . . . . . . . . . . . . . . . . . . . . . . . . . . . . . . . . . . . . . . . . . . . . . . . . . . . . . . . . . . . . . . . . . . . . . . . . . . . . . . . . . . . . . . . . . . . . . . . . . . . . . . . . . . . . . . . . . . . . . . . . . . . . . . . . . . . . . . . . . . . . . . . . . . . . . . . . . . . . . . . . . . . . . . +$                                                                                                                                                                                                                      ",
"                                              @$. . . . . . . . . . . . . . . . . . . . . . . . . . . . . . . . . . . . . . . . . . . . . . . . . . . . . . . . . . . . . . . . . . . . . . . . . . . . . . . . . . . . . . . . . . . . . . . . . . . . . . . . . . . . . . . . . . . . . . . . . . . . . . . . . . . . . . . . . . . . . . . . . . . . . . . . . . . . . . . . . . . . . . . . . . . . . . . . . . . . . . . . . . . . . . . . . . . . . . . . . . . . . . . . . . . . . . . . . . . . . . . . . . . . . . . . . . . . . . . . . . . . . . . . . . . . . . . . . . . . . . . . . . . . . . . . . . . . . . . . . . . . . . . . . . . . . . . . . . . . . . . . . . . . . . . . . . . . . . . . . . . . . . . . . . . . . . . . . . . . . . . . . . . T##$                                                                                                                                                                                                                      ",
"                                              $$. . . . . . . . . . . . . . . . . . . . . . . . . . . . . . . . . . . . . . . . . . . . . . . . . . . . . . . . . . . . . . . . . . . . . . . . . . . . . . . . . . . . . . . . . . . . . . . . . . . . . . . . . . . . . . . . . . . . . . . . . . . . . . . . . . . . . . . . . . . . . . . . . . . . . . . . . . . . . . . . . . . . . . . . . . . . . . . . . . . . . . . . . . . . . . . . . . . . . . . . . . . . . . . . . . . . . . . . . . . . . . . . . . . . . . . . . . . . . . . . . . . . . . . . . . . . . . . . . . . . . . . . . . . . . . . . . . . . . . . . . . . . . . . . . . . . . . . . . . . . . . . . . . . . . . . . . . . . . . . . . . . . . . . . . . . . . . . . . . . . . . . . . . . %$                                                                                                                                                                                                                        ",
"                                              &$. . . . . . . . . . . . . . . . . . . . . . . . . . . . . . . . . . . . . . . . . . . . . . . . . . . . . . . . . . . . . . . . . . . . . . . . . . . . . . . . . . . . . . . . . . . . . . . . . . . . . . . . . . . . . . . . . . . . . . . . . . . . . . . . . . . . . . . . . . . . . . . . . . . . . . . . . . . . . . . . . . . . . . . . . . . . . . . . . . . . . . . . . . . . . . . . . . . . . . . . . . . . . . . . . . . . . . . . . . . . . . . . . . . . . . . . . . . . . . . . . . . . . . . . . . . . . . . . . . . . . . . . . . . . . . . . . . . . . . . . . . . . . . . . . . . . . . . . . . . . . . . . . . . . . . . . . . . . . . . . . . . . . . . . . . . . . . . . . . . . . . . . . . O#*$                                                                                                                                                                                                                        ",
"                                              = =$. . . . . . . . . . . . . . . . . . . . . . . . . . . . . . . . . . . . . . . . . . . . . . . . . . . . . . . . . . . . . . . . . . . . . . . . . . . . . . . . . . . . . . . . . . . . . . . . . . . . . . . . . . . . . . . . . . . . . . . . . . . . . . . . . . . . . . . . . . . . . . . . . . . . . . . . . . . . . . . . . . . . . . . . . . . . . . . . . . . . . . . . . . . . . . . . . . . . . . . . . . . . . . . . . . . . . . . . . . . . . . . . . . . . . . . . . . . . . . . . . . . . . . . . . . . . . . . . . . . . . . . . . . . . . . . . . . . . . . . . . . . . . . . . . . . . . . . . . . . . . . . . . . . . . . . . . . . . . . . . . . . . . . . . . . . . . . . . . . . . . . . . . -$                                                                                                                                                                                                                          ",
"                                                ;$. . . . . . . . . . . . . . . . . . . . . . . . . . . . . . . . . . . . . . . . . . . . . . . . . . . . . . . . . . . . . . . . . . . . . . . . . . . . . . . . . . . . . . . . . . . . . . . . . . . . . . . . . . . . . . . . . . . . . . . . . . . . . . . . . . . . . . . . . . . . . . . . . . . . . . . . . . . . . . . . . . . . . . . . . . . . . . . . . . . . . . . . . . . . . . . . . . . . . . . . . . . . . . . . . . . . . . . . . . . . . . . . . . . . . . . . . . . . . . . . . . . . . . . . . . . . . . . . . . . . . . . . . . . . . . . . . . . . . . . . . . . . . . . . . . . . . . . . . . . . . . . . . . . . . . . . . . . . . . . . . . . . . . . . . . . . . . . . . . . . . . . . >$,$                                                                                                                                                                                                                          ",
"                                                '$. . . . . . . . . . . . . . . . . . . . . . . . . . . . . . . . . . . . . . . . . . . . . . . . . . . . . . . . . . . . . . . . . . . . . . . . . . . . . . . . . . . . . . . . . . . . . . . . . . . . . . . . . . . . . . . . . . . . . . . . . . . . . . . . . . . . . . . . . . . . . . . . . . . . . . . . . . . . . . . . . . . . . . . . . . . . . . . . . . . . . . . . . . . . . . . . . . . . . . . . . . . . . . . . . . . . . . . . . . . . . . . . . . . . . . . . . . . . . . . . . . . . . . . . . . . . . . . . . . . . . . . . . . . . . . . . . . . . . . . . . . . . . . . . . . . . . . . . . . . . . . . . . . . . . . . . . . . . . . . . . . . . . . . . . . . . . . . . . . . . . . . . )$                                                                                                                                                                                                                            ",
"                                                !$. . . . . . . . . . . . . . . . . . . . . . . . . . . . . . . . . . . . . . . . . . . . . . . . . . . . . . . . . . . . . . . . . . . . . . . . . . . . . . . . . . . . . . . . . . . . . . . . . . . . . . . . . . . . . . . . . . . . . . . . . . . . . . . . . . . . . . . . . . . . . . . . . . . . . . . . . . . . . . . . . . . . . . . . . . . . . . . . . . . . . . . . . . . . . . . . . . . . . . . . . . . . . . . . . . . . . . . . . . . . . . . . . . . . . . . . . . . . . . . . . . . . . . . . . . . . . . . . . . . . . . . . . . . . . . . . . . . . . . . . . . . . . . . . . . . . . . . . . . . . . . . . . . . . . . . . . . . . . . . . . . . . . . . . . . . . . . . . . . . . . . . ~${$                                                                                                                                                                                                                            ",
"                                                ]$=$. . . . . . . . . . . . . . . . . . . . . . . . . . . . . . . . . . . . . . . . . . . . . . . . . . . . . . . . . . . . . . . . . . . . . . . . . . . . . . . . . . . . . . . . . . . . . . . . . . . . . . . . . . . . . . . . . . . . . . . . . . . . . . . . . . . . . . . . . . . . . . . . . . . . . . . . . . . . . . . . . . . . . . . . . . . . . . . . . . . . . . . . . . . . . . . . . . . . . . . . . . . . . . . . . . . . . . . . . . . . . . . . . . . . . . . . . . . . . . . . . . . . . . . . . . . . . . . . . . . . . . . . . . . . . . . . . . . . . . . . . . . . . . . . . . . . . . . . . . . . . . . . . . . . . . . . . . . . . . . . . . . . . . . . . . . . . . . . . . . . . . ^$                                                                                                                                                                                                                              ",
"                                                  /$. . . . . . . . . . . . . . . . . . . . . . . . . . . . . . . . . . . . . . . . . . . . . . . . . . . . . . . . . . . . . . . . . . . . . . . . . . . . . . . . . . . . . . . . . . . . . . . . . . . . . . . . . . . . . . . . . . . . . . . . . . . . . . . . . . . . . . . . . . . . . . . . . . . . . . . . . . . . . . . . . . . . . . . . . . . . . . . . . . . . . . . . . . . . . . . . . . . . . . . . . . . . . . . . . . . . . . . . . . . . . . . . . . . . . . . . . . . . . . . . . . . . . . . . . . . . . . . . . . . . . . . . . . . . . . . . . . . . . . . . . . . . . . . . . . . . . . . . . . . . . . . . . . . . . . . . . . . . . . . . . . . . . . . . . . . . . . . . . . . . . ($                                                                                                                                                                                                                                ",
"                                                  _$. . . . . . . . . . . . . . . . . . . . . . . . . . . . . . . . . . . . . . . . . . . . . . . . . . . . . . . . . . . . . . . . . . . . . . . . . . . . . . . . . . . . . . . . . . . . . . . . . . . . . . . . . . . . . . . . . . . . . . . . . . . . . . . . . . . . . . . . . . . . . . . . . . . . . . . . . . . . . . . . . . . . . . . . . . . . . . . . . . . . . . . . . . . . . . . . . . . . . . . . . . . . . . . . . . . . . . . . . . . . . . . . . . . . . . . . . . . . . . . . . . . . . . . . . . . . . . . . . . . . . . . . . . . . . . . . . . . . . . . . . . . . . . . . . . . . . . . . . . . . . . . . . . . . . . . . . . . . . . . . . . . . . . . . . . . . . . . . . . . . . :$                                                                                                                                                                                                                                ",
"                                                  <$. . . . . . . . . . . . . . . . . . . . . . . . . . . . . . . . . . . . . . . . . . . . . . . . . . . . . . . . . . . . . . . . . . . . . . . . . . . . . . . . . . . . . . . . . . . . . . . . . . . . . . . . . . . . . . . . . . . . . . . . . . . . . . . . . . . . . . . . . . . . . . . . . . . . . . . . . . . . . . . . . . . . . . . . . . . . . . . . . . . . . . . . . . . . . . . . . . . . . . . . . . . . . . . . . . . . . . . . . . . . . . . . . . . . . . . . . . . . . . . . . . . . . . . . . . . . . . . . . . . . . . . . . . . . . . . . . . . . . . . . . . . . . . . . . . . . . . . . . . . . . . . . . . . . . . . . . . . . . . . . . . . . . . . . . . . . . . . . . . . . [$                                                                                                                                                                                                                                  ",
"                                                    }$. . . . . . . . . . . . . . . . . . . . . . . . . . . . . . . . . . . . . . . . . . . . . . . . . . . . . . . . . . . . . . . . . . . . . . . . . . . . . . . . . . . . . . . . . . . . . . . . . . . . . . . . . . . . . . . . . . . . . . . . . . . . . . . . . . . . . . . . . . . . . . . . . . |$1$2$3$4$5$6$6$5$7$3$2$8$9$. . . . . . . . . . . . . . . . . . . . . . . . . . . . . . . . . . . . . . . . . . . . . . . . . . . . . . . . . . . . . . . . . . . . . . . . . . . . . . . . . . . . . . . . . . . . . . . . . . . . . . . . . . . . . . . . . . . . . . . . . . . . . . . . . . . . . . . . . . . . . . . . . . . . . . . . . . . . . . . . . . . . . . . . . . . . . . . . . . 0$a$                                                                                                                                                                                                                                  ",
"                                                    [$. . . . . . . . . . . . . . . . . . . . . . . . . . . . . . . . . . . . . . . . . . . . . . . . . . . . . . . . . . . . . . . . . . . . . . . . . . . . . . . . . . . . . . . . . . . . . . . . . . . . . . . . . . . . . . . . . . . . . . . . . . . . . . . . . . . . . . . . . . . . . . . . b$c$d$e$e$e$e$e$e$e$e$e$e$e$e$f$g$h$. . . . . . . . . . . . . . . . . . . . . . . . . . . . . . . . . . . . . . . . . . . . . . . . . . . . . . . . . . . . . . . . . . . . . . . . . . . . . . . . . . . . . . . . . . . . . . . . . . . . . . . . . . . . . . . . . . . . . . . . . . . . . . . . . . . . . . . . . . . . . . . . . . . . . . . . . . . . . . . . . . . . . . . . . . . . . . . . i$                                                                                                                                                                                                                                    ",
"                                                    j$. . . . . . . . . . . . . . . . . . . . . . . . . . . . . . . . . . . . . . . . . . . . . . . . . . . . . . . . . . . . . . . . . . . . . . . . . . . . . . . . . . . . . . . . . . . . . . . . . . . . . . . . . . . . . . . . . . . . . . . . . . . . . . . . . . . . . . . . . . . . . . k$l$m$e$e$e$e$e$e$e$e$e$e$e$e$e$e$e$e$m$n$o$. . . . . . . . . . . . . . . . . . . . . . . . . . . . . . . . . . . . . . . . . . . . . . . . . . . . . . . . . . . . . . . . . . . . . . . . . . . . . . . . . . . . . . . . . . . . . . . . . . . . . . . . . . . . . . . . . . . . . . . . . . . . . . . . . . . . . . . . . . . . . . . . . . . . . . . . . . . . . . . . . . . . . . . . . . . . . p$=                                                                                                                                                                                                                                     ",
"                                                    q$O#. . . . . . . . . . . . . . . . . . . . . . . . . . . . . . . . . . . . . . . . . . . . . . . . . . . . . . . . . . . . . . . . . . . . . . . . . . . . . . . . . . . . . . . . . . . . . . . . . . . . . . . . . . . . . . . . . . . . . . . . . . . . . . . . . . . . . . . . . . . . r$s$e$e$e$e$e$e$e$e$e$e$e$e$e$e$e$e$e$e$e$e$t$u$. . . . . . . . . . . . . . . . . . . . . . . . . . . . . . . . . . . . . . . . . . . . . . . . . . . . . . . . . . . . . . . . . . . . . . . . . . . . . . . . . . . . . . . . . . . . . . . . . . . . . . . . . . . . . . . . . . . . . . . . . . . . . . . . . . . . . . . . . . . . . . . . . . . . . . . . . . . . . . . . . . . . . . . . . . . T#v$                                                                                                                                                                                                                                      ",
"                                                      w$. . . . . . . . . . . . . . . . . . . . . . . . . . . . . . . . . . . . . . . . . . . . . . . . . . . . . . . . . . . . . . . . . . . . . . . . . . . . . . . . . . . . . . . . . . . . . . . . . . . . . . . . . . . . . . . . . . . . . . . . . . . . . . . . . . . . . . . . . . x$y$e$e$e$e$e$e$e$e$e$e$e$e$e$e$e$e$e$e$e$e$e$e$e$e$z$x$. . . . . . . . . . . . . . . . . . . . . . . . . . . . . . . . . . . . . . . . . . . . . . . . . . . . . . . . . . . . . . . . . . . . . . . . . . . . . . . . . . . . . . . . . . . . . . . . . . . . . . . . . . . . . . . . . . . . . . . . . . . . . . . . . . . . . . . . . . . . . . . . . . . . . . . . . . . . . . . . . . . . . . . . . A$                                                                                                                                                                                                                                        ",
"                                                      B$. . . . . . . . . . . . . . . . . . . . . . . . . . . . . . . . . . . . . . . . . . . . . . . . . . . . . . . . . . . . . . . . . . . . . . . . . . . . . . . . . . . . . . . . . . . . . . . . . . . . . . . . . . . . . . . . . . . . . . . . . . . . . . . . . . . . . . . . . C$D$e$e$e$e$e$e$e$e$e$e$e$e$e$e$e$e$e$e$e$e$e$e$e$e$e$e$E$C$. . . . . . . . . . . . . . . . . . . . . . . . . . . . . . . . . . . . . . . . . . . . . . . . . . . . . . . . . . . . . . . . . . . . . . . . . . . . . . . . . . . . . . . . . . . . . . . . . . . . . . . . . . . . . . . . . . . . . . . . . . . . . . . . . . . . . . . . . . . . . . . . . . . . . . . . . . . . . . . . . . . . . . . F$G$                                                                                                                                                                                                                                        ",
"                                                      H$I$. . . . . . . . . . . . . . . . . . . . . . . . . . . . . . . . . . . . . . . . . . . . . . . . . . . . . . . . . . . . . . . . . . . . . . . . . . . . . . . . . . . . . . . . . . . . . . . . . . . . . . . . . . . . . . . . . . . . . . . . . . . . . . . . . . . . . . . x$D$e$e$e$e$e$e$e$e$e$e$e$e$e$e$e$e$e$e$e$e$e$e$e$e$e$e$e$e$J$0$. . . . . . . . . . . . . . . . . . . . . . . . . . . . . . . . . . . . . . . . . . . . . . . . . . . . . . . . . . . . . . . . . . . . . . . . . . . . . . . . . . . . . . . . . . . . . . . . . . . . . . . . . . . . . . . . . . . . . . . . . . . . . . . . . . . . . . . . . . . . . . . . . . . . . . . . . . . . . . . . . . . . . . K$                                                                                                                                                                                                                                          ",
"                                                        L$. . . . . . . . . . . . . . . . . . . . . . . . . . . . . . . . . . . . . . . . . . . . . . . . . . . . . . . . . . . . . . . . . . . . . . . . . . . . . . . . . . . . . . . . . . . . . . . . . . . . . . . . . . . . . . . . . . . . . . . . . . . . . . . . . . . . . . . y$e$e$e$e$e$e$e$e$e$e$e$e$e$e$e$e$e$e$e$e$e$e$e$e$e$e$e$e$e$e$n$. . . . . . . . . . . . . . . . . . . . . . . . . . . . . . . . . . . . . . . . . . . . . . . . . . . . . . . . . . . . . . . . . . . . . . . . . . . . . . . . . . . . . . . . . . . . . . . . . . . . . . . . . . . . . . . . . . . . . . . . . . . . . . . . . . . . . . . . . . . . . . . . . . . . . . . . . . . . . . . . . . . . . M$                                                                                                                                                                                                                                            ",
"                                                        N$. . . . . . . . . . . . . . . . . . . . . . . . . . . . . . . . . . . . . . . . . . . . . . . . . . . . . . . . . . . . . . . . . . . . . . . . . . . . . . . . . . . . . . . . . . . . . . . . . . . . . . . . . . . . . . . . . . . . . . . . . . . . . . . . . . . . . . O$e$e$e$e$e$e$e$e$e$e$e$e$e$e$e$e$e$e$e$e$e$e$e$e$e$e$e$e$e$e$e$e$P$. . . . . . . . . . . . . . . . . . . . . . . . . . . . . . . . . . . . . . . . . . . . . . . . . . . . . . . . . . . . . . . . . . . . . . . . . . . . . . . . . . . . . . . . . . . . . . . . . . . . . . . . . . . . . . . . . . . . . . . . . . . . . . . . . . . . . . . . . . . . . . . . . . . . . . . . . . . . . . . . . . . 0$Q$                                                                                                                                                                                                                                            ",
"                                                        G$R$. . . . . . . . . . . . . . . . . . . . . . . . . . . . . . . . . . . . . . . . . . . . . . . . . . . . . . . . . . . . . . . . . . . . . . . . . . . . . . . . . . . . . . . . . . . . . . . . . . . . . . . . . . . . . . . . . . . . . . . . . . . . . . . . . . . . .$S$e$e$e$e$e$e$e$e$e$e$e$e$e$e$e$e$e$e$e$e$e$e$e$e$e$e$e$e$e$e$e$e$s$o$. . . . . . . . . . . . . . . . . . . . . . . . . . . . . . . . . . . . . . . . . . . . . . . . . . . . . . . . . . . . . . . . . . . . . . . . . . . . . . . . . . . . . . . . . . . . . . . . . . . . . . . . . . . . . . . . . . . . . . . . . . . . . . . . . . . . . . . . . . . . . . . . . . . . . . . . . . . . . . . . . . T$                                                                                                                                                                                                                                              ",
"                                                          `#. . . . . . . . . . . . . . . . . . . . . . . . . . . . . . . . . . . . . . . . . . . . . . . . . . . . . . . . . . . . . . . . . . . . . . . . . . . . . . . . . . . . . . . . . . . . . . . . . . . . . . . . . . . . . . . . . . . . . . . . . . . . . . . . . . . . l$e$e$e$e$e$e$e$e$e$e$e$e$U$V$W$X$Y$Y$X$W$Z$U$e$e$e$e$e$e$e$e$e$e$e$e$`$. . . . . . . . . . . . . . . . . . . . . . . . . . . . . . . . . . . . . . . . . . . . . . . . . . . . . . . . . . . . . . . . . . . . . . . . . . . . . . . . . . . . . . . . . . . . . . . . . . . . . . . . . . . . . . . . . . . . . . . . . . . . . . . . . . . . . . . . . . . . . . . . . . . . . . . . . . . . . . . . .  %                                                                                                                                                                                                                                                ",
"                                                          .%. . . . . . . . . . . . . . . . . . . . . . . . . . . . . . . . . . . . . . . . . . . . . . . . . . . . . . . . . . . . . . . . . . . . . . . . . . . . . . . . . . . . . . . . . . . . . . . . . . . . . . . . . . . . . . . . . . . . . . . . . . . . . . . . . . . h$m$e$e$e$e$e$e$e$e$e$e$e$+%@%)+)+)+)+)+)+)+)+#%$%e$e$e$e$e$e$e$e$e$e$e$m$%%. . . . . . . . . . . . . . . . . . . . . . . . . . . . . . . . . . . . . . . . . . . . . . . . . . . . . . . . . . . . . . . . . . . . . . . . . . . . . . . . . . . . . . . . . . . . . . . . . . . . . . . . . . . . . . . . . . . . . . . . . . . . . . . . . . . . . . . . . . . . . . . . . . . . . . . . . . . . . . . &%*%                                                                                                                                                                                                                                                ",
"                                                          =%-%. . . . . . . . . . . . . . . . . . . . . . . . . . . . . . . . . . . . . . . . . . . . . . . . . . . . . . . . . . . . . . . . . . . . . . . . . . . . . . . . . . . . . . . . . . . . . . . . . . . . . . . . . . . . . . . . . . . . . . . . . . . . . . . . . . c$e$e$e$e$e$e$e$e$e$e$;%>%)+)+)+)+)+)+)+)+)+)+)+)+,%'%e$e$e$e$e$e$e$e$e$e$g$. . . . . . . . . . . . . . . . . . . . . . . . . . . . . . . . . . . . . . . . . . . . . . . . . . . . . . . . . . . . . . . . . . . . . . . . . . . . . . . . . . . . . . . . . . . . . . . . . . . . . . . . . . . . . . . . . . . . . . . . . . . . . . . . . . . . . . . . . . . . . . . . . . . . . . . . . . . . . . . )%                                                                                                                                                                                                                                                  ",
"                                                            !%. . . . . . . . . . . . . . . . . . . . . . . . . . . . . . . . . . . . . . . . . . . . . . . . . . . . . . . . . . . . . . . . . . . . . . . . . . . . . . . . . . . . . . . . . . . . . . . . . . . . . . . . . . . . . . . . . . . . . . . . . . . . . . . . . 9$f$e$e$e$e$e$e$e$e$e$e$>%)+)+)+)+)+)+)+)+)+)+)+)+)+)+~%e$e$e$e$e$e$e$e$e$e$d$|$. . . . . . . . . . . . . . . . . . . . . . . . . . . . . . . . . . . . . . . . . . . . . . . . . . . . . . . . . . . . . . . . . . . . . . . . . . . . . . . . . . . . . . . . . . . . . . . . . . . . . . . . . . . . . . . . . . . . . . . . . . . . . . . . . . . . . . . . . . . . . . . . . . . . . . . . . . . . . {%                                                                                                                                                                                                                                                    ",
"                                                            ]%. . . . . . . . . . . . . . . . . . . . . . . . . . . . . . . . . . . . . . . . . . . . . . . . . . . . . . . . . . . . . . . . . . . . . . . . . . . . . . . . . . . . . . . . . . . . . . . . . . . . . . . . . . . . . . . . . . . . . . . . . . . . . . . . . 1$e$e$e$e$e$e$e$e$e$e$+%)+)+)+)+)+)+)+)+)+)+)+)+)+)+)+)+^%e$e$e$e$e$e$e$e$e$e$/%. . . . . . . . . . . . . . . . . . . . . . . . . . . . . . . . . . . . . . . . . . . . . . . . . . . . . . . . . . . . . . . . . . . . . . . . . . . . . . . . . . . . . . . . . . . . . . . . . . . . . . . . . . . . . . . . . . . . . . . . . . . . . . . . . . . . . . . . . . . . . . . . . . . . . . . . . . . . }$(%                                                                                                                                                                                                                                                    ",
"                                                              _%. . . . . . . . . . . . . . . . . . . . . . . . . . . . . . . . . . . . . . . . . . . . . . . . . . . . . . . . . . . . . . . . . . . . . . . . . . . . . . . . . . . . . . . . . . . . . . . . . . . . . . . . . . . . . . . . . . . . . . . . . . . . . . . . 2$e$e$e$e$e$e$e$e$e$U$#%)+)+)+)+)+)+)+)+)+)+)+)+)+)+)+)+:%U$e$e$e$e$e$e$e$e$e$<%. . . . . . . . . . . . . . . . . . . . . . . . . . . . . . . . . . . . . . . . . . . . . . . . . . . . . . . . . . . . . . . . . . . . . . . . . . . . . . . . . . . . . . . . . . . . . . . . . . . . . . . . . . . . . . . . . . . . . . . . . . . . . . . . . . . . . . . . . . . . . . . . . . . . . . . . . . . O#[%                                                                                                                                                                                                                                                      ",
"                                                              }%. . . . . . . . . . . . . . . . . . . . . . . . . . . . . . . . . . . . . . . . . . . . . . . . . . . . . . . . . . . . . . . . . . . . . . . . . . . . . . . . . . . . . . . . . . . . . . . . . . . . . . . . . . . . . . . . . . . . . . . . . . . . . . . . |%e$e$e$e$e$e$e$e$e$V$)+)+)+)+)+)+)+)+)+)+)+)+)+)+)+)+)+)+1%e$e$e$e$e$e$e$e$e$2%. . . . . . . . . . . . . . . . . . . . . . . . . . . . . . . . . . . . . . . . . . . . . . . . . . . . . . . . . . . . . . . . . . . . . . . . . . . . . . . . . . . . . . . . . . . . . . . . . . . . . . . . . . . . . . . . . . . . . . . . . . . . . . . . . . . . . . . . . . . . . . . . . . . . . . . . . . . 3%                                                                                                                                                                                                                                                        ",
"                                                              4%5%. . . . . . . . . . . . . . . . . . . . . . . . . . . . . . . . . . . . . . . . . . . . . . . . . . . . . . . . . . . . . . . . . . . . . . . . . . . . . . . . . . . . . . . . . . . . . . . . . . . . . . . . . . . . . . . . . . . . . . . . . . . . . . . 7$e$e$e$e$e$e$e$e$e$6%)+)+)+)+)+)+)+)+)+)+)+)+)+)+)+)+)+)+7%e$e$e$e$e$e$e$e$e$8%. . . . . . . . . . . . . . . . . . . . . . . . . . . . . . . . . . . . . . . . . . . . . . . . . . . . . . . . . . . . . . . . . . . . . . . . . . . . . . . . . . . . . . . . . . . . . . . . . . . . . . . . . . . . . . . . . . . . . . . . . . . . . . . . . . . . . . . . . . . . . . . . . . . . . . . . . . 9%N                                                                                                                                                                                                                                                         ",
"                                                                0%. . . . . . . . . . . . . . . . . . . . . . . . . . . . . . . . . . . . . . . . . . . . . . . . . . . . . . . . . . . . . . . . . . . . . . . . . . . . . . . . . . . . . . . . . . . . . . . . . . . . . . . . . . . . . . . . . . . . . . . . . . . . . . . s$e$e$e$e$e$e$e$e$e$a%)+)+)+)+)+)+)+)+)+)+)+)+)+)+)+)+)+)+X$e$e$e$e$e$e$e$e$e$S$. . . . . . . . . . . . . . . . . . . . . . . . . . . . . . . . . . . . . . . . . . . . . . . . . . . . . . . . . . . . . . . . . . . . . . . . . . . . . . . . . . . . . . . . . . . . . . . . . . . . . . . . . . . . . . . . . . . . . . . . . . . . . . . . . . . . . . . . . . . . . . . . . . . . . . . . . 0$b%                                                                                                                                                                                                                                                          ",
"                                                                c%I$. . . . . . . . . . . . . . . . . . . . . . . . . . . . . . . . . . . . . . . . . . . . . . . . . . . . . . . . . . . . . . . . . . . . . . . . . . . . . . . . . . . . . . . . . . . . . . . . . . . . . . . . . . . . . . . . . . . . . . . . . . . . . . m$e$e$e$e$e$e$e$e$e$d%)+)+)+)+)+)+)+)+)+)+)+)+)+)+)+)+)+)+d%e$e$e$e$e$e$e$e$e$e%. . . . . . . . . . . . . . . . . . . . . . . . . . . . . . . . . . . . . . . . . . . . . . . . . . . . . . . . . . . . . . . . . . . . . . . . . . . . . . . . . . . . . . . . . . . . . . . . . . . . . . . . . . . . . . . . . . . . . . . . . . . . . . . . . . . . . . . . . . . . . . . . . . . . . . . . . f%                                                                                                                                                                                                                                                            ",
"                                                                  g%. . . . . . . . . . . . . . . . . . . . . . . . . . . . . . . . . . . . . . . . . . . . . . . . . . . . . . . . . . . . . . . . . . . . . . . . . . . . . . . . . . . . . . . . . . . . . . . . . . . . . . . . . . . . . . . . . . . . . . . . . . . . . . m$e$e$e$e$e$e$e$e$e$d%)+)+)+)+)+)+)+)+)+)+)+)+)+)+)+)+)+)+h%e$e$e$e$e$e$e$e$e$e%. . . . . . . . . . . . . . . . . . . . . . . . . . . . . . . . . . . . . . . . . . . . . . . . . . . . . . . . . . . . . . . . . . . . . . . . . . . . . . . . . . . . . . . . . . . . . . . . . . . . . . . . . . . . . . . . . . . . . . . . . . . . . . . . . . . . . . . . . . . . . . . . . . . . . . . . i%                                                                                                                                                                                                                                                              ",
"                                                                   $. . . . . . . . . . . . . . . . . . . . . . . . . . . . . . . . . . . . . . . . . . . . . . . . . . . . . . . . . . . . . . . . . . . . . . . . . . . . . . . . . . . . . . . . . . . . . . . . . . . . . . . . . . . . . . . . . . . . . . . . . . . . . . s$e$e$e$e$e$e$e$e$e$j%)+)+)+)+)+)+)+)+)+)+)+)+)+)+)+)+)+)+k%e$e$e$e$e$e$e$e$e$S$. . . . . . . . . . . . . . . . . . . . . . . . . . . . . . . . . . . . . . . . . . . . . . . . . . . . . . . . . . . . . . . . . . . . . . . . . . . . . . . . . . . . . . . . . . . . . . . . . . . . . . . . . . . . . . . . . . . . . . . . . . . . . . . . . . . . . . . . . . . . . . . . . . . . . . . l%N                                                                                                                                                                                                                                                               ",
"                                                                    m%. . . . . . . . . . . . . . . . . . . . . . . . . . . . . . . . . . . . . . . . . . . . . . . . . . . . . . . . . . . . . . . . . . . . . . . . . . . . . . . . . . . . . . . . . . . . . . . . . . . . . . . . . . . . . . . . . . . . . . . . . . . . . 7$e$e$e$e$e$e$e$e$e$n%)+)+)+)+)+)+)+)+)+)+)+)+)+)+)+)+)+)+o%e$e$e$e$e$e$e$e$e$8%. . . . . . . . . . . . . . . . . . . . . . . . . . . . . . . . . . . . . . . . . . . . . . . . . . . . . . . . . . . . . . . . . . . . . . . . . . . . . . . . . . . . . . . . . . . . . . . . . . . . . . . . . . . . . . . . . . . . . . . . . . . . . . . . . . . . . . . . . . . . . . . . . . . . . . 0$p%                                                                                                                                                                                                                                                                ",
"                                                                    q%. . . . . . . . . . . . . . . . . . . . . . . . . . . . . . . . . . . . . . . . . . . . . . . . . . . . . . . . . . . . . . . . . . . . . . . . . . . . . . . . . . . . . . . . . . . . . . . . . . . . . . . . . . . . . . . . . . . . . . . . . . . . . |%e$e$e$e$e$e$e$e$e$Z$)+)+)+)+)+)+)+)+)+)+)+)+)+)+)+)+)+)+r%e$e$e$e$e$e$e$e$e$2%. . . . . . . . . . . . . . . . . . . . . . . . . . . . . . . . . . . . . . . . . . . . . . . . . . . . . . . . . . . . . . . . . . . . . . . . . . . . . . . . . . . . . . . . . . . . . . . . . . . . . . . . . . . . . . . . . . . . . . . . . . . . . . . . . . . . . . . . . . . . . . . . . . . . . T#s%                                                                                                                                                                                                                                                                  ",
"                                                                      t%. . . . . . . . . . . . . . . . . . . . . . . . . . . . . . . . . . . . . . . . . . . . . . . . . . . . . . . . . . . . . . . . . . . . . . . . . . . . . . . . . . . . . . . . . . . . . . . . . . . . . . . . . . . . . . . . . . . . . . . . . . . . 2$e$e$e$e$e$e$e$e$e$u%v%)+)+)+)+)+)+)+)+)+)+)+)+)+)+)+)+@%U$e$e$e$e$e$e$e$e$e$w%. . . . . . . . . . . . . . . . . . . . . . . . . . . . . . . . . . . . . . . . . . . . . . . . . . . . . . . . . . . . . . . . . . . . . . . . . . . . . . . . . . . . . . . . . . . . . . . . . . . . . . . . . . . . . . . . . . . . . . . . . . . . . . . . . . . . . . . . . . . . . . . . . . . . . x%                                                                                                                                                                                                                                                                    ",
"                                                                      y%. . . . . . . . . . . . . . . . . . . . . . . . . . . . . . . . . . . . . . . . . . . . . . . . . . . . . . . . . . . . . . . . . . . . . . . . . . . . . . . . . . . . . . . . . . . . . . . . . . . . . . . . . . . . . . . . . . . . . . . . . . . . 8$e$e$e$e$e$e$e$e$e$e$$%)+)+)+)+)+)+)+)+)+)+)+)+)+)+)+z%A%e$e$e$e$e$e$e$e$e$e$B%. . . . . . . . . . . . . . . . . . . . . . . . . . . . . . . . . . . . . . . . . . . . . . . . . . . . . . . . . . . . . . . . . . . . . . . . . . . . . . . . . . . . . . . . . . . . . . . . . . . . . . . . . . . . . . . . . . . . . . . . . . . . . . . . . . . . . . . . . . . . . . . . . . . . [$                                                                                                                                                                                                                                                                      ",
"                                                                        C%. . . . . . . . . . . . . . . . . . . . . . . . . . . . . . . . . . . . . . . . . . . . . . . . . . . . . . . . . . . . . . . . . . . . . . . . . . . . . . . . . . . . . . . . . . . . . . . . . . . . . . . . . . . . . . . . . . . . . . . . . . . 9$D%e$e$e$e$e$e$e$e$e$e$,%)+)+)+)+)+)+)+)+)+)+)+)+)+)+E%e$e$e$e$e$e$e$e$e$e$F%9$. . . . . . . . . . . . . . . . . . . . . . . . . . . . . . . . . . . . . . . . . . . . . . . . . . . . . . . . . . . . . . . . . . . . . . . . . . . . . . . . . . . . . . . . . . . . . . . . . . . . . . . . . . . . . . . . . . . . . . . . . . . . . . . . . . . . . . . . . . . . . . . . . . . G%H%                                                                                                                                                                                                                                                                      ",
"                                                                        I%. . . . . . . . . . . . . . . . . . . . . . . . . . . . . . . . . . . . . . . . . . . . . . . . . . . . . . . . . . . . . . . . . . . . . . . . . . . . . . . . . . . . . . . . . . . . . . . . . . . . . . . . . . . . . . . . . . . . . . . . . . . . g$e$e$e$e$e$e$e$e$e$e$'%~%)+)+)+)+)+)+)+)+)+)+)+z%J%'%e$e$e$e$e$e$e$e$e$e$K%. . . . . . . . . . . . . . . . . . . . . . . . . . . . . . . . . . . . . . . . . . . . . . . . . . . . . . . . . . . . . . . . . . . . . . . . . . . . . . . . . . . . . . . . . . . . . . . . . . . . . . . . . . . . . . . . . . . . . . . . . . . . . . . . . . . . . . . . . . . . . . . . . . . F$L%                                                                                                                                                                                                                                                                        ",
"                                                                          M%. . . . . . . . . . . . . . . . . . . . . . . . . . . . . . . . . . . . . . . . . . . . . . . . . . . . . . . . . . . . . . . . . . . . . . . . . . . . . . . . . . . . . . . . . . . . . . . . . . . . . . . . . . . . . . . . . . . . . . . . . . . h$m$e$e$e$e$e$e$e$e$e$e$e$^%v%)+)+)+)+)+)+)+)+a%N%e$e$e$e$e$e$e$e$e$e$e$e%O%. . . . . . . . . . . . . . . . . . . . . . . . . . . . . . . . . . . . . . . . . . . . . . . . . . . . . . . . . . . . . . . . . . . . . . . . . . . . . . . . . . . . . . . . . . . . . . . . . . . . . . . . . . . . . . . . . . . . . . . . . . . . . . . . . . . . . . . . . . . . . . . . . . R$P%                                                                                                                                                                                                                                                                          ",
"                                                                          Q%. . . . . . . . . . . . . . . . . . . . . . . . . . . . . . . . . . . . . . . . . . . . . . . . . . . . . . . . . . . . . . . . . . . . . . . . . . . . . . . . . . . . . . . . . . . . . . . . . . . . . . . . . . . . . . . . . . . . . . . . . . . . n$e$e$e$e$e$e$e$e$e$e$e$e$u%1%7%k%d%d%R%S%r%u%e$e$e$e$e$e$e$e$e$e$e$e$T%. . . . . . . . . . . . . . . . . . . . . . . . . . . . . . . . . . . . . . . . . . . . . . . . . . . . . . . . . . . . . . . . . . . . . . . . . . . . . . . . . . . . . . . . . . . . . . . . . . . . . . . . . . . . . . . . . . . . . . . . . . . . . . . . . . . . . . . . . . . . . . . . . . T#U%                                                                                                                                                                                                                                                                            ",
"                                                                            g%. . . . . . . . . . . . . . . . . . . . . . . . . . . . . . . . . . . . . . . . . . . . . . . . . . . . . . . . . . . . . . . . . . . . . . . . . . . . . . . . . . . . . . . . . . . . . . . . V%W%X%Y%Z%`% &.&+&. . . . . . . . . . . . . . . . . . ~$S$e$e$e$e$e$e$e$e$e$e$e$e$e$e$e$e$e$e$e$e$e$e$e$e$e$e$e$e$e$e$e$e$t$o$. . . . . . . . . . . . . . . . . . . . . . . . . . . . . . . . . . . . . . . . . . . . . . . . . . . . . . . . . . . . . . . . . . . . . . . . . . . . . . . . . . . . . . . . . . . . . . . . . . . . . . . . . . . . . . . . . . . . . . . . . . . . . . . . . . . . . . . . . . . . . . . . . . @&                                                                                                                                                                                                                                                                              ",
"                                                                            #&$&. . . . . . . . . . . . . . . . . . . . . . . . . . . . . . . . . . . . . . . . . . . . . . . . . . . . . . . . . . . . . . . . . . . . . . . . . . . . . . . . . . . . . . . . . . . . %&&&*&=&)+)+)+)+)+)+)+)+-&;&. . . . . . . . . . . . . . . . . u$e$e$e$e$e$e$e$e$e$e$e$e$e$e$e$e$e$e$e$e$e$e$e$e$e$e$e$e$e$e$e$e$>&. . . . . . . . . . . . . . . . . . . . . . . . . . . . . . . . . . . . . . . . . . . . . . . . . . . . . . . . . . . . . . . . . . . . . . . . . . . . . . . . . . . . . . . . . . . . . . . . . . . . . . . . . . . . . . . . . . . . . . . . . . . . . . . . . . . . . . . . . . . . . . . . . . ,&                                                                                                                                                                                                                                                                                ",
"                                                                              '&. . . . . . . . . . . . . . . . . . . . . . . . . . . . . . . . . . . . . . . . . . . . . . . . . . . . . . . . . . . . . . . . . . . . . . . . . . . . . . . . . . . . . . . . )&!&~&{&]&)+)+)+)+)+)+)+)+)+)+)+)+^&/&)&. . . . . . . . . . . . . . . . z$e$e$e$e$e$e$e$e$e$e$e$e$e$e$e$e$e$e$e$e$e$e$e$e$e$e$e$e$e$e$(&. . . . . . . . . . . . . . . . . . . . . . . . . . . . . . . . . . . . . . . . . . . . . . . . . . . . . . . . . . . . . . . . . . . . . . . . . . . . . . . . . . . . . . . . . . . . . . . . . . . . . . . . . . . . . . . . . . . . . . . . . . . . . . . . . . . . . . . . . . . . . . . . . . _&=                                                                                                                                                                                                                                                                                 ",
"                                                                              :&<&. . . . . . . . . . . . . . . . . . . . . . . . . . . . . . . . . . . . . . . . . . . . . . . . . . . . . . . . . . . . . . . . . . . . . . . . . . . . . . . . . . . )&[&}&|&1&)+)+)+)+)+)+)+)+)+)+)+)+)+)+)+)+)+)+2&. . . . . . . . . . . . . . . . |$3&e$e$e$e$e$e$e$e$e$e$e$e$e$e$e$e$e$e$e$e$e$e$e$e$e$e$e$e$4&5&. . . . . . . . . . . . . . . . . . . . . . . . . . . . . . . . . . . . . . . . . . . . . . . . . . . . . . . . . . . . . . . . . . . . . . . . . . . . . . . . . . . . . . . . . . . . . . . . . . . . . . . . . . . . . . . . . . . . . . . . . . . . . . . . . . . . . . . . . . . . . . . . . ($6&                                                                                                                                                                                                                                                                                  ",
"                                                                                7&. . . . . . . . . . . . . . . . . . . . . . . . . . . . . . . . . . . . . . . . . . . . . . . . . . . . . . . . . . . . . . . . . . . . . . . . . . . . . . . 8&9&/&0&a&)+)+)+)+)+)+)+)+)+)+)+)+)+)+)+)+)+)+)+)+)+)+)+b&. . . . . . . . . . . . . . . . C$E$e$e$e$e$e$e$e$e$e$e$e$e$e$e$e$e$e$e$e$e$e$e$e$e$e$e$c&C$. . . . . . . . . . . . . . . . . . . . . . . . . . . . . . . . . . . . . . . . . . . . . . . . . . . . . . . . . . . . . . . . . . . . . . . . . . . . . . . . . . . . . . . . . . . . . . . . . . . . . . . . . . . . . . . . . . . . . . . . . . . . . . . . . . . . . . . . . . . . . . . . . d&e&                                                                                                                                                                                                                                                                                    ",
"                                                                                > f&. . . . . . . . . . . . . . . . . . . . . . . . . . . . . . . . . . . . . . . . . . . . . . . . . . . . . . . . . . . . . . . . . . . . . . . . )&g&h&i&j&k&)+)+)+)+)+)+)+)+)+)+)+)+)+)+)+)+)+)+)+)+)+)+)+)+)+)+)+)+l&m&. . . . . . . . . . . . . . . . x$n$e$e$e$e$e$e$e$e$e$e$e$e$e$e$e$e$e$e$e$e$e$e$e$e$(&5&. . . . . . . . . . . . . . . . . . . . . . . . . . . . . . . . . . . . . . . . . . . . . . . . . . . . . . . . . . . . . . . . . . . . . . . . . . . . . . . . . . . . . . . . . . . . . . . . . . . . . . . . . . . . . . . . . . . . . . . . . . . . . . . . . . . . . . . . . . . . . . . . . n&o&                                                                                                                                                                                                                                                                                      ",
"                                                                                  p&I$. . . . . . . . . . . . . . . . . . . . . . . . . . . . . . . . . . . . . . . . . . . . . . . . . . . . . . . . . . . . . . . . . q&+&r&s&t&u&v&)+)+)+)+)+)+)+)+)+)+)+)+)+)+)+)+)+)+)+)+)+)+)+)+)+)+)+)+)+)+)+)+)+)+w&. . . . . . . . . . . . . . . . . . P$S$e$e$e$e$e$e$e$e$e$e$e$e$e$e$e$e$e$e$e$e$x&>&. . . . . . . . . . . . . . . . . . . . . . . . . . . . . . . . . . . . . . . . . . . . . . . . . . . . . . . . . . . . . . . . . . . . . . . . . . . . . . . . . . . . . . . . . . . . . . . . . . . . . . . . . . . . . . . . . . . . . . . . . . . . . . . . . . . . . . . . . . . . . . . . . . 5%y&                                                                                                                                                                                                                                                                                        ",
"                                                                                    z&. . . . . . . . . . . . . . . . . . . . . . . . . . . . . . . . . . . . . . . . . . . . . . . . . . . . . . . . )&A&!&B&}&C&D&E&F&)+)+)+)+)+)+)+)+)+)+)+)+)+)+)+)+)+)+)+)+)+)+)+)+)+)+)+)+)+)+)+)+)+)+)+)+)+)+)+)+)+G&. . . . . . . . . . . . . . . . . . . .$`$e%e$e$e$e$e$e$e$e$e$e$e$e$e$e$e$e$e%T%~$. . . . . . . . . . . . . . . . . . . . . . . . . . . . . . . . . . . . . . . . . . . . . . . . . . . . . . . . . . . . . . . . . . . . . . . . . . . . . . . . . . . . . . . . . . . . . . . . . . . . . . . . . . . . . . . . . . . . . . . . . . . . . . . . . . . . . . . . . . . . . . . . . . &%H&                                                                                                                                                                                                                                                                                          ",
"                                                                                    I&J&. . . . . . . . . . . . . . . . . . . . . . . . . . . . . . . . . . . . . . . . . . . . . K&L&M&B&N&O&P&j&Q&R&S&)+)+)+)+)+)+)+)+)+)+)+)+)+)+)+)+)+)+)+)+)+)+)+)+)+)+)+)+)+)+)+)+)+)+)+)+)+)+)+)+)+)+)+)+)+)+)+)+)+l&. . . . . . . . . . . . . . . . . . . . . O%g$D%e$e$e$e$e$e$e$e$e$e$e$e$D%K%O%. . . . . . . . . . . . . . . . . . . . . . . . . . . . . . . . . . . . . . . . . . . . . . . . . . . . . . . . . . . . . . . . . . . . . . . . . . . . . . . . . . . . . . . . . . . . . . . . . . . . . . . . . . . . . . . . . . . . . . . . . . . . . . . . . . . . . . . . . . . . . . . . . . . R$v$                                                                                                                                                                                                                                                                                            ",
"                                                                                      T&T#. . . . . . . . . . . . . . . . . . . . . . . . . . . q&U&g&V&+&W&b&X&Y&/&Z&`& *-&.*+*v&)+)+)+)+)+)+)+)+)+)+)+)+)+)+)+)+)+)+)+)+)+)+)+)+)+)+)+)+)+)+)+)+)+)+)+)+)+)+)+)+)+)+)+)+)+)+)+)+)+)+)+)+)+)+)+)+)+)+)+)+v&)&. . . . . . . . . . . . . . . . . . . . . . 9$/%<%2%8%s$m$m$s$@*2%w%B%9$. . . . . . . . . . . . . . . . . . . . . . . . . . . . . . . . . . . . . . . . . . . . . . . . . . . . . . . . . . . . . . . . . . . . . . . . . . . . . . . . . . . . . . . . . . . . . . . . . . . . . . . . . . . . . . . . . . . . . . . . . . . . . . . . . . . . . . . . . . . . . . . . . . . . #*$*                                                                                                                                                                                                                                                                                              ",
"                                                                                        %*&***=*-*;*2&>*>*>*>*>*,*'*'*)**&*&!*~*~*-&{*]*^*/*1@)+)+)+)+)+)+)+)+)+)+)+)+)+)+)+)+)+)+)+)+)+)+)+)+)+)+)+)+)+)+)+)+)+)+)+)+)+)+)+)+)+)+)+)+)+)+)+)+)+)+)+)+)+)+)+)+)+)+)+)+)+)+)+)+)+)+)+)+)+)+)+)+)+)+)+)+)+)+^&)&. . . . . . . . . . . . . . . . . . . . . . . . . . . . . . . . . . . . . . . . . . . . . . . . . . . . . . . . . . . . . . . . . . . . . . . . . . . . . . . . . . . . . . . . . . . . . . . . . . . . . . . . . . . . . . . . . . . . . . . . . . . . . . . . . . . . . . . . . . . . . . . . . . . . . . . . . . . . . . . . . . . . . . . . . . . . . . . . . . . . . . . #*!$                                                                                                                                                                                                                                                                                                ",
"                                                                                        (*_*)+)+)+)+)+)+)+)+)+)+)+)+)+)+)+)+)+)+)+)+)+)+)+)+)+)+)+)+)+)+)+)+)+)+)+)+)+)+)+)+)+)+)+)+)+)+)+)+)+)+)+)+)+)+)+)+)+)+)+)+)+)+)+)+)+)+)+)+)+)+)+)+)+)+)+)+)+)+)+)+)+)+)+)+)+)+)+)+)+)+)+)+)+)+)+)+)+)+)+)+)+)+)+/*. . . . . . . . . . . . . . . . . . . . . . . . . . . . . . . . . . . . . . . . . . . . . . . . . . . . . . . . . . . . . . . . . . . . . . . . . . . . . . . . . . . . . . . . . . . . . . . . . . . . . . . . . . . . . . . . . . . . . . . . . . . . . . . . . . . . . . . . . . . . . . . . . . . . . . . . . . . . . . . . . . . . . . . . . . . . . . . . . . . . . . . O#:*                                                                                                                                                                                                                                                                                                  ",
"                                                                                          <*[*)+)+)+)+)+)+)+)+)+)+)+)+)+)+)+)+)+)+)+)+)+)+)+)+)+)+)+)+)+)+)+)+)+)+)+)+)+)+)+)+)+)+)+)+)+)+)+)+)+)+)+)+)+)+)+)+)+)+)+)+)+)+)+)+)+)+)+)+)+)+)+)+)+)+)+)+)+)+)+)+)+)+)+)+)+)+)+)+)+)+)+)+)+)+)+)+)+)+)+)+)+)+}*. . . . . . . . . . . . . . . . . . . . . . . . . . . . . . . . . . . . . . . . . . . . . . . . . . . . . . . . . . . . . . . . . . . . . . . . . . . . . . . . . . . . . . . . . . . . . . . . . . . . . . . . . . . . . . . . . . . . . . . . . . . . . . . . . . . . . . . . . . . . . . . . . . . . . . . . . . . . . . . . . . . . . . . . . . . . . . . . . . . . . . $&|*                                                                                                                                                                                                                                                                                                    ",
"                                                                                            1*)+)+)+)+)+)+)+)+)+)+)+)+)+)+)+)+)+)+)+)+)+)+)+)+)+)+)+)+)+)+)+)+)+)+)+)+)+)+)+)+)+)+)+)+)+)+)+)+)+)+)+)+)+)+)+)+)+)+)+)+)+)+)+)+)+)+)+)+)+)+)+)+)+)+)+)+)+)+)+)+)+)+)+)+)+)+)+)+)+)+)+)+)+)+)+)+)+)+)+)+)+)+i&. . . . . . . . . . . . . . . . . . . . . . . . . . . . . . . . . . . . . . . . . . . . . . . . . . . . . . . . . . . . . . . . . . . . . . . . . . . . . . . . . . . . . . . . . . . . . . . . . . . . . . . . . . . . . . . . . . . . . . . . . . . . . . . . . . . . . . . . . . . . . . . . . . . . . . . . . . . . . . . . . . . . . . . . . . . . . . . . . . . . . $&2*                                                                                                                                                                                                                                                                                                      ",
"                                                                                            N 3*)+)+)+)+)+)+)+)+)+)+)+)+)+)+)+)+)+)+)+)+)+)+)+)+)+)+)+)+)+)+)+)+)+)+)+)+)+)+)+)+)+)+)+)+)+)+)+)+)+)+)+)+)+)+)+)+)+)+)+)+)+)+)+)+)+)+)+)+)+)+)+)+)+)+)+)+)+)+)+)+)+)+)+)+)+)+)+)+)+)+)+)+)+)+)+)+)+)+)+)+S&g&. . . . . . . . . . . . . . . . . . . . . . . . . . . . . . . . . . . . . . . . . . . . . . . . . . . . . . . . . . . . . . . . . . . . . . . . . . . . . . . . . . . . . . . . . . . . . . . . . . . . . . . . . . . . . . . . . . . . . . . . . . . . . . . . . . . . . . . . . . . . . . . . . . . . . . . . . . . . . . . . . . . . . . . . . . . . . . . . . . . . &%4*                                                                                                                                                                                                                                                                                                        ",
"                                                                                              5*6*)+)+)+)+)+)+)+)+)+)+)+)+)+)+)+)+)+)+)+)+)+)+)+)+)+)+)+)+)+)+)+)+)+)+)+)+)+)+)+)+)+)+)+)+)+)+)+)+)+)+)+)+)+)+)+)+)+)+)+)+)+)+)+)+)+)+)+)+)+)+)+)+)+)+)+)+)+)+)+)+)+)+)+)+)+)+)+)+)+)+)+)+)+)+)+)+)+)+)+'*. . . . . . . . . . . . . . . . . . . . . . . . . . . . . . . . . . . . . . . . . . . . . . . . . . . . . . . . . . . . . . . . . . . . . . . . . . . . . . . . . . . . . . . . . . . . . . . . . . . . . . . . . . . . . . . . . . . . . . . . . . . . . . . . . . . . . . . . . . . . . . . . . . . . . . . . . . . . . . . . . . . . . . . . . . . . . . . . . . . . 7*8*                                                                                                                                                                                                                                                                                                          ",
"                                                                                                9*0*)+)+)+)+)+)+)+)+)+)+)+)+)+)+)+)+)+)+)+)+)+)+)+)+)+)+)+)+)+)+)+)+)+)+)+)+)+)+)+)+)+)+)+)+)+)+)+)+)+)+)+)+)+)+)+)+)+)+)+)+)+)+)+)+)+)+)+)+)+)+)+)+)+)+)+)+)+)+)+)+)+)+)+)+)+)+)+)+)+)+)+)+)+)+)+)+)+a*q&. . . . . . . . . . . . . . . . . . . . . . . . . . . . . . . . . . . . . . . . . . . . . . . . . . . . . . . . . . . . . . . . . . . . . . . . . . . . . . . . . . . . . . . . . . . . . . . . . . . . . . . . . . . . . . . . . . . . . . . . . . . . . . . . . . . . . . . . . . . . . . . . . . . . . . . . . . . . . . . . . . . . . . . . . . . . . . . . . . . b*P#                                                                                                                                                                                                                                                                                                            ",
"                                                                                                  c*)+)+)+)+)+)+)+)+)+)+)+)+)+)+)+)+)+)+)+)+)+)+)+)+)+)+)+)+)+)+)+)+)+)+)+)+)+)+)+)+)+)+)+)+)+)+)+)+)+)+)+)+)+)+)+)+)+)+)+)+)+)+)+)+)+)+)+)+)+)+)+)+)+)+)+)+)+)+)+)+)+)+)+)+)+)+)+)+)+)+)+)+)+)+)+)+{*d*. . . . . . . . . . . . . . . . . . . . . . . . . . . . . . . . . . . . . . . . . . . . . . . . . . . . . . . . . . . . . . . . . . . . . . . . . . . . . . . . . . . . . . . . . . . . . . . . . . . . . . . . . . . . . . . . . . . . . . . . . . . . . . . . . . . . . . . . . . . . . . . . . . . . . . . . . . . . . . . . . . . . . . . . . . . . . . . . . . . e*f*                                                                                                                                                                                                                                                                                                              ",
"                                                                                                  g*h*)+)+)+)+)+)+)+)+)+)+)+)+)+)+)+)+)+)+)+)+)+)+)+)+)+)+)+)+)+)+)+)+)+)+)+)+)+)+)+)+)+)+)+)+)+)+)+)+)+)+)+)+)+)+)+)+)+)+)+)+)+)+)+)+)+)+)+)+)+)+)+)+)+)+)+)+)+)+)+)+)+)+)+)+)+)+)+)+)+)+)+)+)+1&/&K&. . . . . . . . . . . . . . . . . . . . . . . . . . . . . . . . . . . . . . . . . . . . . . . . . . . . . . . . . . . . . . . . . . . . . . . . . . . . . . . . . . . . . . . . . . . . . . . . . . . . . . . . . . . . . . . . . . . . . . . . . . . . . . . . . . . . . . . . . . . . . . . . . . . . . . . . . . . . . . . . . . . . . . . . . . . . . . . . . . . M%i*                                                                                                                                                                                                                                                                                                                ",
"                                                                                                    j*k*)+)+)+)+)+)+)+)+)+)+)+)+)+)+)+)+)+)+)+)+)+)+)+)+)+)+)+)+)+)+)+)+)+)+)+)+)+)+)+)+)+)+)+)+)+)+)+)+)+)+)+)+)+)+)+)+)+)+)+)+)+)+)+)+)+)+)+)+)+)+)+)+)+)+)+)+)+)+)+)+)+)+)+)+)+)+)+)+)+l*m*n*o*. . . . . . . . . . . . . . . . . . . . . . . . . . . . . . . . . . . . . . . . . . . . . . . . . . . . . . . . . . . . . . . . . . . . . . . . . . . . . . . . . . . . . . . . . . . . . . . . . . . . . . . . . . . . . . . . . . . . . . . . . . . . . . . . . . . . . . . . . . . . . . . . . . . . . . . . . . . . . . . . . . . . . . . . . . . . . . . . . . . . @$p*                                                                                                                                                                                                                                                                                                                  ",
"                                                                                                      q*r*)+)+)+)+)+)+)+)+)+)+)+)+)+)+)+)+)+)+)+)+)+)+)+)+)+)+)+)+)+)+)+)+)+)+)+)+)+)+)+)+)+)+)+)+)+)+)+)+)+)+)+)+)+)+)+)+)+)+)+)+)+)+)+)+)+)+)+)+)+)+)+)+)+)+)+)+)+)+)+)+)+)+)+)+s*t*u*v*w*w*w*x*. . . . . . . . . . . . . . . . . . . . . . . . . . . . . . . . . . . . . . . . . . . . . . . . . . . . . . . . . . . . . . . . . . . . . . . . . . . . . . . . . . . . . . . . . . . . . . . . . . . . . . . . . . . . . . . . . . . . . . . . . . . . . . . . . . . . . . . . . . . . . . . . . . . . . . . . . . . . . . . . . . . . . . . . . . . . . . . . . . . y*                                                                                                                                                                                                                                                                                                                      ",
"                                                                                                        z*A*)+)+)+)+)+)+)+)+)+)+)+)+)+)+)+)+)+)+)+)+)+)+)+)+)+)+)+)+)+)+)+)+)+)+)+)+)+)+)+)+)+)+)+)+)+)+)+)+)+)+)+)+)+)+)+)+)+)+)+)+)+)+)+)+)+)+)+)+)+)+)+)+)+)+)+)+)+)+)+B*C*D*E*F*w*w*w*w*w*w*G*H*. . . . . . . . . . . . . . . . . . . . . . . . . . . . . . . . . . . . . . . . . . . . . . . . . . . . . . . . . . . . . . . . . . . . . . . . . . . . . . . . . . . . . . . . . . . . . . . . . . . . . . . . . . . . . . . . . . . . . . . . . . . . . . . . . . . . . . . . . . . . . . . . . . . . . . . . . . . . . . . . . . . . . . . . . . . . . . . . O#I*                                                                                                                                                                                                                                                                                                                        ",
"                                                                                                          J*K*)+)+)+)+)+)+)+)+)+)+)+)+)+)+)+)+)+)+)+)+)+)+)+)+)+)+)+)+)+)+)+)+)+)+)+)+)+)+)+)+)+)+)+)+)+)+)+)+)+)+)+)+)+)+)+)+)+)+)+)+)+)+)+)+)+)+)+)+)+)+)+)+)+)+L*M*N*O*P*w*w*w*w*w*w*w*w*w*w*w*Q*. . . . . . . . . . . . . . . . . . . . . . . . . . . . . . . . . . . . . . . . . . . . . . . . . . . . . . . . . . . . . . . . . . . . . . . . . . . . . . . . . . . . . . . . . . . . . . . . . . . . . . . . . . . . . . . . . . . . . . . . . . . . . . . . . . . . . . . . . . . . . . . . . . . . . . . . . . . . . . . . . . . . . . . . . . . . . . . 0$R*                                                                                                                                                                                                                                                                                                                          ",
"                                                                                                            S*T*)+)+)+)+)+)+)+)+)+)+)+)+)+)+)+)+)+)+)+)+)+)+)+)+)+)+)+)+)+)+)+)+)+)+)+)+)+)+)+)+)+)+)+)+)+)+)+)+)+)+)+)+)+)+)+)+)+)+)+)+)+)+)+)+)+)+)+)+T*U*V*W*X*Y*w*w*w*w*w*w*w*w*w*w*w*w*w*w*w*Z*. . . . . . . . . . . . . . . . . . . . . . . . . . . . . . . . . . . . . . . . . . . . . . . . . . . . . . . . . . . . . . . . . . . . . . . . . . . . . . . . . . . . . . . . . . . . . . . . . . . . . . . . . . . . . . . . . . . . . . . . . . . . . . . . . . . . . . . . . . . . . . . . . . . . . . . . . . . . . . . . . . . . . . . . . . . . . . `* =                                                                                                                                                                                                                                                                                                                            ",
"                                                                                                              .=)+)+)+)+)+)+)+)+)+)+)+)+)+)+)+)+)+)+)+)+)+)+)+)+)+)+)+)+)+)+)+)+)+)+)+)+)+)+)+)+)+)+)+)+)+)+)+)+)+)+)+)+)+)+)+)+)+)+)+)+)+)+)+)++=t*N*E*@=w*w*w*w*w*w*w*w*w*w*w*w*w*w*w*w*w*w*w*w*#=$=. . . . . . . . . . . . . . . . . . . . . . . . . . . . . . . . . . . . . . . . . . . . . . . . . . . . . . . . . . . . . . . . . . . . . . . . . . . . . . . . . . . . . . . . . . . . . . . . . . . . . . . . . . . . . . . . . . . . . . . . . . . . . . . . . . . . . . . . . . . . . . . . . . . . . . . . . . . . . . . . . . . . . . . . . . . . /$%=                                                                                                                                                                                                                                                                                                                              ",
"                                                                                                              g*&=)+)+)+)+)+)+)+)+)+)+)+)+)+)+)+)+)+)+)+)+)+)+)+)+)+)+)+)+)+)+)+)+)+)+)+)+)+)+)+)+)+)+)+)+)+)+)+)+)+)+)+)+)+)+)+)+)+*===-=;=>=,=w*w*w*w*w*w*w*w*w*w*w*w*w*w*w*w*w*w*w*w*w*w*w*w*w*w*'=. . . . . . . . . . . . . . . . . . . . . . . . . . . . . . . . . . . . . . . . . . . . . . . . . . . . . . . . . . . . . . . . . . . . . . . . . . . . . . . . . . . . . . . . . . . . . . . . . . . . . . . . . . . . . . . . . . . . . . . . . . . . . . . . . . . . . . . . . . . . . . . . . . . . . . . . . . . . . . . . . . . . . . . . . . . )=N                                                                                                                                                                                                                                                                                                                                 ",
"                                                                                                                =%!=)+)+)+)+)+)+)+)+)+)+)+)+)+)+)+)+)+)+)+)+)+)+)+)+)+)+)+)+)+)+)+)+)+)+)+)+)+)+)+)+)+)+)+)+)+)+)+)+)+)+~={=]=^=/=(=w*w*w*w*w*w*w*w*w*w*w*w*w*w*w*w*w*w*w*w*w*w*w*w*w*w*w*w*w*w*w*w*_=. . . . . . . . . . . . . . . . . . . . . . . . . . . . . . . . . . . . . . . . . . . . . . . . . . . . . . . . . . . . . . . . . . . . . . . . . . . . . . . . . . . . . . . . . . . . . . . . . . . . . . . . . . . . . . . . . . . . . . . . . . . . . . . . . . . . . . . . . . . . . . . . . . . . . . . . . . . . . . . . . . . . . . . . . $&:=                                                                                                                                                                                                                                                                                                                                    ",
"                                                                                                                  2.<=)+)+)+)+)+)+)+)+)+)+)+)+)+)+)+)+)+)+)+)+)+)+)+)+)+)+)+)+)+)+)+)+)+)+)+)+)+)+)+)+)+)+[=C*}=D*W*E*|=Y*w*w*w*w*w*w*w*w*w*w*w*w*w*w*w*w*w*w*w*w*w*w*w*w*w*w*w*w*w*w*w*w*w*w*w*w*w*w*1=. . . . . . . . . . . . . . . . . . . . . . . . . . . . . . . . . . . . . . . . . . . . . . . . . . . . . . . . . . . . . . . . . . . . . . . . . . . . . . . . . . . . . . . . . . . . . . . . . . . . . . . . . . . . . . . . . . . . . . . . . . . . . . . . . . . . . . . . . . . . . . . . . . . . . . . . . . . . . . . . . . . . . . . 2=3=                                                                                                                                                                                                                                                                                                                                      ",
"                                                                                                                    q$4=)+)+)+)+)+)+)+)+)+)+)+)+)+)+)+)+)+)+)+)+)+)+)+)+)+)+)+)+)+)+)+5=U*6=7=8=9=0=a=v*b=w*w*w*w*w*w*w*w*w*w*w*w*w*w*w*w*w*w*w*w*w*w*w*w*w*w*w*w*w*w*w*w*w*w*w*w*w*w*w*w*w*w*w*w*w*w*c=. . . . . . . . . . . . . . . . . . . . . . . . . . . . . . . . . . . . . . . . . . . . . . . . . . . . . . . . . . . . . . . . . . . . . . . . . . . . . . . . . . . . . . . . . . . . . . . . . . . . . . . . . . . . . . . . . . . . . . . . . . . . . . . . . . . . . . . . . . . . . . . . . . . . . . . . . . . . . . . . . . . . . . d=e=                                                                                                                                                                                                                                                                                                                                        ",
"                                                                                                                      f=g=)+)+)+)+)+)+)+)+)+)+)+)+K*[=h=i=j=C*k=l=m=n=o=p=q=r=s=t=u=v=w*w*w*w*w*w*w*w*w*w*w*w*w*w*w*w*w*w*w*w*w*w*w*w*w*w*w*w*w*w*w*w*w*w*w*w*w*w*w*w*w*w*w*w*w*w*w*w*w*w*w*w*w*w*w*w*w=x=. . . . . . . . . . . . . . . . . . . . . . . . . . . . . . . . . . . . . . . . . . . . . . . . . . . . . . . . . . . . . . . . . . . . . . . . . . . . . . . . . . . . . . . . . . . . . . . . . . . . . . . . . . . . . . . . . . . . . . . . . . . . . . . . . . . . . . . . . . . . . . . . . . . . . . . . . . . . . . . . . . . y=z=                                                                                                                                                                                                                                                                                                                                            ",
"                                                                                                                        A=B=|=|=|=|=|=|=(=C=C=F*w*w*w*w*w*w*w*w*w*w*w*w*w*w*w*w*w*w*w*w*w*w*w*w*w*w*w*w*w*w*w*w*w*w*w*w*w*w*w*w*w*w*w*w*w*w*w*w*w*w*w*w*w*w*w*w*w*w*w*w*w*w*w*w*w*w*w*w*w*w*w*w*w*w*w*w*D=. . . . . . . . . . . . . . . . . . . . . . . . . . . . . . . . . . . . . . . . . . . . . . . . . . . . . . . . . . . . . . . . . . . . . . . . . . . . . . . . . . . . . . . . . . . . . . . . . . . . . . . . . . . . . . . . . . . . . . . . . . . . . . . . . . . . . . . . . . . . . . . . . . . . . . . . . . . . . . . . . . `*E=                                                                                                                                                                                                                                                                                                                                              ",
"                                                                                                                          , F=w*w*w*w*w*w*w*w*w*w*w*w*w*w*w*w*w*w*w*w*w*w*w*w*w*w*w*w*w*w*w*w*w*w*w*w*w*w*w*w*w*w*w*w*w*w*w*w*w*w*w*w*w*w*w*w*w*w*w*w*w*w*w*w*w*w*w*w*w*w*w*w*w*w*w*w*w*w*w*w*w*w*w*w*w*G=H=. . . . . . . . . . . . . . . . . . . . . . . . . . . . . . . . . . . . . . . . . . . . . . . . . . . . . . . . . . . . . . . . . . . . . . . . . . . . . . . . . . . . . . . . . . . . . . . . . . . . . . . . . . . . . . . . . . . . . . . . . . . . . . . . . . . . . . . . . . . . . . . . . . . . . . . . . . . . . . . . I=I&                                                                                                                                                                                                                                                                                                                                                ",
"                                                                                                                            g*J=K=w*w*w*w*w*w*w*w*w*w*w*w*w*w*w*w*w*w*w*w*w*w*w*w*w*w*w*w*w*w*w*w*w*w*w*w*w*w*w*w*w*w*w*w*w*w*w*w*w*w*w*w*w*w*w*w*w*w*w*w*w*w*w*w*w*w*w*w*w*w*w*w*w*w*w*w*w*w*w*w*w*w*w*w*L=. . . . . . . . . . . . . . . . . . . . . . . . . . . . . . . . . . . . . . . . . . . . . . . . . . . . . . . . . . . . . . . . . . . . . . . . . . . . . . . . . . . . . . . . . . . . . . . . . . . . . . . . . . . . . . . . . . . . . . . . . . . . . . . . . . . . . . . . . . . . . . . . . . . . . . . . . . . . . . 5%M=                                                                                                                                                                                                                                                                                                                                                    ",
"                                                                                                                                N=O=w*w*w*w*w*w*w*w*w*w*w*w*w*w*w*w*w*w*w*w*w*w*w*w*w*w*w*w*w*w*w*w*w*w*w*w*w*w*w*w*w*w*w*w*w*w*w*w*w*w*w*w*w*w*w*w*w*w*w*w*w*w*w*w*w*w*w*w*w*w*w*w*w*w*w*w*w*w*w*w*w*w*w*P=x=. . . . . . . . . . . . . . . . . . . . . . . . . . . . . . . . . . . . . . . . . . . . . . . . . . . . . . . . . . . . . . . . . . . . . . . . . . . . . . . . . . . . . . . . . . . . . . . . . . . . . . . . . . . . . . . . . . . . . . . . . . . . . . . . . . . . . . . . . . . . . . . . . . . . . . . . . . . . Q=R=                                                                                                                                                                                                                                                                                                                                                      ",
"                                                                                                                                  S=T=w*w*w*w*w*w*w*w*w*w*w*w*w*w*w*w*w*w*w*w*w*w*w*w*w*w*w*w*w*w*w*w*w*w*w*w*w*w*w*w*w*w*w*w*w*w*w*w*w*w*w*w*w*w*w*w*w*w*w*w*w*w*w*w*w*w*w*w*w*w*w*w*w*w*w*w*w*w*w*w*w*w*w*U=. . . . . . . . . . . . . . . . . . . . . . . . . . . . . . . . . . . . . . . . . . . . . . . . . . . . . . . . . . . . . . . . . . . . . . . . . . . . . . . . . . . . . . . . . . . . . . . . . . . . . . . . . . . . . . . . . . . . . . . . . . . . . . . . . . . . . . . . . . . . . . . . . . . . . . . . . . $&z=                                                                                                                                                                                                                                                                                                                                                          ",
"                                                                                                                                    V=W=w*w*w*w*w*w*w*w*w*w*w*w*w*w*w*w*w*w*w*w*w*w*w*w*w*w*w*w*w*w*w*w*w*w*w*w*w*w*w*w*w*w*w*w*w*w*w*w*w*w*w*w*w*w*w*w*w*w*w*w*w*w*w*w*w*w*w*w*w*w*w*w*w*w*w*w*w*w*w*w*w*w*X=Y=. . . . . . . . . . . . . . . . . . . . . . . . . . . . . . . . . . . . . . . . . . . . . . . . . . . . . . . . . . . . . . . . . . . . . . . . . . . . . . . . . . . . . . . . . . . . . . . . . . . . . . . . . . . . . . . . . . . . . . . . . . . . . . . . . . . . . . . . . . . . . . . . . . . . . . . . /$#&                                                                                                                                                                                                                                                                                                                                                            ",
"                                                                                                                                      Z=`=w*w*w*w*w*w*w*w*w*w*w*w*w*w*w*w*w*w*w*w*w*w*w*w*w*w*w*w*w*w*w*w*w*w*w*w*w*w*w*w*w*w*w*w*w*w*w*w*w*w*w*w*w*w*w*w*w*w*w*w*w*w*w*w*w*w*w*w*w*w*w*w*w*w*w*w*w*w*w*w*w*w* -H*. . . . . . . . . . . . . . . . . . . . . . . . . . . . . . . . . . . . . . . . . . . . . . . . . . . . . . . . . . . . . . . . . . . . . . . . . . . . . . . . . . . . . . . . . . . . . . . . . . . . . . . . . . . . . . . . . . . . . . . . . . . . . . . . . . . . . . . . . . . . . . . . . . . . . 0$.-                                                                                                                                                                                                                                                                                                                                                                ",
"                                                                                                                                        I&+-w*w*w*w*w*w*w*w*w*w*w*w*w*w*w*w*w*w*w*w*w*w*w*w*w*w*w*w*w*w*w*w*w*w*w*w*w*w*w*w*w*w*w*w*w*w*w*w*w*w*w*w*w*w*w*w*w*w*w*w*w*w*w*w*w*w*w*w*w*w*w*w*w*w*w*w*w*w*w*w*w*w*'=. . . . . . . . . . . . . . . . . . . . . . . . . . . . . . . . . . . . . . . . . . . . . . . . . . . . . . . . . . . . . . . . . . . . . . . . . . . . . . . . . . . . . . . . . . . . . . . . . . . . . . . . . . . . . . . . . . . . . . . . . . . . . . . . . . . . . . . . . . . . . . . . . . . . d=L%                                                                                                                                                                                                                                                                                                                                                                  ",
"                                                                                                                                            @-#-w*w*w*w*w*w*w*w*w*w*w*w*w*w*w*w*w*w*w*w*w*w*w*w*w*w*w*w*w*w*w*w*w*w*w*w*w*w*w*w*w*w*w*w*w*w*w*w*w*w*w*w*w*w*w*w*w*w*w*w*w*w*w*w*w*w*w*w*w*w*w*w*w*w*w*w*w*w*w*w*T=H=. . . . . . . . . . . . . . . . . . . . . . . . . . . . . . . . . . . . . . . . . . . . . . . . . . . . . . . . . . . . . . . . . . . . . . . . . . . . . . . . . . . . . . . . . . . . . . . . . . . . . . . . . . . . . . . . . . . . . . . . . . . . . . . . . . . . . . . . . . . . . . . . . $-%-                                                                                                                                                                                                                                                                                                                                                                      ",
"                                                                                                                                              &-*-w*w*w*w*w*w*w*w*w*w*w*w*w*w*w*w*w*w*w*w*w*w*w*w*w*w*w*w*w*w*w*w*w*w*w*w*w*w*w*w*w*w*w*w*w*w*w*w*w*w*w*w*w*w*w*w*w*w*w*w*w*w*w*w*w*w*w*w*w*w*w*w*w*w*w*w*w*w*w*w*=-. . . . . . . . . . . . . . . . . . . . . . . . . . . . . . . . . . . . . . . . . . . . . . . . . . . . . . . . . . . . . . . . . . . . . . . . . . . . . . . . . . . . . . . . . . . . . . . . . . . . . . . . . . . . . . . . . . . . . . . . . . . . . . . . . . . . . . . . . . . . . . . T#--E.                                                                                                                                                                                                                                                                                                                                                                        ",
"                                                                                                                                                ;->-K=w*w*w*w*w*w*w*w*w*w*w*w*w*w*w*w*w*w*w*w*w*w*w*w*w*w*w*w*w*w*w*w*w*w*w*w*w*w*w*w*w*w*w*w*w*w*w*w*w*w*w*w*w*w*w*w*w*w*w*w*w*w*w*w*w*w*w*w*w*w*w*w*w*w*w*w*w*w*w*,-. . . . . . . . . . . . . . . . . . . . . . . . . . . . . . . . . . . . . . . . . . . . . . . . . . . . . . . . . . . . . . . . . . . . . . . . . . . . . . . . . . . . . . . . . . . . . . . . . . . . . . . . . . . . . . . . . . . . . . . . . . . . . . . . . . . . . . . . . . . . . '- =                                                                                                                                                                                                                                                                                                                                                                            ",
"                                                                                                                                                    )-!-w*w*w*w*w*w*w*w*w*w*w*w*w*w*w*w*w*w*w*w*w*w*w*w*w*w*w*w*w*w*w*w*w*w*w*w*w*w*w*w*w*w*w*w*w*w*w*w*w*w*w*w*w*w*w*w*w*w*w*w*w*w*w*w*w*w*w*w*w*w*w*w*w*w*w*w*w*w*~-{-. . . . . . . . . . . . . . . . . . . . . . . . . . . . . . . . . . . . . . . . . . . . . . . . . . . . . . . . . . . . . . . . . . . . . . . . . . . . . . . . . . . . . . . . . . . . . . . . . . . . . . . . . . . . . . . . . . . . . . . . . . . . . . . . . . . . . . . . . . b*]-                                                                                                                                                                                                                                                                                                                                                                                ",
"                                                                                                                                                      ^-/-w*w*w*w*w*w*w*w*w*w*w*w*w*w*w*w*w*w*w*w*w*w*w*w*w*w*w*w*w*w*w*w*w*w*w*w*w*w*w*w*w*w*w*w*w*w*w*w*w*w*w*w*w*w*w*w*w*w*w*w*w*w*w*w*w*w*w*w*w*w*w*w*w*w*w*w*w*w*(-_-. . . . . . . . . . . . . . . . . . . . . . . . . . . . . . . . . . . . . . . . . . . . . . . . . . . . . . . . . . . . . . . . . . . . . . . . . . . . . . . . . . . . . . . . . . . . . . . . . . . . . . . . . . . . . . . . . . . . . . . . . . . . . . . . . . . . . . . 0$:-{$                                                                                                                                                                                                                                                                                                                                                                                  ",
"                                                                                                                                                        ` <-#-w*w*w*w*w*w*w*w*w*w*w*w*w*w*w*w*w*w*w*w*w*w*w*w*w*w*w*w*w*w*w*w*w*w*w*w*w*w*w*w*w*w*w*w*w*w*w*w*w*w*w*w*w*w*w*w*w*w*w*w*w*w*w*w*w*w*w*w*w*w*w*w*w*w*w*w*w*[-. . . . . . . . . . . . . . . . . . . . . . . . . . . . . . . . . . . . . . . . . . . . . . . . . . . . . . . . . . . . . . . . . . . . . . . . . . . . . . . . . . . . . . . . . . . . . . . . . . . . . . . . . . . . . . . . . . . . . . . . . . . . . . . . . . . . . T#}-|-                                                                                                                                                                                                                                                                                                                                                                                      ",
"                                                                                                                                                            1-2-w*w*w*w*w*w*w*w*w*w*w*w*w*w*w*w*w*w*w*w*w*w*w*w*w*w*w*w*w*w*w*w*w*w*w*w*w*w*w*w*w*w*w*w*w*w*w*w*w*w*w*w*w*w*w*w*w*w*w*w*w*w*w*w*w*w*w*w*w*w*w*w*w*w*w*w*3-4-. . . . . . . . . . . . . . . . . . . . . . . . . . . . . . . . . . . . . . . . . . . . . . . . . . . . . . . . . . . . . . . . . . . . . . . . . . . . . . . . . . . . . . . . . . . . . . . . . . . . . . . . . . . . . . . . . . . . . . . . . . . . . . . . . . . `#5-                                                                                                                                                                                                                                                                                                                                                                                          ",
"                                                                                                                                                              :.6-7-w*w*w*w*w*w*w*w*w*w*w*w*w*w*w*w*w*w*w*w*w*w*w*w*w*w*w*w*w*w*w*w*w*w*w*w*w*w*w*w*w*w*w*w*w*w*w*w*w*w*w*w*w*w*w*w*w*w*w*w*w*w*w*w*w*w*w*w*w*w*w*w*w*w*w*G=1=. . . . . . . . . . . . . . . . . . . . . . . . . . . . . . . . . . . . . . . . . . . . . . . . . . . . . . . . . . . . . . . . . . . . . . . . . . . . . . . . . . . . . . . . . . . . . . . . . . . . . . . . . . . . . . . . . . . . . . . . . . . . . . . . M%Q%                                                                                                                                                                                                                                                                                                                                                                                              ",
"                                                                                                                                                                  8-9-K=w*w*w*w*w*w*w*w*w*w*w*w*w*w*w*w*w*w*w*w*w*w*w*w*w*w*w*w*w*w*w*w*w*w*w*w*w*w*w*w*w*w*w*w*w*w*w*w*w*w*w*w*w*w*w*w*w*w*w*w*w*w*w*w*w*w*w*w*w*w*w*w*w*w*G*0-. . . . . . . . . . . . . . . . . . . . . . . . . . . . . . . . . . . . . . . . . . . . . . . . . . . . . . . . . . . . . . . . . . . . . . . . . . . . . . . . . . . . . . . . . . . . . . . . . . . . . . . . . . . . . . . . . . . . . . . . . . . . . a-b-                                                                                                                                                                                                                                                                                                                                                                                                  ",
"                                                                                                                                                                      c-d-w*w*w*w*w*w*w*w*w*w*w*w*w*w*w*w*w*w*w*w*w*w*w*w*w*w*w*w*w*w*w*w*w*w*w*w*w*w*w*w*w*w*w*w*w*w*w*w*w*w*w*w*w*w*w*w*w*w*w*w*w*w*w*w*w*w*w*w*w*w*w*w*w*w*e-f-. . . . . . . . . . . . . . . . . . . . . . . . . . . . . . . . . . . . . . . . . . . . . . . . . . . . . . . . . . . . . . . . . . . . . . . . . . . . . . . . . . . . . . . . . . . . . . . . . . . . . . . . . . . . . . . . . . . . . . . . . . _%g-                                                                                                                                                                                                                                                                                                                                                                                                      ",
"                                                                                                                                                                        h-i-~-w*w*w*w*w*w*w*w*w*w*w*w*w*w*w*w*w*w*w*w*w*w*w*w*w*w*w*w*w*w*w*w*w*w*w*w*w*w*w*w*w*w*w*w*w*w*w*w*w*w*w*w*w*w*w*w*w*w*w*w*w*w*w*w*w*w*w*w*w*w*w*w*w*_=$=. . . . . . . . . . . . . . . . . . . . . . . . . . . . . . . . . . . . . . . . . . . . . . . . . . . . . . . . . . . . . . . . . . . . . . . . . . . . . . . . . . . . . . . . . . . . . . . . . . . . . . . . . . . . . . . . . . . . . . . j-$*                                                                                                                                                                                                                                                                                                                                                                                                          ",
"                                                                                                                                                                            k-l-O=w*w*w*w*w*w*w*w*w*w*w*w*w*w*w*w*w*w*w*w*w*w*w*w*w*w*w*w*w*w*w*w*w*w*w*w*w*w*w*w*w*w*w*w*w*w*w*w*w*w*w*w*w*w*w*w*w*w*w*w*w*w*w*w*w*w*w*w*w*w*w*w*m-n-. . . . . . . . . . . . . . . . . . . . . . . . . . . . . . . . . . . . . . . . . . . . . . . . . . . . . . . . . . . . . . . . . . . . . . . . . . . . . . . . . . . . . . . . . . . . . . . . . . . . . . . . . . . . . . . . . . . O#d=o-                                                                                                                                                                                                                                                                                                                                                                                                              ",
"                                                                                                                                                                                p-q-X=w*w*w*w*w*w*w*w*w*w*w*w*w*w*w*w*w*w*w*w*w*w*w*w*w*w*w*w*w*w*w*w*w*w*w*w*w*w*w*w*w*w*w*w*w*w*w*w*w*w*w*w*w*w*w*w*w*w*w*w*w*w*w*w*w*w*w*w*w*w*w*r-s-. . . . . . . . . . . . . . . . . . . . . . . . . . . . . . . . . . . . . . . . . . . . . . . . . . . . . . . . . . . . . . . . . . . . . . . . . . . . . . . . . . . . . . . . . . . . . . . . . . . . . . . . . . . . . . . . R$[$t-                                                                                                                                                                                                                                                                                                                                                                                                                  ",
"                                                                                                                                                                                    u-v-K=w*w*w*w*w*w*w*w*w*w*w*w*w*w*w*w*w*w*w*w*w*w*w*w*w*w*w*w*w*w*w*w*w*w*w*w*w*w*w*w*w*w*w*w*w*w*w*w*w*w*w*w*w*w*w*w*w*w*w*w*w*w*w*w*w*w*w*w*w*w*w-x-. . . . . . . . . . . . . . . . . . . . . . . . . . . . . . . . . . . . . . . . . . . . . . . . . . . . . . . . . . . . . . . . . . . . . . . . . . . . . . . . . . . . . . . . . . . . . . . . . . . . . . . . . . . . . }$y-z-                                                                                                                                                                                                                                                                                                                                                                                                                      ",
"                                                                                                                                                                                        A-B-X=w*w*w*w*w*w*w*w*w*w*w*w*w*w*w*w*w*w*w*w*w*w*w*w*w*w*w*w*w*w*w*w*w*w*w*w*w*w*w*w*w*w*w*w*w*w*w*w*w*w*w*w*w*w*w*w*w*w*w*w*w*w*w*w*w*w*w*w*w*W=C-. . . . . . . . . . . . . . . . . . . . . . . . . . . . . . . . . . . . . . . . . . . . . . . . . . . . . . . . . . . . . . . . . . . . . . . . . . . . . . . . . . . . . . . . . . . . . . . . . . . . . . . . . . D-)%=                                                                                                                                                                                                                                                                                                                                                                                                                           ",
"                                                                                                                                                                                            E-F-P=w*w*w*w*w*w*w*w*w*w*w*w*w*w*w*w*w*w*w*w*w*w*w*w*w*w*w*w*w*w*w*w*w*w*w*w*w*w*w*w*w*w*w*w*w*w*w*w*w*w*w*w*w*w*w*w*w*w*w*w*w*w*w*w*w*w*w*w*G-H-. . . . . . . . . . . . . . . . . . . . . . . . . . . . . . . . . . . . . . . . . . . . . . . . . . . . . . . . . . . . . . . . . . . . . . . . . . . . . . . . . . . . . . . . . . . . . . . . . . . . . . $&I-J-                                                                                                                                                                                                                                                                                                                                                                                                                                ",
"                                                                                                                                                                                                Z=K-L-w*w*w*w*w*w*w*w*w*w*w*w*w*w*w*w*w*w*w*w*w*w*w*w*w*w*w*w*w*w*w*w*w*w*w*w*w*w*w*w*w*w*w*w*w*w*w*w*w*w*w*w*w*w*w*w*w*w*w*w*w*w*w*w*w*w*w*P=M-. . . . . . . . . . . . . . . . . . . . . . . . . . . . . . . . . . . . . . . . . . . . . . . . . . . . . . . . . . . . . . . . . . . . . . . . . . . . . . . . . . . . . . . . . . . . . . . . . . . ($N-q                                                                                                                                                                                                                                                                                                                                                                                                                                     ",
"                                                                                                                                                                                                    O-P-d-w*w*w*w*w*w*w*w*w*w*w*w*w*w*w*w*w*w*w*w*w*w*w*w*w*w*w*w*w*w*w*w*w*w*w*w*w*w*w*w*w*w*w*w*w*w*w*w*w*w*w*w*w*w*w*w*w*w*w*w*w*w*w*w*w*w*K=[-_-. . . . . . . . . . . . . . . . . . . . . . . . . . . . . . . . . . . . . . . . . . . . . . . . . . . . . . . . . . . . . . . . . . . . . . . . . . . . . . . . . . . . . . . . . . . . . . 7*Q-R-                                                                                                                                                                                                                                                                                                                                                                                                                                          ",
"                                                                                                                                                                                                        g*S-T-O=w*w*w*w*w*w*w*w*w*w*w*w*w*w*w*w*w*w*w*w*w*w*w*w*w*w*w*w*w*w*w*w*w*w*w*w*w*w*w*w*w*w*w*w*w*w*w*w*w*w*w*w*w*w*w*w*w*w*w*w*w*w*w*w*w*U-V-. . . . . . . . . . . . . . . . . . . . . . . . . . . . . . . . . . . . . . . . . . . . . . . . . . . . . . . . . . . . . . . . . . . . . . . . . . . . . . . . . . . . . . . . . . $&W-X-=                                                                                                                                                                                                                                                                                                                                                                                                                                               ",
"                                                                                                                                                                                                              Y-Z-`-w*w*w*w*w*w*w*w*w*w*w*w*w*w*w*w*w*w*w*w*w*w*w*w*w*w*w*w*w*w*w*w*w*w*w*w*w*w*w*w*w*w*w*w*w*w*w*w*w*w*w*w*w*w*w*w*w*w*w*w*w*w*w*w*G= ;. . . . . . . . . . . . . . . . . . . . . . . . . . . . . . . . . . . . . . . . . . . . . . . . . . . . . . . . . . . . . . . . . . . . . . . . . . . . . . . . . . . . . . O#.;+;@;                                                                                                                                                                                                                                                                                                                                                                                                                                                    ",
"                                                                                                                                                                                                                    #;$;!-w*w*w*w*w*w*w*w*w*w*w*w*w*w*w*w*w*w*w*w*w*w*w*w*w*w*w*w*w*w*w*w*w*w*w*w*w*w*w*w*w*w*w*w*w*w*w*w*w*w*w*w*w*w*w*w*w*w*w*w*w*w*w*%;&;. . . . . . . . . . . . . . . . . . . . . . . . . . . . . . . . . . . . . . . . . . . . . . . . . . . . . . . . . . . . . . . . . . . . . . . . . . . . . . . . . #* %N$*;                                                                                                                                                                                                                                                                                                                                                                                                                                                          ",
"                                                                                                                                                                                                                        =;-;;;>;w*w*w*w*w*w*w*w*w*w*w*w*w*w*w*w*w*w*w*w*w*w*w*w*w*w*w*w*w*w*w*w*w*w*w*w*w*w*w*w*w*w*w*w*w*w*w*w*w*w*w*w*w*w*w*w*w*w*w*w*w*#=,;_-. . . . . . . . . . . . . . . . . . . . . . . . . . . . . . . . . . . . . . . . . . . . . . . . . . . . . . . . . . . . . . . . . . . . . . . . . . . . 0$';);@;                                                                                                                                                                                                                                                                                                                                                                                                                                                                ",
"                                                                                                                                                                                                                              !;~;{;~-w*w*w*w*w*w*w*w*w*w*w*w*w*w*w*w*w*w*w*w*w*w*w*w*w*w*w*w*w*w*w*w*w*w*w*w*w*w*w*w*w*w*w*w*w*w*w*w*w*w*w*w*w*w*w*w*w*w*w*w*];^;. . . . . . . . . . . . . . . . . . . . . . . . . . . . . . . . . . . . . . . . . . . . . . . . . . . . . . . . . . . . . . . . . . . . . . . T#/;(;_;g*                                                                                                                                                                                                                                                                                                                                                                                                                                                                      ",
"                                                                                                                                                                                                                                    :;<;[;};w*w*w*w*w*w*w*w*w*w*w*w*w*w*w*w*w*w*w*w*w*w*w*w*w*w*w*w*w*w*w*w*w*w*w*w*w*w*w*w*w*w*w*w*w*w*w*w*w*w*w*w*w*w*w*w*w*w*K==-|;. . . . . . . . . . . . . . . . . . . . . . . . . . . . . . . . . . . . . . . . . . . . . . . . . . . . . . . . . . . . . . . . . . 5%1;2;L%                                                                                                                                                                                                                                                                                                                                                                                                                                                                              ",
"                                                                                                                                                                                                                                            3;4;5;#-w*w*w*w*w*w*w*w*w*w*w*w*w*w*w*w*w*w*w*w*w*w*w*w*w*w*w*w*w*w*w*w*w*w*w*w*w*w*w*w*w*w*w*w*w*w*w*w*w*w*w*w*w*w*w*w*X=6;|;. . . . . . . . . . . . . . . . . . . . . . . . . . . . . . . . . . . . . . . . . . . . . . . . . . . . . . . . . . . . 0$7;8;9;$                                                                                                                                                                                                                                                                                                                                                                                                                                                                                     ",
"                                                                                                                                                                                                                                                  0;a;b;c;d;w*w*w*w*w*w*w*w*w*w*w*w*w*w*w*w*w*w*w*w*w*w*w*w*w*w*w*w*w*w*w*w*w*w*w*w*w*w*w*w*w*w*w*w*w*w*w*w*w*w*w*w*w*w*X=6;1=. . . . . . . . . . . . . . . . . . . . . . . . . . . . . . . . . . . . . . . . . . . . . . . . . . . . . . }$d=:-e;>                                                                                                                                                                                                                                                                                                                                                                                                                                                                                             ",
"                                                                                                                                                                                                                                                          f;g;h;i;~-w*w*w*w*w*w*w*w*w*w*w*w*w*w*w*w*w*w*w*w*w*w*w*w*w*w*w*w*w*w*w*w*w*w*w*w*w*w*w*w*w*w*w*w*w*w*w*w*w*w*w*w*w*j;'=_-. . . . . . . . . . . . . . . . . . . . . . . . . . . . . . . . . . . . . . . . . . . . . . $&($k;l;m;                                                                                                                                                                                                                                                                                                                                                                                                                                                                                                      ",
"                                                                                                                                                                                                                                                                  n;o;p;q;r;>;w*w*w*w*w*w*w*w*w*w*w*w*w*w*w*w*w*w*w*w*w*w*w*w*w*w*w*w*w*w*w*w*w*w*w*w*w*w*w*w*w*w*w*w*w*w*w*w*w*w*s;t;u;. . . . . . . . . . . . . . . . . . . . . . . . . . . . . . . . . . . . . . . 5%v;w;}%x;g*                                                                                                                                                                                                                                                                                                                                                                                                                                                                                                              ",
"                                                                                                                                                                                                                                                                            N 3;y;z;A;];B;w*w*w*w*w*w*w*w*w*w*w*w*w*w*w*w*w*w*w*w*w*w*w*w*w*w*w*w*w*w*w*w*w*w*w*w*w*w*w*w*w*w*w*w*w*w*K=C; ;x-. . . . . . . . . . . . . . . . . . . . . . . . . . . . . . >$D;E;F;G;H;                                                                                                                                                                                                                                                                                                                                                                                                                                                                                                                          ",
"                                                                                                                                                                                                                                                                                        I;J;K;L;M;N;O;K=w*w*w*w*w*w*w*w*w*w*w*w*w*w*w*w*w*w*w*w*w*w*w*w*w*w*w*w*w*w*w*w*w*w*w*w*w*w*w*w*w*w*d;P; ;H=. . . . . . . . . . . . . . . . . . . . 5%Q;R;S;T;U;V;                                                                                                                                                                                                                                                                                                                                                                                                                                                                                                                                      ",
"                                                                                                                                                                                                                                                                                                      W;X;Y;Z;`; >.>+>@>d;w*w*w*w*w*w*w*w*w*w*w*w*w*w*w*w*w*w*w*w*w*w*w*w*w*w*w*w*w*w*w*w*w*w*w*w*X=#>$>u;. . . . . . . #*%>G%&>*>=>N-->;>H%                                                                                                                                                                                                                                                                                                                                                                                                                                                                                                                                                    ",
"                                                                                                                                                                                                                                                                                                                        $ E X;>>,>'>)>!>~>{>]>^>/>(>+>_>7-L-L-L-L-B;w*w*w*B;L-L-L-7-:>_>};(>/><>[>}>|>1>2>3>4>5>6>v$7>q                                                                                                                                                                                                                                                                                                                                                                                                                                                                                                                                                                         ",
"                                                                                                                                                                                                                                                                                                                                                                                                                                                                                                                                                                                                                                                                                                                                                                                                                                                                                                                                                                                                ",
"                                                                                                                                                                                                                                                                                                                                                                                                                                                                                                                                                                                                                                                                                                                                                                                                                                                                                                                                                                                                ",
"                                                                                                                                                                                                                                                                                                                                                                                                                                                                                                                                                                                                                                                                                                                                                                                                                                                                                                                                                                                                ",
"                                                                                                                                                                                                                                                                                                                                                                                                                                                                                                                                                                                                                                                                                                                                                                                                                                                                                                                                                                                                ",
"                                                                                                                                                                                                                                                                                                                                                                                                                                                                                                                                                                                                                                                                                                                                                                                                                                                                                                                                                                                                ",
"                                                                                                                                                                                                                                                                                                                                                                                                                                                                                                                                                                                                                                                                                                                                                                                                                                                                                                                                                                                                ",
"                                                                                                                                                                                                                                                                                                                                                                                                                                                                                                                                                                                                                                                                                                                                                                                                                                                                                                                                                                                                ",
"                                                                                                                                                                                                                                                                                                                                                                                                                                                                                                                                                                                                                                                                                                                                                                                                                                                                                                                                                                                                ",
"                                                                                                                                                                                                                                                                                                                                                                                                                                                                                                                                                                                                                                                                                                                                                                                                                                                                                                                                                                                                ",
"                                                                                                                                                                                                                                                                                                                                                                                                                                                                                                                                                                                                                                                                                                                                                                                                                                                                                                                                                                                                ",
"                                                                                                                                                                                                                                                                                                                                                                                                                                                                                                                                                                                                                                                                                                                                                                                                                                                                                                                                                                                                ",
"                                                                                                                                                                                                                                                                                                                                                                                                                                                                                                                                                                                                                                                                                                                                                                                                                                                                                                                                                                                                ",
"                                                                                                                                                                                                                                                                                                                                                                                                                                                                                                                                                                                                                                                                                                                                                                                                                                                                                                                                                                                                ",
"                                                                                                                                                                                                                                                                                                                                                                                                                                                                                                                                                                                                                                                                                                                                                                                                                                                                                                                                                                                                ",
"                                                                                                                                                                                                                                                                                                                                                                                                                                                                                                                                                                                                                                                                                                                                                                                                                                                                                                                                                                                                ",
"                                                                                                                                                                                                                                                                                                                                                                                                                                                                                                                                                                                                                                                                                                                                                                                                                                                                                                                                                                                                ",
"                                                                                                                                                                                                                                                                                                                                                                                                                                                                                                                                                                                                                                                                                                                                                                                                                                                                                                                                                                                                ",
"                                                                                                                                                                                                                                                                                                                                                                                                                                                                                                                                                                                                                                                                                                                                                                                                                                                                                                                                                                                                ",
"                                                                                                                                                                                                                                                                                                                                                                                                                                                                                                                                                                                                                                                                                                                                                                                                                                                                                                                                                                                                ",
"                                                                                                                                                                                                                                                                                                                                                                                                                                                                                                                                                                                                                                                                                                                                                                                                                                                                                                                                                                                                ",
"                                                                                                                                                                                                                                                                                                                                                                                                                                                                                                                                                                                                                                                                                                                                                                                                                                                                                                                                                                                                ",
"                                                                                                                                                                                                                                                                                                                                                                                                                                                                                                                                                                                                                                                                                                                                                                                                                                                                                                                                                                                                ",
"                                                                                                                                                                                                                                                                                                                                                                                                                                                                                                                                                                                                                                                                                                                                                                                                                                                                                                                                                                                                ",
"                                                                                                                                                                                                                                                                                                                                                                                                                                                                                                                                                                                                                                                                                                                                                                                                                                                                                                                                                                                                ",
"                                                                                                                                                                                                                                                                                                                                                                                                                                                                                                                                                                                                                                                                                                                                                                                                                                                                                                                                                                                                ",
"                                                                                                                                                                                                                                                                                                                                                                                                                                                                                                                                                                                                                                                                                                                                                                                                                                                                                                                                                                                                ",
"                                                                                                                                                                                                                                                                                                                                                                                                                                                                                                                                                                                                                                                                                                                                                                                                                                                                                                                                                                                                ",
"                                                                                                                                                                                                                                                                                                                                                                                                                                                                                                                                                                                                                                                                                                                                                                                                                                                                                                                                                                                                ",
"                                                                                                                                                                                                                                                                                                                                                                                                                                                                                                                                                                                                                                                                                                                                                                                                                                                                                                                                                                                                ",
"                                                                                                                                                                                                                                                                                                                                                                                                                                                                                                                                                                                                                                                                                                                                                                                                                                                                                                                                                                                                ",
"                                                                                                                                                                                                                                                                                                                                                                                                                                                                                                                                                                                                                                                                                                                                                                                                                                                                                                                                                                                                ",
"                                                                                                                                                                                                                                                                                                                                                                                                                                                                                                                                                                                                                                                                                                                                                                                                                                                                                                                                                                                                ",
"                                                                                                                                                                                                                                                                                                                                                                                                                                                                                                                                                                                                                                                                                                                                                                                                                                                                                                                                                                                                ",
"                                                                                                                                                                                                                                                                                                                                                                                                                                                                                                                                                                                                                                                                                                                                                                                                                                                                                                                                                                                                ",
"                                                                                                                                                                                                                                                                                                                                                                                                                                                                                                                                                                                                                                                                                                                                                                                                                                                                                                                                                                                                ",
"                                                                                                                                                                                                                                                                                                                                                                                                                                                                                                                                                                                                                                                                                                                                                                                                                                                                                                                                                                                                ",
"                                                                                                                                                                                                                                                                                                                                                                                                                                                                                                                                                                                                                                                                                                                                                                                                                                                                                                                                                                                                ",
"                                                                                                                                                                                                                                                                                                                                                                                                                                                                                                                                                                                                                                                                                                                                                                                                                                                                                                                                                                                                ",
"                                                                                                                                                                                                                                                                                                                                                                                                                                                                                                                                                                                                                                                                                                                                                                                                                                                                                                                                                                                                ",
"                                                                                                                                                                                                                                                                                                                                                                                                                                                                                                                                                                                                                                                                                                                                                                                                                                                                                                                                                                                                ",
"                                                                                                                                                                                                                                                                                                                                                                                                                                                                                                                                                                                                                                                                                                                                                                                                                                                                                                                                                                                                ",
"                                                                                                                                                                                                                                                                                                                                                                                                                                                                                                                                                                                                                                                                                                                                                                                                                                                                                                                                                                                                ",
"                                                                                                                                                                                                                                                                                                                                                                                                                                                                                                                                                                                                                                                                                                                                                                                                                                                                                                                                                                                                ",
"                                                                                                                                                                                                                                                                                                                                                                                                                                                                                                                                                                                                                                                                                                                                                                                                                                                                                                                                                                                                ",
"                                                                                                                                                                                                                                                                                                                                                                                                                                                                                                                                                                                                                                                                                                                                                                                                                                                                                                                                                                                                ",
"                                                                                                                                                                                                                                                                                                                                                                                                                                                                                                                                                                                                                                                                                                                                                                                                                                                                                                                                                                                                ",
"                                                                                                                                                                                                                                                                                                                                                                                                                                                                                                                                                                                                                                                                                                                                                                                                                                                                                                                                                                                                ",
"                                                                                                                                                                                                                                                                                                                                                                                                                                                                                                                                                                                                                                                                                                                                                                                                                                                                                                                                                                                                ",
"                                                                                                                                                                                                                                                                                                                                                                                                                                                                                                                                                                                                                                                                                                                                                                                                                                                                                                                                                                                                ",
"                                                                                                                                                                                                                                                                                                                                                                                                                                                                                                                                                                                                                                                                                                                                                                                                                                                                                                                                                                                                ",
"                                                                                                                                                                                                                                                                                                                                                                                                                                                                                                                                                                                                                                                                                                                                                                                                                                                                                                                                                                                                ",
"                                                                                                                                                                                                                                                                                                                                                                                                                                                                                                                                                                                                                                                                                                                                                                                                                                                                                                                                                                                                ",
"                                                                                                                                                                                                                                                                                                                                                                                                                                                                                                                                                                                                                                                                                                                                                                                                                                                                                                                                                                                                ",
"                                                                                                                                                                                                                                                                                                                                                                                                                                                                                                                                                                                                                                                                                                                                                                                                                                                                                                                                                                                                ",
"                                                                                                                                                                                                                                                                                                                                                                                                                                                                                                                                                                                                                                                                                                                                                                                                                                                                                                                                                                                                ",
"                                                                                                                                                                                                                                                                                                                                                                                                                                                                                                                                                                                                                                                                                                                                                                                                                                                                                                                                                                                                ",
"                                                                                                                                                                                                                                                                                                                                                                                                                                                                                                                                                                                                                                                                                                                                                                                                                                                                                                                                                                                                ",
"                                                                                                                                                                                                                                                                                                                                                                                                                                                                                                                                                                                                                                                                                                                                                                                                                                                                                                                                                                                                ",
"                                                                                                                                                                                                                                                                                                                                                                                                                                                                                                                                                                                                                                                                                                                                                                                                                                                                                                                                                                                                ",
"                                                                                                                                                                                                                                                                                                                                                                                                                                                                                                                                                                                                                                                                                                                                                                                                                                                                                                                                                                                                ",
"                                                                                                                                                                                                                                                                                                                                                                                                                                                                                                                                                                                                                                                                                                                                                                                                                                                                                                                                                                                                ",
"                                                                                                                                                                                                                                                                                                                                                                                                                                                                                                                                                                                                                                                                                                                                                                                                                                                                                                                                                                                                ",
"                                                                                                                                                                                                                                                                                                                                                                                                                                                                                                                                                                                                                                                                                                                                                                                                                                                                                                                                                                                                ",
"                                                                                                                                                                                                                                                                                                                                                                                                                                                                                                                                                                                                                                                                                                                                                                                                                                                                                                                                                                                                ",
"                                                                                                                                                                                                                                                                                                                                                                                                                                                                                                                                                                                                                                                                                                                                                                                                                                                                                                                                                                                                ",
"                                                                                                                                                                                                                                                                                                                                                                                                                                                                                                                                                                                                                                                                                                                                                                                                                                                                                                                                                                                                ",
"                                                                                                                                                                                                                                                                                                                                                                                                                                                                                                                                                                                                                                                                                                                                                                                                                                                                                                                                                                                                ",
"                                                                                                                                                                                                                                                                                                                                                                                                                                                                                                                                                                                                                                                                                                                                                                                                                                                                                                                                                                                                ",
"                                                                                                                                                                                                                                                                                                                                                                                                                                                                                                                                                                                                                                                                                                                                                                                                                                                                                                                                                                                                ",
"                                                                                                                                                                                                                                                                                                                                                                                                                                                                                                                                                                                                                                                                                                                                                                                                                                                                                                                                                                                                ",
"                                                                                                                                                                                                                                                                                                                                                                                                                                                                                                                                                                                                                                                                                                                                                                                                                                                                                                                                                                                                ",
"                                                                                                                                                                                                                                                                                                                                                                                                                                                                                                                                                                                                                                                                                                                                                                                                                                                                                                                                                                                                ",
"                                                                                                                                                                                                                                                                                                                                                                                                                                                                                                                                                                                                                                                                                                                                                                                                                                                                                                                                                                                                ",
"                                                                                                                                                                                                                                                                                                                                                                                                                                                                                                                                                                                                                                                                                                                                                                                                                                                                                                                                                                                                ",
"                                                                                                                                                                                                                                                                                                                                                                                                                                                                                                                                                                                                                                                                                                                                                                                                                                                                                                                                                                                                ",
"                                                                                                                                                                                                                                                                                                                                                                                                                                                                                                                                                                                                                                                                                                                                                                                                                                                                                                                                                                                                ",
"                                                                                                                                                                                                                                                                                                                                                                                                                                                                                                                                                                                                                                                                                                                                                                                                                                                                                                                                                                                                ",
"                                                                                                                                                                                                                                                                                                                                                                                                                                                                                                                                                                                                                                                                                                                                                                                                                                                                                                                                                                                                ",
"                                                                                                                                                                                                                                                                                                                                                                                                                                                                                                                                                                                                                                                                                                                                                                                                                                                                                                                                                                                                ",
"                                                                                                                                                                                                                                                                                                                                                                                                                                                                                                                                                                                                                                                                                                                                                                                                                                                                                                                                                                                                "};
