/* XPM */
static char *stepstop[] = {
/* columns rows colors chars-per-pixel */
"256 256 186 2 ",
"   c #161412",
".  c #1B1615",
"X  c #1C1817",
"o  c #1E1A19",
"O  c #201718",
"+  c #221D1D",
"@  c #24211F",
"#  c #262221",
"$  c #2A2525",
"%  c #2C2826",
"&  c #2C2728",
"*  c #2E2A29",
"=  c #302B27",
"-  c #302728",
";  c #322D2D",
":  c #34302F",
">  c #39322F",
",  c #332F30",
"<  c #363231",
"1  c #3A3534",
"2  c #3C3837",
"3  c #3C3738",
"4  c #3E3A39",
"5  c #403637",
"6  c #403836",
"7  c #413739",
"8  c #423D3D",
"9  c #493F3E",
"0  c #45403F",
"q  c #49413F",
"w  c #453F41",
"e  c #493F41",
"r  c #464141",
"t  c #4A4545",
"y  c #4D4946",
"u  c #4D4648",
"i  c #4E4949",
"p  c #504646",
"a  c #524947",
"s  c #514749",
"d  c #534D4C",
"f  c #584E4E",
"g  c #55514E",
"h  c #5A514F",
"j  c #544E50",
"k  c #594F50",
"l  c #565151",
"z  c #5B5454",
"x  c #5D5956",
"c  c #5C5658",
"v  c #5E5959",
"b  c #605656",
"n  c #615957",
"m  c #615759",
"M  c #635C5C",
"N  c #685E5E",
"B  c #65615E",
"V  c #6A615F",
"C  c #655E60",
"Z  c #695F61",
"A  c #666161",
"S  c #6B6464",
"D  c #6D6966",
"F  c #6D6669",
"G  c #6E6969",
"H  c #706666",
"J  c #716967",
"K  c #716769",
"L  c #736C6C",
"P  c #786E6E",
"I  c #75716E",
"U  c #79716F",
"Y  c #756E70",
"T  c #796F71",
"R  c #767171",
"E  c #7B7474",
"W  c #7D7976",
"Q  c #7D7679",
"!  c #7E7979",
"~  c #807677",
"^  c #817977",
"/  c #817779",
"(  c #837C7C",
")  c #887E7F",
"_  c #85817E",
"`  c #89817F",
"'  c #857E81",
"]  c #897F81",
"[  c #868181",
"{  c #8B8484",
"}  c #8D8986",
"|  c #8D8689",
" . c #8E8989",
".. c #908687",
"X. c #928987",
"o. c #91868A",
"O. c #918689",
"+. c #93898A",
"@. c #948A8B",
"#. c #93888C",
"$. c #958A8D",
"%. c #978D8E",
"&. c #968C8D",
"*. c #938C8C",
"=. c #988E8F",
"-. c #95908E",
";. c #9A908F",
":. c #958E91",
">. c #998E91",
",. c #998E92",
"<. c #969191",
"1. c #9C9293",
"2. c #9F9596",
"3. c #9B9395",
"4. c #9E9996",
"5. c #9D9699",
"6. c #9E999A",
"7. c #A09697",
"8. c #A19897",
"9. c #A19798",
"0. c #A1969A",
"q. c #A3999A",
"w. c #A59B9C",
"e. c #A69C9D",
"r. c #A39B9D",
"t. c #A89E9F",
"y. c #A5A19F",
"u. c #AAA19F",
"i. c #A59DA1",
"p. c #A99EA2",
"a. c #A6A1A2",
"s. c #ABA1A2",
"d. c #AEA4A5",
"f. c #ABA3A5",
"g. c #ADA9A6",
"h. c #ADA5A9",
"j. c #AEA9AA",
"k. c #B0A6A7",
"l. c #B2A8A7",
"z. c #B1A6AA",
"x. c #B3ABAD",
"c. c #B8AEAF",
"v. c #B6B1AE",
"b. c #BAB0AF",
"n. c #B5ADB1",
"m. c #B9AEB2",
"M. c #B6B0B2",
"N. c #BBB3B5",
"B. c #BDB5B9",
"V. c #BEB9BA",
"C. c #BDB8B5",
"Z. c #C0B6B7",
"A. c #C2B8B7",
"S. c #C1B6BA",
"D. c #C3BABD",
"F. c #C8BEBF",
"G. c #C4C0BF",
"H. c #CAC0BF",
"J. c #C5BDC1",
"K. c #C9BEC2",
"L. c #C6C0C2",
"P. c #CCC2C5",
"I. c #CDC4C9",
"U. c #CEC8CB",
"Y. c #D0C6C7",
"T. c #D1C6CA",
"R. c #D4CACD",
"E. c #D8CECF",
"W. c #D5CCD1",
"Q. c #D9CED2",
"!. c #D7D1D4",
"~. c #DCD2D5",
"^. c #DDD4D9",
"/. c #DFD9DC",
"(. c #E0D6D7",
"). c #E1D6DB",
"_. c #E4D9DD",
"`. c #E4DCE1",
"'. c #E9DEE2",
"]. c #E7E1E5",
"[. c #EBE2E5",
"{. c #EEE5EB",
"}. c #EFE8EF",
"|. c #F6ECED",
" X c #F0E5EB",
".X c #F5EEF5",
/* pixels */
"D S M z l l d t r i d l l l t 1 1 9 p a d z N S V b b M z h d t w 8 7 e k c S ] ' ] #.$.] E ( $.+./ W { =.@.+.*.1.p.d.e.1.*.| ) / T F F L R E E L L L K S S S A M Z S F P / W L E { / b s f M S N M n n b f d h f h z b n z h h c f a z S L A m L | t.k.k.f.w.1.) E P U E L b 9 p t q 9 8 8 q a N L S N n L { E d t 7 t z M f t t f N P E L H L H P E H b d t 8 8 9 p f N L L z t f c h t 9 p h b N N h a a d d h z N J H b a p t f z z n F L P E S b z a q t d 9 8 7 t h N J L H P L N z b N V h N L E ( U F J f b H ( ....` ( ",
"R I G B x g t 2 2 2 8 r i i r 8 r l M M N L E E P J L U L N z s w u s d b M K ] { #.>.1.:.{ { o.@.[ { 1.w.9.2.7.2.d.x.s.q.1.*...] / R R E W R L L L H S F K L L H S S L ] *...( { 9.=.K k l M S S S V V N n b n V V S H S M b b b z f f z c z f M E ..=.=.1.>.$.( E U U U J n f b h f a p t a z S L H N M L ) L z d a z S J M a a p a z N S H L L E E H n z z z b l h d f N S z a f f a t t d b N S S M z h z z b N V N V V n h f b N N S L U R L A N V M h f z z d a a z V L E L L L S N N N N f b N L W P S J b m S ~ ) ( ~ ~ ",
"R R G M l t 2 : 2 : < 8 i i d l A W ) / ( *.2.1...| +.=...E M d u m Z Z S L ~ o.>.1.5.,.>.$.$.o.$.+.>.w.s.w.9.q.e.x.N.x.s.p.e.9.$.+.| ....| ( E ~ T P R / ] | ..*.) ( @.s.x.f.q.s.N.x.) m c A L ~ ~ ~ ~ U J H J P E ^ ^ P V n M m m z f s p s d l S E ~ / [ { [ ( ( ( ~ E P J H L J S S N M V L / ) P F N L ) P S A H ~ ....W S Z f e t c F E ( { { ) R L L L P L L S b k N K M N N M z d l Z L U ~ ~ L S N N N S E P S L ~ P S A L P R R E ~ W T L L E R L F L L F N m N L ~ ) E L K K L K F S b M M F E P F H Z M A T W P L R ",
"L G M d t t r 4 8 < 1 i x v A R +.e.s.2.9.c.N.c.s.s.s.d.q.) N l m / [ / / ] $.9.f.k.p.1.$.>.1.>.1.2.q.t.t.w.q.q.k.N.A.N.c.M.M.c.t.t.t.s.d.s.q.1.>.@.+.1.t.k.x.c.Z.x.k.N.F.D.N.N.K.Y.Z...N Z E ( =.=.&.@.{ ( ~ ( ` { &.=.) H M M c c z f a a k c b S T ~ ) o...) { | ....{ ) ) ) { ) ) { ) ~ ( { 1.1.) L N L @...[ { *.s.x.d.1.{ ) L c c H ) 1.q.s.w.1.@.@.@.@...W / ~ K N E [ / ) ] ) E L T [ 1.1.1.=.{ ^ U U E { 1.@.) &.1.{ ( [ @.1.1.=.+.o...@.o.+.*.$.....+.| ( T P ~ { @.@.) ~ E ~ E L L T P T L R ( E H F F N Z L L S S L ",
"A N v d s d l l s r i S R R ( 1.x.A.A.k.x.F.I.F.Z.Z.m.x.s.) M b / 1.i.1.,.q.p.k.Z.K.D.x.p.p.f.f.d.k.k.s.p.s.k.x.N.A.K.F.F.P.P.F.N.N.Z.A.F.F.Z.N.x.d.k.N.P.Y.R.R.T.Y.R.R.I.Z.N.F.~.R.N.+.F E 1.q.q.q.q.8.1.&.@.=.8.q.d.d.;.U N m f d f f k c b m A L / | 2.e.2...=.;.1.1.1.1.=.=.1.;.1.q.2.@.X.=.e.e.| L M P s.c.k.x.N.L.P.N.p.1.1.o.) ) @.p.c.N.Z.c.x.x.M.c.s.q.[ ..| E L ..p.p.s.k.x.t.1.1.s.B.N.N.x.t.;.&.;.7.N.Z.t.1.k.k.8.t.k.c.Z.A.M.k.s.s.k.x.c.N.N.c.x.x.k.2.[ [ >.s.k.k.t.7.1.1.) L P { >.>.@.+.$.) L L E L L K S M m N ",
"c m m v c m M M L L ! *.3.1.r.M.K.Y.L.m.c.L.T.I.I.P.B.x.k.] M N $.f.x.f.k.x.x.m.Z.P.Y.P.Z.m.m.m.N.N.x.t.t.x.N.A.A.L.I.I.R.E.R.F.P.P.I.Y.T.T.Y.I.Z.N.A.T.~.~.~.(.R.~.(.~.F.N.Z.I.~.P.c...H [ x.M.q.7.q.w.w.q.w.s.x.x.c.c.7.E N m l f d f z b m m K ~ o.2.s.x.s.1.q.q.q.q.w.q.7.2.q.7.w.d.t.=.@.1.q.q.{ L m W N.E.Y.T.E.~.P.c.e.q.t.t.t.s.c.A.L.L.A.N.Z.P.T.P.N.k.e.t.1./ T 1.Z.D.N.F.L.A.c.c.A.I.Y.P.A.N.l.k.v.A.).E.s.=.l.c.k.A.M.A.Y.R.P.Z.N.N.A.F.I.R.R.R.I.L.K.x.2.1.d.Z.K.K.F.A.Z.c.+.H P =.k.x.k.s.w.@.) ) $.@.[ E F N m c ",
"m A A A A G L L 1.6.j.N.N.c.N.U.Q.Q.P.B.B.K.R.W.R.Y.B.x.x.{ S L 9.k.x.x.B.B.x.z.n.N.D.P.K.D.Z.Z.F.A.c.w.w.c.D.F.A.F.P.Y.E.~.K.x.F.K.P.I.T.T.Y.Y.L.F.P.~.^.~.~.(.E.~.~.L.B.B.F.I.I.A.c.| A ) x.M.9.2.q.e.s.s.x.c.M.x.x.x.q./ H F Z M b c c m N N P { 7.e.t.s.p.q.f.f.s.t.w.q.w.w.q.1.q.s.e.1.>.q.9.1.( K M ( D.).^.)._.~.J.f.w.f.k.x.B.D.Y.Q.R.P.Z.D.P.W.R.K.B.m.Z.Z.k.{ / r.K.P.D.K.P.K.D.D.L.Y.R.Y.L.D.Z.N.F.R.).~.e.( w.m.x.D.k.m.K.Y.P.Z.Z.D.J.K.K.K.K.K.K.K.J.B.x.x.B.K.P.K.Y.L.P.D.:.Z K >.x.B.B.m.k.9.1.p.x.m.h.$./ T K m ",
"L L L D L W [  .d.M.L.Y.F.C.G.R._.~.I.D.Z.P.Q.^.R.R.B.x.m.o.K E 9.f.z.m.D.B.j.p.k.f.x.D.K.D.D.P.T.I.N.e.e.M.F.F.N.A.F.I.E.R.M.2.N.N.A.K.P.I.I.P.I.P.Y.~.~.R.R.^.R.R.L.c.x.M.D.F.D.N.c...m P e.s.q.q.q.t.s.k.c.Z.N.x.k.x.e.| / ( P L S N M Z K L ~ =.s.t.2.2.q.w.x.x.k.s.q.9.e.s.2.=.1.t.e.1.9.d.9.1.( L A ] D.~.).)._.~.Z.p.p.m.m.Z.D.Y.~._.~.P.D.P.W.~.R.Z.M.B.I.I.B.1.{ f.K.K.J.D.D.D.K.P.P.P.R.I.L.F.Z.N.F.R.Y.R.7.L 1.M.x.M.w.k.Z.P.L.Z.Z.K.K.D.m.f.p.k.M.Z.n.m.Z.K.P.K.Z.N.K.Z.K.Z.$.M Z #.j.B.Z.N.k.p.f.Z.K.R.K.p.#.o.' K ",
"L L / +.] ) 1.d.N.N.Y.~.P.Z.P.~._.~.Q.Y.D.P.Q.Q.Q.Y.D.x.N.9.T { p.z.Z.L.Y.P.B.k.x.k.x.B.Z.D.P.Q.Q.~.B.w.x.Z.Z.L.N.M.D.F.A.L.m.{ 1.d.A.A.Z.A.K.P.R.R.I.L.I.R.Q.R.P.P.A.x.x.m.N.N.B.p.7.=.M d ) >.1.w.x.s.s.N.c.x.c.c.c.d.w.2.1.1.@.( L L L L P ~ *.q.p.1.$.1.7.7.p.x.p.p.w.q.x.d.+.{ >.w.=.+.p.A.m.f.9.( K #.K.Q.~.).).Q.D.h.k.B.B.Z.R.^.^.).~.I.P.Q.~.~.~.L.Z.D.Y.Y.D.x.x.B.D.Z.D.D.K.K.D.D.K.I.R.R.Y.A.c.x.M.A.Y.Z.| F [ s.x.m.f.m.D.L.I.Y.P.K.R.B.p.1.$.5.k.n.m.D.T.~.~.Y.B.p.n.z.z.p.{ K T { f.x.B.Z.n.f.m.K.~.Q.R.D.k.i.o.K ",
"F K [ q.1.+.2.d.Z.A.Y.Q.L.F.T.~._.~.~.R.J.K.I.K.R.Y.J.B.Z.w.T { x.Z.P.Y.Y.K.Z.N.m.m.Z.K.J.D.K.Y.Q.~.A.d.m.A.A.F.M.M.A.A.N.Z.x.o.+.w.x.x.k.x.M.N.T.R.P.A.F.R.R.I.Z.A.N.c.M.A.N.k.q.$.@.o.N c [ =.2.7.s.w.s.M.c.c.m.c.c.x.s.9.9.w.w.@./ T L P ~ ] 7.t.s.q.>.=.1.1.1.s.p.d.d.s.x.s.o...1.w.=.*.s.N.D.B.f.{ K #.K.~.Q.Q.~.W.J.x.x.B.N.D.R.~.Q.Q.W.P.P.Q.~.^.~.P.Z.D.K.P.P.K.J.J.Z.N.Z.Z.D.D.Z.Z.D.P.~.~.P.c.s.k.M.Z.A.M.{ A / e.c.Z.B.D.L.P.I.Y.Y.P.P.x.p.9.1.w.n.B.D.P.R.~.^.R.D.m.k.p.w.,./ K ( q.n.x.m.m.x.h.x.Z.Q.R.Y.D.x.f.#.F ",
"F F [ e.q.1.q.k.A.F.T.R.L.P.~.^.^.^.).W.J.D.J.B.K.I.K.Z.D.w.T ] B.P.Q.R.K.D.D.D.B.D.I.R.P.D.Z.D.T.R.D.c.Z.F.A.A.N.Z.D.A.M.N.c.2.1.e.d.s.e.e.d.x.F.P.A.N.A.R.R.F.c.N.M.c.A.L.m.1...) [ [ M M =.q.r.>.5.1.p.x.f.k.n.k.x.m.k.w.9.f.x.q.| / ~ ) +.2.d.p.q.7.>.$.1.q.1.p.i.h.k.f.k.w.o.>.w.w.>.5.x.B.I.J.n.#.T #.K.^.W.T.T.R.I.B.m.B.B.K.Q.Q.T.I.I.K.I.Q.).).).Y.D.D.K.K.T.Q.W.I.D.D.J.Z.B.B.D.D.J.K.~.~.K.k.f.n.B.B.x.x.{ M E w.m.D.I.I.T.I.Y.T.K.D.N.f.i.p.i.k.B.D.I.T.W.Q.~.W.L.J.n.h.q.#.Q T :.N.Z.n.j.z.z.h.h.z.K.J.D.Z.m.x.:.Z ",
"K F ) w.q.1.e.c.L.P.T.T.L.T.^.~.Q.).'.Q.D.B.D.B.D.K.D.n.m.5.T ] Z.I.W.I.D.B.B.B.m.J.Y.R.P.Z.B.B.F.F.A.N.F.P.F.A.F.F.D.A.A.F.Z.k.k.k.s.q.7.q.s.x.M.Z.M.x.A.E.R.A.m.M.c.x.N.F.d.{ $.@.@.[ m A e.x.w.#.:.3.p.k.w.p.k.p.f.N.n.q.5.p.x.q.*.{ | >.s.c.c.t.1.>.@...>.s.q.p.q.i.w.r.p.9.:.9.f.w.1.f.Z.J.K.J.m.$.K #.K.).W.I.I.T.T.J.B.m.D.R.Q.T.K.D.D.J.T.~.^.).).Y.D.J.T.I.I.Q.W.I.L.R.T.D.m.B.D.D.D.J.R.R.K.m.m.K.L.B.k.x.{ Z / f.B.B.I.T.R.T.I.K.B.n.p.5.r.h.z.N.J.J.K.K.K.K.L.J.D.D.J.B.z.5.] ] i.J.Z.n.h.z.z.p.i.i.n.k.z.n.m.n.:.C ",
"F A ) s.d.t.x.F.T.I.T.Y.P.R.(.~.^.'. XQ.m.n.B.B.D.D.m.i.p.:.T { Z.P.Y.K.Z.B.x.f.f.m.J.K.K.D.Z.Z.N.M.N.A.L.Y.Y.F.L.A.N.B.K.P.A.N.m.d.9.1.7.t.k.c.x.c.x.x.F.~.R.N.M.c.d.s.c.M.e.{ q.s.d.>.N F s.c.5.o.>.5.f.n.p.f.f.i.f.B.m.9.1.i.s.q.1.$.=.e.c.Z.B.s.2.1.@.) { 1.>.w.5.q.q.5.i.1.>.w.k.w.1.k.K.K.J.D.m.#.K { K.).~.T.I.W.W.K.B.m.K.~.~.I.J.m.m.J.W.Q.Q.Q.~.I.D.J.W.I.I.W.T.K.I.^.T.D.m.D.K.K.J.K.K.P.D.m.Z.R.Q.L.B.m.{ S { x.m.n.J.Y.W.W.T.J.n.i.i.5.q.n.B.K.I.K.D.B.m.B.B.n.m.B.T.T.J.z.5.,.p.D.B.m.m.m.z.q.5.q.f.p.h.z.n.z.#.C ",
"N Z | N.F.N.F.E.R.K.K.P.I.R.~.R.).[.{.R.z.k.N.m.B.B.h.,.5.#.T #.B.K.P.D.Z.B.k.9.9.f.n.B.Z.K.K.K.c.x.M.D.F.Y.T.F.Z.M.f.x.F.K.N.N.M.t.>.1.s.c.B.N.x.x.d.c.P.E.P.c.x.d.p.s.k.k.e.1.d.Z.F.s.L L e.t.>.$.9.w.x.Z.x.m.z.h.x.m.x.w.5.w.t.e.9.1.1.t.x.N.M.k.s.t.=./ R ~ ] ,.1.i.i.r.p.q.>.w.j.w.1.h.D.D.D.B.n.#.K #.K.).).Q.W.Q.Q.P.D.B.I.).W.J.J.B.m.J.Q.Q.T.I.T.K.J.K.W.I.I.W.T.K.I.Q.L.B.m.J.T.P.K.I.J.J.B.m.Z.R.~.R.K.m.{ L :.m.m.x.J.I.Q.W.I.J.n.p.p.5.i.B.P.W.W.K.J.B.B.D.B.n.m.D.I.W.T.B.p.i.h.m.B.B.J.D.z.5.5.i.z.j.z.z.j.p.{ m ",
"N Z +.K.R.L.Y.^.Y.N.N.L.I.R.E.R.^.).).K.z.n.B.m.m.m.p.,.i.5./ :.k.Z.K.D.Z.D.m.f.5.p.k.n.Z.K.P.K.c.f.x.Z.N.F.P.Z.c.x.p.k.D.A.c.N.M.q.*.q.M.F.A.B.d.q.q.x.L.Y.Z.f.f.t.s.x.x.t.q.p.N.P.Y.x.E W p.1.>.1.f.i.j.Z.B.B.B.m.x.x.p.q.q.p.t.p.q.1.1.w.k.x.x.k.k.p.*./ R W { 9.w.f.p.9.f.i.>.w.k.f.9.f.m.m.m.n.h.#.Y #.K.).`.^.^.).~.I.K.K.T.).T.D.K.K.B.I.~.W.K.J.J.J.J.T.W.R.R.R.I.K.K.T.I.D.B.I.Q.U.K.I.K.D.Z.Z.K.Y.R.I.Y.m.] T ,.m.m.B.J.I.W.T.K.D.N.m.z.q.i.B.R.^.Q.K.K.D.D.J.D.m.m.D.J.T.W.J.h.p.h.z.h.n.B.B.z.q.i.z.m.m.m.x.p.q.] C ",
"A A +.F.T.F.I.^.P.c.x.F.I.Y.R.R.R.R.T.B.x.B.J.n.x.n.p.3.p.i.] ,.5.x.Z.B.Z.J.D.m.w.f.k.x.B.K.K.Z.m.p.k.M.x.N.A.x.x.c.d.x.D.N.x.Z.m.9.$.e.A.P.Z.x.q.@.@.d.F.L.c.e.p.w.d.N.x.q.9.d.P.R.Y.d.E ( k.7.1.w.x.w.p.B.m.B.Z.B.n.f.9.9.w.p.p.s.w.1.>.q.f.k.s.s.s.7.o.) ) | q.z.f.f.9.>.p.i.,.w.x.x.p.f.x.k.h.p.i.] Y :.I.).`.).).`.^.I.K.I.T.).I.B.I.I.J.R.~.W.J.N.B.D.J.R.~.Q.W.I.K.D.J.I.W.K.K.Q.^.T.K.K.K.K.K.I.R.Y.K.D.Y.x.( L ,.x.B.K.J.I.T.K.B.B.D.D.n.q.i.B.R.^.W.D.B.m.m.B.m.h.h.n.D.I.R.D.h.p.p.h.q.i.z.n.h.q.p.m.m.m.N.z.i.5.] Z ",
"L F { c.A.F.T.^.R.x.x.F.A.P.~.Y.F.L.N.f.n.D.D.B.x.x.j.r.n.n.#.' 1.B.B.j.m.Y.R.L.x.n.B.B.B.B.B.B.k.x.m.m.m.x.x.x.B.m.B.Z.D.B.Z.J.x.>.1.k.m.Z.x.>./ E $.n.D.K.Z.w.w.w.m.P.k.' [ x.T.Y.P.w.K L >.p.p.w.f.k.r.9.x.Z.Z.Z.m.i.>.1.i.j.p.9.3.{ >.j.p.f.>.o.{ o.$.$.>.5.x.m.x.9.$.w.f.5.9.9.w.f.N.Z.x.w.$.1.w.] K $.T.'.{._.Q.Q.).Q.I.I.~.I.B.D.R.W.R.^.~.R.B.n.J.J.D.Y.T.Y.T.Y.J.m.B.K.R.R.Q.Q.R.L.J.J.K.K.J.J.D.B.m.n.K.k./ A { c.F.D.B.Z.D.D.D.B.m.n.h.w.p.m.K.K.K.K.m.f.i.h.h.w.p.z.D.P.I.B.f.w.f.z.3.5.i.p.p.p.n.Z.B.D.K.k.#.$.{ C ",
"S A ) d.M.B.P.~.Y.k.c.D.N.Z.P.F.N.x.a.r.f.N.V.B.N.N.x.a.N.M. .[ p.K.K.m.Z.R.W.I.Z.Z.Z.Z.D.Z.x.f.f.m.Z.Z.B.N.x.j.x.B.K.P.J.m.x.m.w.>.9.j.k.x.f.o./ ( 1.m.D.D.N.f.z.z.D.P.j.' { k.K.D.B.1.Z Z { 9.p.w.f.k.w.w.x.B.B.B.z.q.1.9.p.f.p.>.$.{ >.f.r.3.Q E / ] $.1.p.x.D.Z.x.9.>.w.p.>.$.5.p.x.B.Z.m.f.$.1.w.[ K #.P._.'._.Q.Q.).W.L.P.Q.T.K.T.^.Q.Q._.Q.P.B.m.J.J.D.K.D.D.D.K.J.B.B.K.Q.Q.~.Q.R.P.K.K.B.n.z.n.m.n.n.N.J.x.) S ) x.A.N.m.z.z.m.m.x.h.f.f.p.k.B.B.n.x.B.z.h.h.k.f.i.f.m.Z.Z.m.p.,.>.9.f.>.,.3.,.,.7.k.D.B.B.B.i.] ] / M ",
"N A ) e.s.k.A.R.L.x.c.A.c.k.c.x.5.[ { :.<.f.B.B.D.N.j.h.B.n. . .m.R.R.D.K.Q.Q.Y.K.Z.B.B.Z.m.p.>.p.B.K.J.D.Z.x.w.p.N.Y.R.D.f.w.w.9.r.k.m.z.k.p.>.$.w.x.D.K.Z.x.x.m.N.D.K.f.{ $.z.D.x.k.>.Z c / 1.p.w.f.k.i.p.x.m.x.x.f.w.w.f.x.n.f.{ { ] $.k.p.o.E / ' o.:.9.k.B.K.Z.f.5.5.p.q.#.] 1.k.B.Z.B.m.k.1.q.p.o.L | K.)._.^.W.Q.).R.K.Y.W.W.W.^.^.Q.Q.^.T.D.D.J.K.K.K.D.n.x.m.D.J.D.J.P.Q.Q.Q.W.R.Y.I.P.m.h.f.n.B.m.B.K.D.B.+.H ( s.v.c.k.w.q.f.k.p.9.w.w.f.n.m.f.1.,.w.w.j.x.k.p.p.x.Z.B.f.1.o.] ( o.9.o.[ ' / Q ] 9.n.x.f.i.$.E T L M ",
"Z L +.s.q.q.B.R.P.M.B.D.c.e.7.>.( C L | | 5.n.M.J.M.h.a.M.j.| :.B.Q.Q.J.P.Q.W.I.K.B.x.k.x.k.9.#.p.m.D.D.K.K.m.5.w.B.Y.Y.m.5.$.$.w.f.B.D.m.p.w.p.x.D.K.P.Y.m.w.f.k.k.x.x.i.>.9.k.m.p.i.>.S M ] r.f.p.k.k.p.f.x.x.i.f.f.f.k.m.D.D.f.( ' ] #.m.n.>.{ $.5.q.9.w.f.m.B.x.5.,.i.p.,.{ ( ,.x.D.D.B.x.k.k.j.k.:.L ] Z.~.).~.R.Q.~.P.D.P.W.W.^.).W.I.T.W.K.B.K.T.K.I.T.J.m.n.m.B.Z.D.P.Q.R.R.R.Y.Y.Y.Y.P.B.z.z.D.K.J.K.Y.J.Z.>.L W 7.s.t.w.$.#.5.9.$.#.1.9.p.x.k.1.] ( [ $.r.f.i.9.p.m.B.j.,.' Q T T E ] ( E K Z Z K ] 9.w.>.{ / K Z Z C ",
"F / e.c.q.2.M.E.T.A.A.F.m.7.| ( Q v L #. .:.f.h.D.n.a.6.j.r.' #.N.R.R.D.K.R.Y.K.Z.m.k.f.k.j.p.w.p.j.x.N.P.W.D.f.z.D.R.L.k.,.>.1.f.j.B.K.B.9.9.n.J.I.L.P.P.k.>.r.5.9.5.1.1.9.w.i.i.1.9.$.L T 1.x.x.z.x.j.p.k.m.j.5.p.k.x.m.Z.J.K.p.] o.$.1.B.N.5.#.9.k.x.j.f.k.x.p.w.>.,.f.w.] ( / $.k.D.K.Z.m.x.m.x.k.:.L ] Z.)._.~.R.R.W.D.m.D.R.I.W.W.J.J.T.T.B.B.I.W.K.K.W.I.J.D.Z.m.x.m.J.Q.W.R.Y.K.P.Y.P.D.n.z.m.K.T.L.P.R.P.Z.=.K L ..&.@.| ( ( { ] ~ / #.,.9.p.p.>.' E E ( o.>.>.1.p.k.h.w.#.( / E Y L T ( E K S A K / { 9.$.( E T S Z F ",
"L { x.Z.s.9.N.E.R.P.F.A.x.=.( / [ L Q <.*. .3.5.N.n.h.6.i.5.( { m.Y.Y.Z.D.P.K.D.D.B.N.m.m.B.B.B.p.w.w.x.Y.).R.D.J.R.Q.K.k.w.p.k.x.m.B.J.Z.i.i.D.P.K.K.P.K.k.9.i.>.1.>.{ $.9.q.>.#.$.1.{ L { m.D.B.m.x.f.p.m.B.k.q.p.k.x.m.Z.Z.B.w.>.p.p.w.z.p.$.,.f.m.B.x.f.p.i.9.q.1.9.h.$.T T Q { p.D.K.D.B.m.x.f.p.:.L ( Z._._.Q.P.Y.Y.B.k.B.K.B.D.D.x.B.I.L.m.D.I.I.J.J.I.I.R.Y.K.m.f.f.B.L.Q.R.I.K.K.I.K.B.z.m.D.I.T.Y.R.Q.Y.B.| F L ) ` ` [ ( ' ] ' E ( $.1.9.p.p.9.$.] / / [ #.>.9.p.f.p.p.i.9.1.>.o.{ ] $.{ ( ( ( ' [ o.i.9.o.] { Q K T ",
"T ..x.A.x.s.N.Y.R.Y.F.B.p.{ ~ { | ! (  . .' ' | f.x.n.i.f.r.( { B.Y.Y.D.D.P.D.Z.D.D.D.K.P.L.J.Z.i.1.9.x.I.~.Q.R.I.Q.Q.K.x.k.n.B.Z.K.D.B.Z.m.m.P.J.B.D.P.D.k.f.k.5.f.p.:.:.p.i.:.{ 1.w.] L 1.K.J.D.B.n.p.p.B.K.m.h.f.p.f.m.Z.B.x.w.f.m.p.,.1.o.| p.n.Z.B.k.w.>.#.9.p.i.f.k.] S T ( #.f.D.K.Z.B.m.k.i.p.,.T ' Z._.~.L.B.J.I.Z.n.D.J.z.n.m.p.m.Y.K.B.K.K.D.J.K.J.K.Y.Y.K.B.x.x.m.Z.Y.Y.K.Z.K.I.D.n.N.K.T.I.P.T.Q.^.Y.k./ F / ..+.=.>.:.$.$.#.#.>.q.q.p.k.k.k.p.5.:.#.>.9.p.z.x.x.k.x.B.Z.x.k.h.f.p.p.9.>.1.w.q.5.,.w.p.1.:.1.{ E ~ ",
"E { k.A.c.x.Z.L.Y.Y.F.c.2./ ~ *.' ( Q ( ' E Y ( 3.j.N.h.j.f.|  .D.W.R.K.K.P.D.Z.D.D.K.R.W.R.D.m.p.1.9.x.K.Y.Y.Q.P.R.R.D.n.x.m.B.Z.R.K.x.B.D.D.P.m.f.B.K.n.p.k.k.p.B.B.w.9.k.k.5.#.f.k.( K w.I.D.D.B.x.p.p.D.P.B.m.f.9.w.m.K.Z.z.p.x.B.9.] ] / o.h.m.Z.m.f.9.$.] 9.z.k.z.z.' Z E { 1.x.K.K.B.n.m.k.p.f.9./ ] B._.P.B.k.Z.Y.D.Z.I.I.m.m.B.z.D.Q.K.K.T.J.B.K.P.D.J.K.K.J.Z.B.Z.Z.Z.D.D.Z.B.D.P.D.x.J.W.Q.K.D.P.Q.).I.i.T L | 2.q.d.i.w.9.1.1.q.p.p.p.k.m.B.B.n.h.p.w.f.x.Z.D.Z.B.B.n.K.P.B.x.m.B.x.x.p.w.p.x.x.p.q.1.i.1.>.w.>./ / ",
"T ) s.c.c.M.x.B.L.F.A.k.$./ ) >.] Q L L L L R ! *.f.x.a.x.f.'  .Z.I.R.P.P.Y.T.P.P.D.D.K.Y.P.D.B.9.f.p.B.Y.P.P.K.P.Y.Y.J.m.x.Z.Y.W.Q.K.m.Z.K.K.K.z.B.P.Z.9.w.x.k.Z.K.f.9.N.B.f.k.n.B.x.E K w.B.m.B.K.B.x.Z.Y.D.x.m.q.p.N.B.D.D.k.w.D.B.>./ T Q #.f.B.m.w.1.,.$.$.p.h.B.Z.p.] / { ,.p.B.D.Z.m.m.B.x.p.k.w.E ] D.).J.x.n.K.P.B.Z.Q.W.K.J.D.D.K.R.I.I.I.D.B.K.T.J.B.Z.B.Z.J.K.Y.R.J.k.x.x.k.m.D.P.P.Q.W.T.K.J.W.^.W.D.:.F R q.x.c.Z.p.r.5.w.i.w.p.f.f.j.z.m.m.n.x.x.m.B.Z.B.Z.K.J.B.D.D.Z.N.m.B.m.k.x.k.h.x.m.n.f.p.p.w.5.5.i.i.o.L ",
"W ( 7.f.x.M.k.c.K.Z.c.p.*.) [ *.1.[ R G F L R Q [ 3.i.i.x.6.! :.B.K.R.Y.K.P.I.I.K.J.D.D.Z.B.B.B.k.m.f.B.Y.I.I.K.Y.R.R.K.B.m.D.Y.~.~.P.B.K.Y.P.K.Z.P.R.m.:.9.m.m.K.K.p.1.B.K.Z.K.P.K.x.T K r.m.k.m.D.J.D.L.D.x.f.p.1.p.B.B.B.B.h.h.J.n.{ / ( { 5.9.f.f.1.$.o.{ :.w.j.B.m.q.o.$.w.h.x.B.Z.Z.Z.B.B.m.f.m.f.( { D.).Y.D.D.I.P.D.K.Q.^.R.I.K.J.I.W.R.P.K.B.B.I.I.D.B.D.B.Z.K.R.~.~.K.f.j.k.k.m.D.Y.R.T.T.T.I.I.Q.^.I.m.{ Z E f.N.x.k.9.>.5.p.p.1.1.w.w.f.x.m.m.x.x.m.B.D.D.B.m.B.B.B.B.Z.B.m.m.B.m.h.n.k.k.x.m.x.h.f.x.p.1.1.p.h.$.L ",
"/ ~ @.q.x.N.c.N.F.c.s.7.$.[ { *.9. .! R Y Y R E ( #.r.a.j.<.Q 3.B.D.K.P.P.P.K.D.D.K.D.m.p.i.h.n.m.Z.k.B.Y.R.R.P.W.R.Y.K.Z.Z.D.K.Y.R.K.D.R.~.Y.K.Y.).^.x.o.1.B.B.K.B.1.$.m.I.R.~.~.Y.m.E K 9.z.p.k.Z.K.Y.Y.B.p.p.9.>.p.Z.Z.n.f.9.k.B.p./ E $.i.f.o.>.>.$.o.{ o.q.i.x.B.k.5.>.i.m.m.m.m.B.Z.D.B.m.n.f.N.z.] { Z.~.~.R.I.Y.P.K.Y.Q.).Q.T.I.J.T.Q.T.K.D.m.B.I.I.D.D.Z.m.B.P.~.'.^.J.f.f.f.f.n.J.Y.W.K.K.T.W.W.^.W.D.k.] A / x.Z.s.1.$.:.9.h.i.:.#.3.1.f.N.m.k.f.k.m.D.K.D.m.k.k.m.B.m.m.m.m.m.m.x.f.n.x.x.n.m.x.k.k.B.f.1.1.j.x.>.T ",
"/ E | 9.x.A.N.F.D.x.w.1.+.[ { $.:.{ ( ' ' ! E Y | r.j.a.j.3.( 6.J.Z.B.D.Y.I.Z.m.D.D.B.p.$.#.9.p.z.B.n.Z.R.R.~.Q.T.P.K.D.K.P.D.m.x.D.K.Y.)._.Q.Y.R.[.).f.] ,.x.m.B.k.$.>.B.W.~._.Q.Y.B.( L 1.f.w.p.m.Z.D.K.Z.k.h.9.1.p.B.Z.p.o./ q.h.1.E ~ 9.x.x.{ [ ] [ o.] $.f.f.k.k.i.1.5.i.f.p.p.f.x.B.Z.B.m.p.9.x.k.] ] m.W.~.~.R.P.K.Y.Q.~.^.T.K.J.J.T.W.J.D.B.m.Z.I.K.D.D.B.n.B.P.~._.Q.Z.m.k.f.f.m.K.Y.P.K.K.T.Q.~.^.Y.m.k.$.T ) f.c.7.@.o.9.f.p.9.>.>.>.1.j.B.n.p.w.k.B.D.D.Z.m.x.k.n.B.m.m.m.m.m.m.k.p.z.k.x.m.m.z.k.k.Z.z.w.q.k.x.1.T ",
"/ E @.e.c.A.N.P.A.c.t.1.| / ) +.| [ ' [ { [ ( Q r.B.D.f.a.6.' <.D.D.D.D.D.D.B.x.Z.B.j.>.] ] o.:.i.Z.D.P.Q.R.~.~.K.Z.N.Z.P.Y.Z.f.i.B.Y.).'._.W.R.Q.[.R.3.E { p.k.x.p.1.p.P.).).~.K.K.Z.{ L { 1.,.p.x.k.p.m.Z.m.h.9.1.w.m.m.1.T Z o.,.>./ ' w.x.f.$.{ ( ] ] Q ( 5.f.p.9.1.9.w.5.$.( { 1.p.x.x.z.k.,.$.p.f./ / x.R.~.~.W.P.L.W.^.).W.J.B.B.J.R.I.n.m.B.B.D.I.K.D.J.B.B.J.Y.R.Q.R.Z.Z.x.p.f.Z.Y.Y.J.P.K.T.~.^.^.R.B.B.p.| [ 1.q.=.@.$.p.k.1.$.9.q.>.1.f.x.f.9.w.x.Z.Z.m.m.m.n.k.k.x.B.N.N.B.B.m.k.p.f.f.k.n.n.k.k.k.m.x.f.f.x.x.1.Q ",
"( / 2.x.N.N.c.A.A.c.s.1.[ E ~ [ | ' ! ( ( [ | :.M.U.I.a.a.6.! [ x.K.Y.Z.f.p.k.m.k.k.w.$.{ { { ' 9.D.I.Q.~.R.Q.R.Z.B.m.B.L.Y.Z.f.x.L.Q.).).R.D.D.W.).B.( L ( 1.f.i.9.w.B.Q._.~.I.B.Z.Z.o.F Q ] o.k.x.9.o.p.Z.m.w.1.1.9.x.m.$.K Z ] { o.{ o.i.f.,.1.1.$.{ / K K ( f.9.,.9.f.f.5.| S E o.9.w.w.w.w.#.{ w.p./ E k.R.~.~.~.R.R.~.).).K.D.B.B.J.W.K.p.z.D.J.J.L.K.J.J.D.D.I.R.P.Y.I.D.D.x.p.k.K.Q.W.K.P.K.T.~.^.).Q.L.D.m.1.{ @.1.=.1.>.f.p.#.o.w.p.,.1.p.f.9.1.p.m.Z.m.k.k.m.m.f.i.p.Z.B.B.Z.Z.m.z.f.h.p.f.k.x.x.z.x.n.n.x.k.x.k.1.( ",
"[ ) e.N.F.A.x.N.Z.x.t.1.] R R / [ ( Q E ! { 6.j.J.R.L.h.h.3.Y E w.B.D.f.$.>.i.f.5.i.p.r.5.1.#.( 1.D.Y.Q.~.R.Y.K.B.Z.Z.B.D.P.D.n.L.R.R.P.D.x.w.w.J.P.f.( / o.9.h.9.1.f.P.)._.Q.J.Z.Z.Z.o.S T ] o.x.p.#.[ r.x.p.1.1.w.f.m.m.$.T E ' Q ' #.1.f.f.$.,.f.k.q.] K F ( p.1.>.q.p.w.1.>.L Q { $.:.$.$.:.o.' 9.q.T T j.R.Q.~.).).~.~.Q.W.D.D.D.J.K.T.D.w.p.J.T.K.K.K.K.K.P.P.Y.Y.K.K.P.D.D.m.k.m.P.~.Q.I.K.J.I.Q.W.W.R.K.K.N.1.] *.q.2.1.q.i.9.$.>.p.p.9.w.p.r.3.5.h.m.n.k.p.f.m.m.p.p.k.Z.B.B.Z.D.B.x.x.x.p.w.p.k.x.m.B.m.m.n.x.x.x.9.{ ",
"| [ s.F.T.P.x.m.Z.x.q.=.] R L W W R R R ( *.h.D.I.U.D.j.x.3.D L 1.k.f.o.] >.5.:.$.w.k.x.k.f.1.] >.B.K.R.~.Y.P.Z.B.K.K.Z.Z.D.K.D.Q.R.D.x.p.:.] [ x.B.i.| >.w.p.z.w.9.m.Q.'.'.~.K.K.D.Z.o.S Q { >.k.9.{ | i.f.5.:.w.x.m.D.Z.>./ o.] L E $.w.x.z.$.o.x.D.n.:.E E $.1.o.o.3.1.o.o.:.( ' { | { { { [ { ( 1.5.L L f.R.W.~._.'._.Q.I.K.N.D.K.K.K.I.B.9.i.I.Q.K.J.K.K.K.Y.P.P.K.D.K.L.Z.Z.B.m.B.P.Q.Q.Y.K.J.P.R.I.P.K.Z.K.x.@.) 1.f.e.1.p.9.3.9.p.p.p.w.f.f.q.>.9.j.z.p.p.w.f.B.m.f.k.B.B.m.m.Z.D.B.m.m.m.f.9.q.f.x.B.D.B.B.x.k.n.n.w.o.",
":.] i.Y.W.P.K.N.m.f.;.{ ( / R L L D S S G  .c.G.L.Y.D.j.N.5.A G >.w.| T { 1.:.#.$.f.n.f.j.B.k.o.$.w.Z.R.Q.I.D.Z.K.R.B.k.K.Y.K.Y.R.J.h.9.1.{ ( ] i.x.n.p.w.z.D.K.x.k.Z.~.[._.Q.R.R.J.m.$.K / i.k.j.3.#.<.r.i.f.j.x.j.J.J.i.:.5.5.3.Q Y #.j.B.f.{ ] w.D.B.w.1.5.,./ Q {  .E F ' 3.:.5.r.| Y Y Q Q E ! :.:.T S 6.!.~.!.~./.^.I.B.n.m.K.T.I.I.I.D.j.B.L.T.L.J.I.T.R.Q.Q.D.x.D.Y.P.Z.D.m.B.L.R.Q.~.Y.I.K.K.W.I.D.Z.K.P.Z.] L e.B.s.d.k.f.9.w.m.k.q.f.x.h.f.r.1.p.x.f.p.h.n.B.m.x.m.Z.D.Z.D.Z.x.x.m.x.m.k.p.p.h.m.B.Z.B.m.m.k.k.m.f.{ ",
"o.] w.K.Y.P.L.Z.x.e.=.` ( ~ E L J S S B S _ x.D.F.U.L.M.V.6.A L >.1.( T $.p.1.$.9.k.z.w.w.k.f.>.$.w.B.Y.R.I.K.K.R.K.k.f.K.Q.J.m.x.h.w.i.p.>.o.3.z.B.Z.k.f.n.K.I.D.P.Q._.'._.~.Q.K.D.m.o.S ( k.B.j.3.#.5.a.h.n.N.B.N.B.j.:.:.f.j.r.{ ] 3.k.m.f.#.9.9.h.m.z.f.f.i.' Q Q Q F F [ 5.j.n.j.:.G S Y G Q ( :.:.Y F 6.~.!.!.!.!.U.V.n.n.J.Y.T.K.J.L.J.m.J.T.R.K.K.I.R.W.Q.~.L.B.J.R.P.D.J.B.Z.Y.Q.~.Q.I.R.T.W.W.K.B.Z.L.W.D.) L e.N.d.x.x.k.p.f.x.j.p.k.k.f.p.9.,.p.m.x.k.x.B.Z.m.x.m.Z.J.Z.Z.B.k.k.x.k.B.x.k.x.B.Z.B.m.B.x.k.x.m.B.j.| ",
"{ { 9.m.Z.J.F.N.d.q.@.) ~ U U U S V S B M W a.N.F.R.R.D.D.6.F Y $.{ L E p.B.j.w.x.N.x.w.1.w.p.q.q.j.D.T.R.P.P.Y.R.Z.j.f.B.K.B.9.{ #.1.p.k.9.1.f.K.P.D.x.f.n.J.Y.Y.~._.).~.~.~.R.K.K.m.] M ( m.B.f.3.:.6.j.N.V.J.V.B.n.6.| <.j.n.p.1.1.i.f.n.k.9.k.9.q.k.k.k.n.m.:.' Q Y F ! 5.f.N.n.x.:.R Y ! ! ' [ 3.<.Y F 6.~.!.W.W.U.J.N.n.N.T.T.K.D.B.J.I.L.T.W.T.K.K.T.W.W.Q.).R.D.K.Y.P.K.K.Z.K.Q.~.~.W.L.I.R.W.T.J.D.P.W.~.B./ L e.c.k.c.m.x.x.x.f.p.z.x.p.p.p.9.,.p.B.B.m.m.B.B.m.k.x.B.K.Z.Z.m.h.h.x.k.B.m.x.B.D.J.B.x.B.p.p.x.m.m.w.] ",
"o.$.9.p.x.B.N.x.k.w.@.( U J J L n B D V M U 6.x.L.R.!.D.M.3.G Q o.( K ' B.I.Z.N.K.K.Z.f.9.9.p.f.x.B.P.T.P.K.P.R.I.B.Z.N.p.k.k.$./ [ ,.h.x.w.p.Z.).Y.B.p.i.x.D.P.R.Q.).~.R.P.K.P.R.Y.m./ c ( k.j.i.3.:.i.n.J.L.I.V.V.N.6.<.i.j.f.p.i.f.h.f.x.B.z.f.i.f.f.w.p.N.D.i.:.{ ' ' 6.n.n.h.a.i.3.| :.6.6.:.:.6.3.Y F 6.!.W.W.R.L.B.N.V.L.T.I.J.B.B.J.I.R.Q.Q.T.J.K.W.Q.W.Q.).R.Z.Z.D.J.K.D.B.P.~.~.Q.R.K.K.T.T.K.J.I.R.Q.Y.p.L L q.x.k.N.m.k.m.x.9.9.h.p.w.i.p.w.5.k.Z.B.m.n.n.n.x.k.x.B.K.B.B.m.h.j.x.k.x.j.j.m.D.D.B.x.m.w.i.m.m.h.,.( ",
"$.1.9.w.j.m.x.x.c.t.=.) U S N V z N L J B R 1.s.I.U.R.N.a.| G ! :.o.( >.D.I.B.Z.P.P.K.x.w.w.k.N.D.K.Y.I.D.B.K.W.L.B.K.K.p.h.x.>.{ >.i.z.x.k.m.R.[.Y.f.1.w.x.J.Y.Q.Y.R.).R.B.n.Z.R.L.f.L c ] k.r.i.5.5.a.N.J.L.L.K.P.B.h.a.h.a.6.i.h.m.k.p.x.D.B.j.x.m.f.q.k.Z.B.j.i.5.<.6.N.J.n.h.6.6.i.a.n.n.h.<.:.6.<.Y S 5.W.U.W.U.J.V.J.I.W.I.K.J.D.B.B.J.I.Q.W.P.J.I.Q.Q.T.R.W.J.x.x.m.m.Z.B.B.K.Q.Q.R.Y.D.I.I.K.J.K.T.T.Y.B.*.S L 7.x.l.N.x.z.m.k.>.>.i.5.9.w.f.p.i.x.Z.B.z.k.k.x.x.x.m.D.D.m.m.x.f.k.n.z.f.p.i.k.B.D.Z.B.z.i.h.B.m.p.1.o.",
"3.w.w.w.x.m.x.m.c.t.=.{ ~ S n n n S E U D E *.6.D.D.J.j.<.( F Q w.p.9.f.K.J.n.m.J.P.K.n.i.p.B.P.K.P.I.J.m.z.Z.T.P.B.D.K.B.K.D.9.9.x.B.B.B.Z.Y.'.'.K.p.9.k.Z.Y.~.~.Y.Q._.Q.m.f.m.Z.x.>.F M $.m.i.i.i.a.n.B.V.J.V.L.L.N.f.j.h.6.:.p.x.B.k.w.x.J.D.B.Z.B.k.k.K.P.M.x.a.a.h.n.J.L.N.h.6.i.j.V.I.J.j.<.:.6.<.Y A <.U.U.U.P.J.J.I.W.!.K.J.D.J.Z.m.B.J.W.T.K.J.T.^.W.K.K.K.x.w.p.k.x.B.B.m.K.Q.R.Y.P.D.B.N.m.D.I.T.T.I.k.{ S L 1.k.c.Z.x.n.n.i.:.1.q.1.i.p.j.j.f.m.Z.n.h.f.f.k.x.m.Z.K.Z.n.x.z.f.k.x.k.f.p.f.k.B.Z.B.B.w.9.k.B.k.i.w.5.",
"9.p.i.p.n.x.d.m.k.7.X...( L N N S L ( W L W +.1.j.j.M.i.| Q A Y f.m.m.N.I.P.B.B.K.R.P.k.9.f.K.^.Y.Y.I.Z.j.p.m.P.K.m.Z.P.P.Q.P.f.x.P.R.K.J.Y.~.[._.J.k.x.D.P.Q._.Y.R.~._.Y.x.k.B.p.5.{ K Z >.B.k.j.n.N.B.V.B.B.N.J.J.j.h.N.n.3.:.w.x.B.f.q.m.P.K.D.B.m.x.B.I.Y.B.n.a.f.j.N.J.I.J.n.i.a.V.U.W.P.n.r.5.i.5.Y A :.L.W.R.I.L.U.W.W.U.D.B.B.D.Z.m.B.K.W.T.K.K.W.).R.B.D.B.f.9.k.m.B.Z.B.B.K.R.Y.K.K.Z.x.h.n.D.I.K.J.K.p.{ H L +.s.c.N.m.Z.x.1.1.w.p.i.k.j.k.k.k.B.Z.k.f.p.p.k.x.m.B.J.D.m.n.x.k.k.x.f.z.x.m.B.Z.B.x.k.1.9.h.x.f.i.p.w.",
"i.f.p.p.n.f.q.x.t.=.{ ..{ E S V U E _ ( L W +.<.6.6.j.r.{ E A G p.Z.Z.D.Q.Q.P.P.Y.~.Y.j.,.h.Y.`.Q.Q.R.Z.f.9.k.D.B.B.D.P.Y.W.P.k.B.~.).I.P.W.^.'.~.K.B.J.Y.Y.Q.).Z.Y.).~.K.x.x.Z.9.:.{ L S >.B.x.n.B.J.J.V.B.N.n.J.D.n.N.I.B.6.<.9.k.m.p.r.B.R.R.B.z.x.m.B.J.P.J.x.i.i.h.j.B.L.L.B.j.n.L.W.W.K.j.j.f.j.i.Q A :.J.^.!.U.U.W./.!.L.B.n.m.D.B.m.D.W.W.T.K.I.~.).T.n.D.B.p.i.N.K.D.K.Z.Z.P.R.P.K.D.Z.m.n.m.K.K.m.k.x.p.{ L L [ w.x.c.B.K.z.>.q.k.k.x.m.x.z.j.k.B.B.k.p.p.p.f.k.x.m.Z.K.B.B.B.x.x.m.k.m.B.J.K.D.m.p.9.q.i.z.x.f.f.k.p.",
"w.x.x.k.m.x.f.s.7.@.&.2.+.L V L I W ( W E ( } *.| 3.x.5.( L A L p.D.K.D.Y._.).Q.~.).I.k.f.Z.P.J.K.~.Q.Z.k.x.m.x.x.B.K.R.~.Q.D.k.D.^.~.D.K.Q.).^.K.Z.Y.Q.K.W._.I.k.K.Q.I.B.k.z.x.:.i.,.K Z >.Z.B.h.J.W.!.W.U.I.J.B.x.N.U.U.B.j.n.m.f.f.w.w.K.~.N.f.x.Z.B.m.Z.Z.k.r.i.i.i.x.L.U.K.B.B.V.L.U.I.V.n.B.I.I.V. .v ' J.W.!.!.W.!.^.W.D.n.x.z.m.B.J.J.J.K.K.I.W.W.T.K.D.B.k.k.B.K.K.K.I.B.Z.Y.Q.P.K.P.I.K.N.J.J.z.p.i.,.p.$.P H ) w.k.s.B.m.x.f.p.p.k.m.B.m.j.p.k.m.B.N.x.k.f.f.f.h.m.J.B.B.m.x.f.p.f.x.m.D.P.K.N.k.h.h.p.f.x.m.k.k.j.w.",
"9.m.D.N.m.k.p.e.7.*.*.1...L V J J I E E W _  .*.| *.a.3.( G M G r.D.Y.Y.Q._._.)._.~.L.B.D.Y.Z.w.Z.R.Q.K.N.m.k.9.1.k.L.Q.~.Q.K.x.I.~.Q.D.P.Q.~.Q.Z.B.Y.~.R.~.).D.n.K.R.T.Z.k.w.9.p.f.,.K Z :.B.N.N.I.^./././.!.I.x.h.N.I.U.B.n.N.x.p.1.,.f.Y.R.x.k.x.B.Z.B.D.m.5.6.a.h.h.N.I.I.J.N.V.L.I.I.J.B.N.I./.~.L.:.c ( D.W.W.!.!.!.W.L.N.m.m.B.Z.D.D.B.B.K.I.I.I.T.W.K.m.n.k.x.B.K.P.Y.R.Z.B.K.Y.P.K.P.K.K.J.K.D.f.5.9.w.m.1.E H / 7.t.q.k.m.m.k.p.f.x.m.x.x.x.h.z.m.B.B.B.x.k.x.x.m.B.D.x.m.m.n.h.p.p.f.m.Z.D.Z.m.k.k.x.f.f.x.m.p.w.r.1.",
"1.B.K.B.x.k.w.7.7.=.=.1.{ J N S V S D L W { +.*. .*.r.*.E D M G 9.D.Q.~.)._._.'._.R.K.P.~.Q.m.,.B.Y.W.L.Z.B.f.>.$.f.L.~.~.R.K.Z.Q.~.R.P.W.~.R.Y.D.B.P.Q.W.~.~.D.D.K.Y.Y.K.x.i.9.m.p.{ S S >.B.Z.D.I.~./.].].^.L.a.f.N.I.L.n.j.n.x.f.>.>.B.R.K.f.x.f.k.m.B.D.m.1.5.f.n.N.V.U.I.V.n.D.U.U.L.V.B.V.!.].'.U.:.c ! V.W.W.!.^.!.L.B.n.B.D.J.K.J.B.m.n.J.K.J.Z.K.Q.I.n.x.m.B.Z.J.Y.W.W.D.B.Z.L.K.K.K.D.D.K.J.m.p.3.9.x.D.w.W H / 1.q.8.w.n.B.k.i.f.x.x.p.k.x.z.x.m.Z.Z.B.m.x.m.B.B.B.B.k.m.B.m.k.w.9.9.k.x.m.m.x.x.x.x.p.p.x.n.w.>.>.,.",
"1.m.B.k.k.x.t.1.2.=.*.*.` L V S n n N L ( } +.}  .<.6.( A C M G 1.N.R.^._._.).[.Q.K.D.Y.~.R.Z.k.D.R.Q.P.Z.B.x.w.w.k.D.R.~.Q.I.J.Q.~.R.Q.).~.Y.P.P.B.Z.P.T.~.).I.Y.P.I.Y.K.B.m.m.k.>.E Z K 3.Z.J.J.I.W.~.`.`.W.V.a.j.B.J.N.i.6.a.k.m.w.i.P.R.m.f.z.w.q.f.x.Z.B.f.5.h.N.B.J.I.P.V.N.L.W.W.L.V.B.V.W.].`.W.:.c ! V.W.U.!.^.W.J.N.N.Z.K.I.K.J.D.m.n.B.n.z.n.J.T.K.m.B.K.P.D.D.R.Q.R.J.B.Z.K.D.D.D.B.N.J.m.h.h.p.f.K.D.9.E L ( 1.q.q.9.x.m.p.9.p.j.p.i.f.k.k.x.B.Z.Z.m.m.m.m.B.B.N.N.m.B.B.x.p.w.9.9.p.f.k.z.x.z.x.x.9.1.f.x.w.:.3.9.",
"9.f.i.5.f.m.k.q.7.1.=.@.( L S S n z n L ) } { ) ) <.3.A i v M A | p.B.I.~.).)._.P.B.B.I.Q.Y.B.x.D.R.~.Y.D.D.Z.N.k.x.B.P.Q.Q.L.B.I.W.Q.~._.Q.P.P.Y.Z.m.D.Y.~.~.R.P.P.P.K.Z.B.Z.K.w.[ L S T 9.D.L.L.U.R.U.W.W.J.n.h.n.V.B.f.<.:.6.j.D.N.B.R.K.f.k.h.q.w.f.k.m.B.n.r.j.B.B.D.I.L.B.V.I.!.W.I.J.J.J.U.`.`.W.:.c ! J.W.W.!.!.I.B.N.D.D.L.I.K.J.J.J.D.m.i.q.n.J.D.B.B.D.Y.R.J.D.Y.Q.R.D.B.D.K.Z.B.Z.B.B.B.p.i.m.m.B.Y.Z.9.~ E { 1.w.u.p.x.x.9.>.w.p.9.f.f.p.p.x.Z.D.Z.m.B.Z.B.m.m.N.B.Z.Z.n.p.9.w.i.w.9.p.j.x.x.z.k.k.>.>.p.k.w.1.9.9.",
"1.9.:.$.p.n.k.s.e.q.1.X.( P J J n z M L _ { ! R L ( ' z t M M v ( 1.k.B.Y.Q.R.T.D.x.n.P.Q.P.x.q.m.I.~.Q.Y.P.L.K.k.k.m.J.Y.K.m.f.B.L.T.W.~.R.P.Y.P.Z.m.Z.R.Q.R.P.Z.K.K.B.x.x.m.Z.w.| E L / q.B.D.K.I.I.D.N.N.n.h.j.N.B.j.5. .:.i.j.D.D.K.R.B.p.n.f.p.k.B.x.h.f.s.i.n.B.B.J.I.L.N.J.I.W.W.U.L.P.I.W.]._.I.:.c ! J.!.!.W.L.N.x.N.L.K.I.I.J.J.I.Y.I.B.i.i.N.J.N.n.D.J.Y.Y.D.D.P.Y.P.m.n.Z.K.B.m.Z.Z.J.m.p.h.B.J.D.P.B.1.( ( +.1.e.k.x.m.k.1.:.5.w.9.x.k.p.p.x.Z.D.Z.m.Z.D.B.x.n.B.D.B.m.p.1.1.p.f.f.w.f.x.m.n.z.k.k.1.1.p.k.p.w.9.:.",
"{ #.#.:.r.w.q.s.x.k.w.&.( E P L m x M I ) ( L A M N D z c F M v ] w.x.m.K.T.K.B.x.x.B.Y.W.J.k.w.B.P.Q.Q.Y.P.K.D.p.f.k.m.x.i.1.1.f.B.D.D.P.Y.I.Y.P.D.m.B.Y.Y.D.D.B.D.B.p.1.p.x.x.p.,.[ Q / 5.n.n.J.U.I.n.i.6.a.h.n.B.N.a.:. .5.f.x.Z.D.P.W.Z.k.Z.x.k.B.K.m.w.1.3.f.n.B.B.J.U.L.N.V.P.W.W.I.I.U.!./.[.~.J.[ j ! J././.W.N.i.i.n.L.I.R.I.J.K.T.W.Y.m.h.z.D.K.B.Z.P.P.P.K.Z.B.Z.Z.Z.h.f.m.D.B.B.Z.Z.J.m.m.B.B.D.K.K.k.$.W ( ..=.w.c.m.B.x.w.>.1.w.f.n.x.k.k.x.N.D.A.Z.D.Z.n.k.m.D.K.Z.m.i.>.9.h.j.i.p.j.m.m.k.f.f.k.q.w.f.h.f.f.9.' ",
"E ] #.3.1.#.$.e.N.M.s.=.) E E U M x B I ( E A z z y l M L Q C M $.m.D.Z.K.P.B.f.9.x.P.Q.I.Z.m.B.J.Y.R.Y.K.K.D.Z.p.h.k.p.$.( ] $.w.x.x.k.Z.P.Y.Y.R.J.x.m.D.D.B.Z.D.J.n.*.| e.m.m.p.5.#./ Q 3.z.h.L.W.W.N.5.3.a.N.N.V.N.i. . .6.j.B.B.B.P.W.K.B.K.B.n.D.P.m.9.>.:.h.N.B.B.L.U.L.n.N.K.R.W.I.P.W.`.`.].W.N.! i ! J.'.].W.j.#.<.j.J.W.W.T.K.P.W.W.I.n.n.B.J.K.K.I.W.T.P.J.B.n.x.z.k.p.w.n.Z.B.Z.D.D.D.n.J.P.B.B.P.K.q.] L W [ +.q.M.B.B.m.f.1.,.i.x.m.B.B.n.c.B.A.D.D.D.B.k.k.N.D.K.D.B.p.5.i.z.h.5.p.k.n.x.p.w.p.j.w.i.f.f.f.x.9.Q ",
"/ Q $.e.1.[ *.r.D.c.x.a.| Q W E v t l L Q ! R v r < d ! <.[ M v $.B.P.I.Q.P.x.f.f.B.Y.R.P.J.K.K.P.I.F.N.N.A.B.k.q.c.d.>.+.[ ..e.m.k.m.K.P.Z.B.J.K.m.k.x.B.D.Z.B.W.V.3.{ 6.V.V.h.i.i.6.' T :.h.j.P.W.R.n.i.f.n.N.V.h.f.a.3.:.h.V.K.L.K.I.Q.L.J.W.P.B.V.J.n.6.6.6.D.B.N.V.P.R.J.j.j.M.D.K.I.W.!.~.`.`.P.n.( d ' I.}.}./.n.| ' 6.V.W.U.W.W.T.W.W.I.N.n.B.R.W.W.W.U.I.T.K.B.D.m.p.,.p.m.N.m.V.D.J.K.B.J.J.V.B.V.D.V.| M M L ( *.e.A.A.B.x.t.q.e.d.x.N.B.N.c.M.B.M.x.x.N.B.d.k.A.P.A.D.N.x.k.k.d.s.p.s.j.x.a.e.e.e.r.r.r.f.d.k.x.q.Q ",
") ) 2.j.6. .1.s.V.x.j.s.*.! R L l t d A G Q Q A 2 2 z ( 6.{ v x ] x.D.K.T.P.x.k.x.D.R.R.P.K.K.K.P.P.Z.d.d.M.M.k.s.M.s.$.1.p.d.c.D.Z.K.P.K.m.f.f.f.1.1.f.B.Z.Z.Z.U.M.6.5.n.K.B.i.i.j.a.' Q 3.M.N.J.K.J.n.n.B.V.N.n.n.h.r.:.r.N.I.U.U.P.P.P.V.D.R.B.V.K.J.n.j.M.N.I.J.V.J.P.P.B.n.h.j.n.M.V.P.W.!.~.~.J.n.' c { W..X}.^.N.3.| 5.h.K.P.W.W.U.W.!.U.N.j.N.U.W.R.R.P.J.K.J.B.J.B.h.i.m.J.J.D.J.J.B.V.B.V.V.V.V.J.V.B.[ l j A ( 1.a.N.N.B.c.x.d.d.k.x.N.N.M.x.x.c.x.s.c.Z.N.s.s.N.P.F.Z.M.x.k.d.k.x.x.k.x.d.e.q.e.a.e.r.r.d.d.d.g.3.Q ",
"/ [ e.M.a.*.q.x.c.s.s.h.<.! L D l d l x M L L M ; 8 M ( r. .z c Q f.Z.D.Y.P.B.m.D.R.Q.Y.K.P.L.D.F.P.Z.s.s.M.M.d.s.d.2.+.s.A.A.c.B.D.P.K.B.f.1.$.| ( { f.D.D.D.J.L.N.j.N.I.I.N.6.f.N.h.' ! i.J.J.B.n.j.N.J.J.N.h.N.B.j.<.:.j.I.!.W.U.L.J.n.N.V.V.h.V.U.J.n.J.!.W.W.I.J.J.J.V.N.N.a.i.6.i.x.V.I.W.W.W.V.h.' c | W.{.`.W.B.f.6.5.6.n.V.R.W.U.W.!.R.J.n.B.I.U.U.U.L.D.K.D.B.J.J.B.B.J.T.T.I.I.K.B.B.N.N.N.N.V.J.B.n.| l i N [ e.d.M.c.m.M.m.c.x.x.x.c.c.c.x.x.x.x.d.N.A.M.e.w.c.F.D.x.x.x.d.d.x.M.N.M.c.d.e.r.e.a.e.e.a.h.d.h.h.1.R ",
"R ) s.N.s.1.e.M.e.3.r.s.<.( L M z A A v v A A d * t x L 6. .l c ( k.K.L.R.I.D.D.R.).).Y.K.P.L.Z.A.P.D.x.k.N.N.s.t.1...=.m.P.N.t.p.m.D.B.x.p.9.>.' Q o.m.P.D.D.L.L.D.J.W.^.P.j.6.j.J.h.! ' x.I.P.N.h.a.n.V.N.i.3.N.J.j. .<.V.W.W.R.J.J.B.j.N.B.h.i.V.U.V.N.W.`.!.J.L.J.B.N.B.N.n.6.:.| 5.n.J.I.I.U.I.N.i.Q l ' L.U.L.V.N.n.h.i.6.h.N.R.!.U.U.W.R.P.B.B.K.K.P.I.J.L.J.n.n.J.K.K.T.I.W.T.I.Y.K.B.B.M.n.n.N.J.J.N.j.<.c y x ) s.j.x.d.x.x.x.x.x.x.x.x.x.x.k.x.x.c.c.Z.Z.x.q.q.x.B.c.e.d.x.k.f.x.N.A.N.v.j.s.a.s.a.e.h.a.a.a.h.g.<.G ",
"L ( a.N.e.*.6.j.2.<.r.h.2.) L N v L R A M A z t 2 t d M  ._ d c | B.R.R.Q.R.P.Y.).'._.R.P.Y.I.J.N.D.N.k.f.c.c.s.s.{ ) q.Z.F.M.d.p.B.K.Z.m.n.n.k.>.#.w.D.I.Z.Z.L.R.R.!./.W.N.i.6.n.K.a.Q | V.W.U.J.N.n.B.N.h.5.:.N.L.j.:.a.I.W.I.P.V.V.V.N.J.V.r.f.V.I.B.V.^./.J.i.n.n.a.f.B.B.j.3.{ [ 6.J.W.I.J.J.J.h.6.E l ( V.n.n.n.n.N.N.n.j.n.V.R.!.U.R.!.U.I.B.B.V.B.J.L.J.J.n.5.5.n.D.L.W.T.W.I.J.L.D.B.D.N.N.B.V.L.L.N.a.*.c r l W y.f.y.s.s.s.s.f.k.x.c.x.x.x.x.x.x.c.N.A.N.k.q.t.x.x.t.2.s.c.x.d.x.M.N.x.j.h.h.j.j.d.h.x.r.2.6.a.j.*.A ",
"G ( a.v.q.+.<.r.r.3.a.j.2.) L N x I R D D D z d d d g v ! R d v +.D.~.Q.~.R.Y.~.)._.).W.Y.P.K.J.c.x.s.2.1.9.e.t.q.~ / e.c.c.N.A.D.R.Q.Y.J.D.K.J.m.n.D.R.Y.Z.Z.I.W.!.^.R.n.3.*.3.n.J.i.Q :.V.U.W.I.J.B.B.N.h.6.5.N.P.N.i.D.~.R.L.J.B.B.J.L.U.J.f.N.B.D.B.V.W.L.i.[ :.<. .5.n.N.f.6. . .h.U.!.I.V.N.N.i.3.E l ! N.h.h.j.j.n.N.V.V.V.J.U.W.R.W.!.U.I.D.V.V.N.B.K.J.z.3.' { i.n.D.R.W.R.K.D.J.D.B.J.B.V.D.J.I.L.n.i.[ z y l E 4.r.8.s.s.s.s.s.x.M.Z.N.c.x.x.k.d.k.c.A.B.x.t.s.x.s.1.2.d.M.x.d.d.x.x.q.6.r.h.j.g.h.d.j.2.*.*.6.h.*.A ",
"G / r.x.q.*.3.r.a.6.a.s.+.L M l l G D B D D B B S z M G R A i m ] B.W.R.R.Y.Y.^.).~.Q.Y.D.n.z.x.d.q.>.$.o.| *.2.{ R { s.s.f.Z.Y.~.).).Q.Y.K.K.L.P.Y.Q.Q.K.m.Z.R.R.R.I.x.#.Q Q [ a.N.6.Q :.M.J.R.I.V.x.j.j.h.5.#.h.V.N.n.I.I.M.n.n.M.n.N.L.L.N.n.V.n.x.n.N.V.j.{ R L L Q #.r.f.a.h.6.r.B.R.W.L.V.M.M.r.:.Y d L i.x.j.a.a.j.N.D.L.J.D.L.I.I.W.!.I.J.V.D.B.h.f.j.h.| ( Y ( 3.9.f.Z.J.D.m.n.B.B.N.D.B.V.J.L.L.D.j.3.W z g x I -.-.*.t.s.d.k.x.c.N.A.Z.M.x.k.s.w.t.k.N.M.x.p.e.e.9.*.7.k.c.k.e.e.p.e.<.<.3.r.e.q.q.e.e.<.| { *.6.| A ",
"D W q.x.r.<.q.s.a.6.r.6./ M s 9 l A M v D D A L R M L ! R v t v W x.P.P.Y.P.I.).~.R.Y.P.m.9.>.9.e.>.$.=.@.[ { *.R E 1.c.s.f.F.R.).^.~.Q.P.D.D.D.P.R.Q.I.m.f.m.P.I.I.B.3.E A F R 3.n.3.Q  .h.N.R.J.x.6.5.i.a.:.! :.j.j.j.D.x.*.<.a.j.h.j.V.N.j.N.D.j.a.j.x.j.3.Q Y v l G { :.5.a.N.j.x.J.U.I.D.V.B.B.i.:.G r v | N.j.r.r.h.N.J.I.L.B.B.V.J.R.R.J.N.N.B.j.<. . .[ L F F E [ [ | p.f.p.q.i.x.x.k.B.N.V.J.J.D.N.e.*.L l z M D { _ ^ q.t.d.c.M.N.Z.Z.N.c.x.d.e.7.q.s.x.c.x.e.2.1.=.+.9.d.x.e.1.2.7.1.*.*.<.2.1.*.*.3.2.+.{ [ { *.{ D ",
"M ! 2.a.a.s.h.h.a.s.s.1.L y 1 < t d d y i v D G D D L L S z g l L 1.B.Z.K.Q.Q.K.K.W.Z.z.m.:.K ( 7.x.q.*...[ 1.q.| >.s.c.N.Z.F.P.Q.Q.~.Q.K.D.Z.n.Z.K.K.m.p.k.m.f.x.n.f. .! ( [ ' 3.a.:.Q [ h.N.N.M.3.| <.6.*.( Q :.' Q ( ' ( ( [ 3.:.<.a.n.n.j.f.h.M.j.5.r.r.#.! ( C l F '  .<.i.x.N.L.I.D.D.D.N.I.D.i.{ L d d Q r.i.6.3.i.B.L.J.D.N.N.N.D.R.I.x.j.N.M.3.Y M c M j A R Q L C M A L L Q ' | :.r.j.j.j.N.V.M.4._ I S x z M M n J _ e.d.x.x.x.c.c.c.Z.Z.k.1.1.p.d.e.e.1.q.e.+...1.1.2.d.x.9.1.9.7.$.$.1.r.r. .Q R ( +.[ / ( { { R M ",
"z Q 2.h.h.h.g.j.h.s.y.*.F 9 * * 1 8 8 1 1 0 i d l z v v l i d v S | f.x.B.K.D.m.x.K.n.w.w.E c K p.M.s.2.@.[ 1.e.p.x.Z.D.Z.N.N.F.I.P.P.J.m.m.n.f.h.m.B.f.>.1.i.9.d.j.h.3.*.3.i.h.j.j. .L E *.5.5.| Q R { :.| ' (  .! L L L L Q [ | | <.i.j.f.r.5.a.h.3.{ #.:.[ Q [ Y F E ' [ [ #.3.r.x.j.i.i.j.h.M.x.5.[ L i u L { { [ [ <.x.B.N.n.h.h.f.h.n.j.*.[  .[ F u 3 1 1 r d M C z i r r 8 e i z C D Y Q ! ( [ [ / G m l x z c B N x S W 7.e.f.f.f.k.f.s.c.x.w...| 1.7.=.| / [ ..( ) *.=.2.s.s.1...@.=.*.2.6.r.2.) D M A Q Q R W W L A c ",
"z R 3.s.f.a.a.s.e.r.2.{ N 2 % * ; 1 < * % ; 1 1 8 r y t 8 0 d N A ( 5.f.x.n.k.w.p.m.p.$.] Z j K s.c.q.1.../ @.w.c.F.Y.L.N.x.x.M.D.Z.Z.x.i.p.f.p.9.f.x.w.o.$.w.r.d.j.h.a.a.x.V.I.L.x.[ A D R R Q N m D /  .| | *.{ / R I L L Q [ ) [  .<.<.*.+.*.a.6.[ R ! ( Q R Q L L R R L G F L R [ ( L R ( ) { { [ ! F i i A L G S F ! *.3.<.*.{ { { [ | / A l l d 8 ; * ; ; < 2 t i r 2 ; ; % % ; 1 2 2 7 0 d i d d y 0 8 t z z M D V n V U +.1.9.9.9.q.2.1.e.q.+.W R ) ] / L A F L L E ] ] { @.+.) R E ( [ *.*.<.+.R c s d A A L R F c l c ",
"A R +.6.6.3.<.*.<.*.| ! m 8 < 1 1 2 2 < : < 1 1 8 r t r r t z A F Q :.p.h.p.5.$.9.p.$.( T C C ' 2.9.[ ( / L ) $.k.Z.L.A.x.s.f.x.m.x.z.q.o.$.w.f.1.w.f.w.>.9.z.k.c.h.r.r.d.N.L.U.L.a.R m N A m N l v G / { {  .<.[ [ | } [ Q R ! W ! / ! R Q )  .3.*.! L R L F L N A A A N M c d d c A N d d v v c M A A v s l D S M z z A L L F G A D F D D m y 1 1 1 < 1 2 2 2 < 1 8 r r 9 2 1 ; ; < 2 2 1 < 1 3 1 1 3 1 2 0 d x M S L D B V E ( [ | { [ { [ ) | [ R A Z L L K N m M A F K L K L L L F N N H T W W / / L c l z m M D L A l l A ",
"L Q [ +.*. .[ ( { ( W L m t 8 r r r r r 0 r t t i d d d l v M M Z T { 1.1.#.' Q ' ] E K K Z K ] ) ) F F L H E / 1.s.c.x.e.q.e.t.1.1.>.( K E :.w.1.1.9.5.1.p.k.p.q.+.( [ 6.M.D.F.s. .D v A N c v v A L W ! ! ( [ Q ( {  .[ R D A D G L A N A I ( [ [ W L L F N A z m M M N A m l l v A A l d d t 9 9 y s i s m G D M z z M N m c z l c m v c d 8 2 2 2 7 9 r 9 8 r r t i d d i i 8 2 8 t i i i i 2 2 7 8 8 0 s c B B D L D V J W U E R L H H H F H F N c m S F A N N M M Z M l a m M N N M M N S A A L L F m m A A N A F A c N L ",
"( / ) { | [ / ! ( R G F M d y y r t t t i d g l z z l z v M M c m K / { ] E K Z C Z C Z Z m m K L E A A L L P L W | =.$...o...{ T L K M d M ( $.$.{ o.$.:.1.>.' L N z M ) s.c.j.[ Q A A R L S F G L R R L R R R L R E E L D v l l m A N N A L R R / W L R L D A c M D L I R L F L L R R F N z 0 r 2 8 r r l F L F N M A D F S D N v A D M m l t r r t i d i y i l g g l z z l d i i d z M v x x i i d j g d l m D D L U I J I W U E L S M M M m m m m b N H H S N F M c b f e 8 l M S A Z S S S A A F F N z m G R L L L L G R ) ",
" . .+.*. ._ / ( ! G M N N z s y t t t d l z v M M M x z x M A M Z E { { ( T K C M M Z S Z k s k N ~ R R W E T Z Z L R R E ~ P S c j d u u C / ] { ] | >.>.$./ C k l d l I 4.y.3.W ( W ( +.} _ [ { { _ W W _ [ _ _ / E E E I D M x B F D L W ) _ { *._ W _ { W L x D ( *.-.*.| | *.{ | } { ( D s d 0 r i d B E I L S F R E I I W I L I R D S M g g g l c z g g x M M v x x z d i l z M L E I G D A A D L L D D L E W _ { } _ _ _ ( ] ( E P P P L K L L L P T L S M S c t a s e p d F W R L E ( ) W W W R F M F !  . .{ [ ) [  .<.",
"1.2.q.q.*.( / _ E A c M Z m d i s i s g v M A F F D A x v S L L T o.7.>.{ ' E K Y Y T L M d t d b ] | [ ) ~ P M m A H F L R F c d e 9 t j L ] ] ] ] *.r.9.:.E c v D S B W 4.e.*._ *.-.3.y.y.4.q.r.q.-.} *.4.r.4.4.-.| { *.*._ E L I T I / *.2.4.e.s.*._ $.2.| I M I 3.x.v.f.y.f.g.r.4.r.r.2.( m z y a l n I ` E U L L / / R R ( / E ^ ( U L S M N M N M z d d x B B A V M z d t l x L _ *.+.{ _ / ! ( { o.| { { ` { ;.r.w.4.&.{ +.*.=.@.+.$.*.@.[ { { [ ) / L A M A d 7 t p s b f R +.{ ( @.q.p.2.3.1.*./ R ) 3.w.a.e.2.1.3.w.e.",
"@.&.1.8.@.^ E ( L S V S J J S N h h z b A E ) ` ( ` / J J ^ ` ( | 5.x.n.f.3.| ' | [ #.#.Y l u t m ) >.[ / [ W M m Q ( A l B A v j t 9 y v L [ *.*.*.3.h.c.r.W z L Q W / *.3.<.*.6.1.6.j.M.j.a.a.j.h.<.*.s.N.A.D.F.N.x.x.x.x.a.4.2.| T R 5.m.m.k.n.e.$.$.p.d.o.N l { V.R.U.F.V.N.N.Y.D.x.M.v.| m c h z S ~ [ ....~ ^ ( / ( ` ) / ( ) | +.{ W L L H L L F N N N S P E E L A c f d f b L >.c.x.s.x.d.f.f.x.m.x.k.d.k.s.s.M.A.k.2.q.w.x.Z.Z.m.m.m.n.h.k.f.w.p.w.{ L F A s 8 t j l v N | d.h.i.x.Z.D.Z.Z.N.j.9.9.p.x.x.m.m.n.k.f.f.j.",
"^ ( ` ` ( U P E U U P E ^ ~ P H M M n N P { ;.1.;.1.&.{ { &.;.;.2.h.B.D.N.j.i.r.6.3.6.3.Q l u u m /  ./ L Q R D L | { D z N F M M l d d v G ( *.<.*.<.f.M.y.R i G R R ! +.*. .+.6.*.3.j.j.3.<.e.d.r.+.<.M.I.L.C.L.I.U.U.L.A.M.M.f.f.o.E >.B.Z.k.x.w.$.$.r.w./ l c <.I.R.I.L.V.j.x.G.D.c.x.r.W c m N L ( &.2.q.q.@.=.=.@.{ ..X...=.*.1.q.9.+.) / W / / E H S L E ) @.*./ F N m k f l S 1.A.D.Z.L.I.D.Z.D.K.P.Y.R.P.D.B.D.P.B.f.x.B.Y.Q.R.P.L.L.K.B.Z.N.x.n.m.f.3.[ Q l e u l c M Q i.D.V.N.D.I.I.Y.I.J.m.f.f.k.m.B.B.Z.B.n.x.x.m.",
"L P U P P U U P ^ ( { X.@.{ / U V N N S E @.q.u.t.w.q.q.e.t.q.8.x.M.V.D.V.N.x.x.j.f.h.r.! z i l D (  .) R Q / / { 6.<.R N L R L A v l d d z D ! { ! W { -.{ M 8 M N A R [ ) ! [ *.[ { 3.+.R R  . .) R [ x.L.M.a.M.L.!.R.D.x.d.j.f.N.5.T ] m.D.k.j.w.:.$.9.1.T d c 1.L.L.N.c.r.[ { 3.2.*.[ L c d F W *.p.x.N.Z.A.x.c.x.s.q.q.e.e.s.e.s.c.M.f.2.*.=.2.7.@.~ R [ 1.1.k.x.@.R L A z k s m =.K.Y.Y.^.).R.K.P.R.~.)._.Q.Y.D.K.P.B.x.B.P.~._.~.Y.I.Y.I.Z.D.B.m.B.D.D.m.x.5.L j j c M A  .x.I.L.D.L.U.I.I.L.D.m.k.k.x.m.Z.D.D.D.B.B.B.B.",
"H L L J U ( ( P ( { =.1.1.@.) W J S N N E *.w.t.s.w.t.x.c.d.w.q.B.N.N.V.D.B.x.j.j.j.f.5.! l d A ! { *.*.| [ | +.*.e.q.) Q [ { ! B c d s t t l B L A z z z l t 2 d d z F W R L ! / R L R F l z D N m z F *.6.*._ <.h.N.M.q.| [ { 3.f.$.K Q p.m.f.w.1.:.>.9.>.T l d ( a.e.*.[ G l c B M c l t r d / 1.M.K.I.T.E.E.L.P.K.A.Z.Z.Z.N.M.x.c.F.L.N.x.k.x.N.N.d.=.+.w.M.c.A.B.q.{ E S z f y l +.A.P.Y._.Q.P.K.I.Q.~.Q.R.P.P.D.K.P.B.x.B.P.~.).R.K.D.D.D.x.m.B.N.B.D.D.D.I.N.#.F M M C F | j.L.J.V.D.L.V.Z.N.x.k.k.x.m.m.Z.D.D.D.Z.B.B.Z.",
"J L P P ~ { ) E ` @.7.q.2.@.` ( ~ P S H ( 1.t.t.k.u.k.N.Z.x.s.u.D.n.x.N.J.D.n.f.j.j.i.:.Q l l R <.3.r.a.r.3.*.+.<.r.q.*.+.1.*.! M l d d s t i z N v s 8 1 1 7 r i i d M G A M L A N v l s s d l i s i l S D A D R [ +. .! L L R ( { / Z T $.9.9.:.#.| o.$.| T m l A L L A l t 8 i s t t y t s N @.x.R.~.~.^.(.~.Y.I.P.P.R.Q.T.L.F.N.A.Y.Y.A.B.A.P.R.R.F.x.d.N.T.I.D.M.x.w.[ H b f p c | B.F.T.[.Q.P.K.I.R.R.P.K.K.P.P.Y.Y.D.n.B.K.R.Q.I.Z.B.m.x.p.x.B.D.D.D.D.D.P.J.a.( F C A L { j.L.J.V.D.J.V.N.n.k.k.x.m.B.Z.Z.Z.D.D.D.Z.Z.B.",
"L L L U ( { [ / &.7.t.t.2.+.{ { { ^ P U { q.s.u.d.d.c.A.A.c.k.x.N.j.f.M.D.V.x.h.x.x.6.| Q z c ' x.x.M.N.M.d.6.<.2.r.q.1.2.r.+.L c d d l d i d M A N l r 1 1 r d y i s l m z l m l l s 9 r d z l d l s y i t y z c M A A N A D L F L S M L ( ] ] ( / / / ( / K C Z v d d i t t t l l l z M m m G >.N.Q.^.~.(.^.R.L.F.D.L.E.).~.P.Y.F.F.T.T.A.N.F.E.~.~.T.F.D.Y.~.R.A.c.N.m.1.R N k d M | B.Y.(.|.).R.K.K.L.K.D.D.K.Y.R.R.R.D.m.B.P.R.R.K.B.m.z.p.w.f.m.D.J.D.D.D.N.D.x.#.E A A Y [ h.L.J.V.D.J.V.B.m.x.x.n.m.B.Z.Z.D.D.D.D.Z.Z.B.",
"E L L ~ [ | ....q.t.d.t.1.o.+.*.@.[ ~ ) 1.x.c.k.t.k.m.Z.B.c.x.c.M.j.j.n.N.x.j.j.n.x.<.( E c M *.A.D.F.D.V.M.j.a.d.h.q.1.r.h.*.L l s d z l d M R Q G v d d z M N d z z z M m v B N M z d d m A D A M l i i y s m z z l l z m A F A K Z Z E ] / E K K K L T T Y L / R A M A F A z m A A A L D A G o.x.R.Q.Q.^.W.D.D.D.Z.D.Y.~.Q.I.I.N.N.Y.R.F.Z.F.E.R.R.R.R.R.E.E.P.N.c.B.Z.s.) A z z N { Z.~._.|._.Q.L.D.D.Z.B.Z.K.Y.R.R.Y.J.Z.K.R.~.Q.P.D.B.f.5.>.9.f.m.B.Z.Z.D.c.D.M.5.' L A G Q r.D.D.M.N.B.N.m.m.m.n.x.m.m.B.Z.Z.D.D.D.Z.B.m.",
"( R T ( | +.=.2.t.d.k.e.*.| $.1.1.o.[ +.s.Z.A.N.t.x.B.N.M.m.m.M.B.M.M.N.M.j.j.M.x.h. .Q R v C 3.N.D.F.A.N.N.M.M.N.x.q.3.s.x.1.R l d z M c z L +.+.R v z A Q / ! m D D A L R R Q ( R L L G G R ) R G c l v m N L L F N m m A D G L Q T L ] 1.#.( Z Z Z K T E / ' 1.3.*.| *.3.[ A B G F D F D A G ] f.P.T.Q.~.Y.M.D.D.Z.D.P.R.W.R.A.x.x.L.R.P.Z.A.R.I.P.T.~.~.E.Y.N.M.c.m.N.x.| Z c c M ) N.).[.[.).Q.I.K.D.B.N.B.L.R.T.Y.Y.L.P.Q.)._.^.R.L.Z.k.1.o.:.9.f.x.B.D.J.B.L.V.a. .R A A Y 6.V.B.x.x.M.n.m.m.m.m.n.m.B.B.B.B.Z.Z.Z.B.m.x.",
") ) ( ) { @.=.=.p.s.q.*.$.2.1.+.@.{ =.p.k.c.N.c.k.M.Z.M.x.k.x.x.m.N.N.x.j.x.x.h.j. .[ :.[ A A [ 6.h.x.j.h.h.d.h.j.q.*.<.r.a.*.Q f c b d c L *.s.d.+.L L / *.*.o.W W Q W [ <.3.*.1.*.[ W ! } 1.6.[ G d d M D R +.*.! L L A v L | { $.o.o.p.m.k.i./ T L T T Q { >.x.M.M.c.c.x.r. .! m z z c z l A o.m.P.L.Y.R.P.D.D.Z.B.D.P.T.K.Z.x.q.p.F.R.L.M.m.A.N.D.T.R.E.R.F.k.s.x.A.A.x.o.N f c N ( x.~.[.).'.R.D.D.D.B.z.f.K.P.K.K.L.D.Y._.)._.).Q.P.B.k.w.1.>.p.k.m.B.x.N.K.U.J.5. .( M M L 6.M.j.f.f.h.j.x.m.m.x.x.B.B.B.B.B.B.D.D.B.x.k.",
"| ..{ ] ] { | | 9.e.q.*.*.9.9.=.=.@.9.k.x.x.c.x.p.k.c.m.x.s.s.d.x.M.N.n.j.f.i.6.5.' ' <. .D z C A G R I L R ! / ( W R E ( [ R A c c c l m W q.N.A.s.+.| 1.p.s.e.*.<.1.2.a.x.M.x.x.e.*.{ *.r.d.h.+.W A F Q ( | 2.2.| ! Q L G ! <.9.p.w.i.B.K.B.k.>.o.( E E { w.x.A.G.D.V.A.A.v.e.*.G c i y i d F 2.B.D.Z.K.W.R.Y.D.B.B.D.I.I.D.m.e.7.t.N.I.I.Z.c.c.x.Z.P.T.R.R.F.d.k.M.D.F.N.1.H k c Z / d.R.).~.Q.P.Z.B.m.x.x.x.K.J.B.Z.L.P.Y.).~.Q.R.P.D.B.x.f.p.f.B.m.k.n.k.N.I.R.D.<.{ ' A C L  .6.3.3.r.a.j.x.m.m.x.x.B.Z.B.B.m.B.Z.D.m.k.h.",
"o.$.$.{ ( ( ' ( $.9.q.,.1.i.p.w.9.5.f.m.k.j.x.x.w.w.f.z.f.w.w.f.x.N.B.M.j.r.5.<. .( [ 3.*.G i r 2 r r 9 8 r i s l c v M A F A m N m l l m / s.I.I.Z.d.p.f.x.c.c.y.h.x.v.N.F.L.L.D.x.2.1.a.M.N.v.3.[ / | 3.3.6.s.6.<.| ( W /  .6.x.m.k.k.D.P.Z.n.f.p.>.] ] q.Z.I.I.I.L.D.D.F.N.x.j.| L v z l l R f.B.m.j.B.W.Q.Q.K.Z.B.L.T.K.m.k.7.9.t.c.F.L.N.s.s.s.M.F.F.P.P.A.f.x.Z.F.K.F.t.P l b A ~ t.P.R.T.L.D.B.x.f.f.x.B.K.Z.k.x.D.P.Y.Q.Q.I.D.B.B.m.x.x.k.B.Y.B.p.j.x.D.W.!.V. .[ [ D C R ' [ [ 3.r.a.j.x.n.n.x.n.B.B.B.m.n.n.N.B.x.h.f.",
"o.>.>.{ ( ( ( / ] >.9.1.9.j.x.k.i.p.x.m.j.f.x.m.p.9.9.p.w.9.w.j.n.N.N.x.a.3.<.:.*.| #.<.| F i 8 8 8 r 8 7 7 9 r s z m m M A G L L A m c m R t.I.T.L.N.x.x.c.N.D.j.x.M.N.N.A.L.I.A.x.r.q.j.V.V.c.2. .*.e.h.a.a.a.6.6.<.{ [ *.6.s.D.Z.z.k.D.K.B.k.p.f.w.:.9.B.R.W.T.Y.L.A.V.C.M.d.M.e.1.[ ) L M ! z.m.h.r.n.I.W.Q.P.J.K.W.W.J.n.z.w.e.f.M.A.N.s.1.q.s.N.A.N.N.D.A.k.c.A.A.F.L.d.E b m N ~ q.A.I.L.D.Z.m.k.f.f.x.B.Z.B.f.w.x.D.P.R.R.K.B.m.m.x.f.p.p.N.P.x.w.k.B.P.~.!.B. . . .D v R Q ! | r.h.a.h.k.k.x.x.n.m.m.x.x.x.x.x.x.k.f.p.",
"o.1.5.#.] ] ( / / o.,.3.9.k.m.n.f.p.x.n.f.f.m.B.k.w.1.5.5.9.f.n.N.n.j.r.<.#.:.3.6.r.i.3.( C d u d l c c d s d l M F L A m N L Q ~ R H M M T q.P.T.I.F.N.M.Z.L.T.N.N.M.x.x.x.V.L.M.x.d.j.M.A.V.c.2.+.2.x.d.e.y.r.r.e.r.3.3.e.x.c.J.D.m.m.K.K.x.p.w.f.p.r.z.R.).~.!.R.U.L.D.N.x.s.h.h.d.e.r.) A ! z.n.p.q.z.J.K.I.K.K.T.W.I.B.n.n.k.s.x.F.L.x.q.7.q.x.F.A.k.k.N.Z.x.N.A.Z.Z.F.d./ N m N E 2.N.L.L.D.Z.m.k.k.x.m.n.N.B.f.1.9.k.D.W.T.K.Z.Z.B.k.5.>.1.f.B.p.w.m.D.I.R.R.B.3.3.:.C j D E ' 3.x.x.i.r.p.f.j.k.z.x.k.p.f.h.k.h.f.p.i.w.",
"#.9.w.1.$.$.{ / Q { $.$.1.j.x.k.h.p.f.x.f.f.m.B.x.f.9.,.1.i.k.m.N.j.5. .[ { <.r.i.j.x.r.Q c l M L Q / Q D z l m ! ) ) L N M L W { | ( F M E t.P.T.Y.P.F.D.L.T.~.L.N.h.2.1.6.j.V.N.N.N.N.D.L.A.M.6.*.a.M.s.6.a.e.h.g.j.j.j.M.N.V.J.J.B.D.R.Y.n.p.f.x.x.k.Z.~.'.).~.R.U.L.A.M.d.a.r.d.x.h.d.| D { x.m.z.i.h.N.B.J.J.K.T.I.D.m.n.n.x.d.m.P.L.x.t.k.k.N.P.A.s.f.N.N.M.M.N.M.N.A.k.{ S M M R 7.A.I.I.K.Z.n.k.x.B.n.k.n.B.k.>.>.p.Z.Y.I.J.D.K.Z.f.>.{ 3.1.f.w.f.Z.D.P.I.I.V.h.j.3.v t C ( 3.h.N.n.i.5.r.w.i.w.p.p.w.1.9.p.k.f.r.9.9.r.",
"#.q.p.w.q.w.>.] ( o.$.$.1.f.k.p.f.w.p.k.h.k.m.n.h.h.w.1.9.h.x.j.x.5.' R R ( *.i.f.j.j.5.R M F [ 1.6.y.4.) L G E 2.q.6.| R L Q ' 1.w.1.L m E s.I.Y.I.I.I.Y.T.R.Q.L.x.*.! E ( 2.x.D.D.V.D.F.L.V.x.q.<.d.N.r.3.f.h.x.x.M.N.N.N.N.A.Z.N.j.x.K.K.n.f.k.B.D.D.P.~.).^.T.I.L.D.N.x.h.a.e.x.x.a.h.{ G <.Z.K.B.h.h.n.N.J.J.K.K.B.m.B.m.z.f.k.m.A.N.d.k.B.Z.F.Y.A.d.x.N.N.B.c.c.c.N.A.c.7.L M b P q.F.R.R.P.D.x.h.x.B.m.f.n.B.f.$.1.z.Z.K.K.D.D.K.D.f.3.$.1.>.i.f.m.K.J.I.L.J.D.B.V.5.l t M { f.j.x.j.i.r.r.9.1.>.1.9.1.$.:.i.k.p.1.>.1.9.",
"| 5.p.p.f.x.p.$.o.:.>.#.1.f.f.w.f.9.w.k.k.x.x.j.w.f.p.5.w.x.k.w.r.[ F v C L [ 3.j.h.i.*.L A ' j.s.c.N.M.q.+.*.e.x.M.c.e.*.+.*.1.e.x.e.P b R s.I.T.Y.T.R.~.~.~.R.L.s.( D N L +.h.G.D.N.N.A.A.M.s.r.<.j.N.2.<.d.x.x.x.c.N.V.M.M.N.N.f.:.:.h.n.k.x.f.A.R.W.R.W.Q.Q.I.L.D.C.M.x.d.h.e.x.x.r.a.[ F 3.L.R.K.z.h.z.B.K.J.K.J.n.n.D.B.z.w.k.c.x.s.s.x.N.P.P.P.Z.x.M.A.m.N.x.x.c.N.A.Z.d.L M c L e.L.~.~.P.D.x.f.k.N.n.f.m.N.p.*.w.B.D.B.J.A.D.K.Z.d.9.9.9.:.p.x.D.Y.L.R.L.D.J.L.L.5.l t z | h.a.r.r.6.6.r.5.$.| o.:.>.#.o.w.z.p.,.$.3.9.",
"| q.s.s.x.j.p.r.*.*.$.*.2.r.q.<.9.r.p.j.n.M.j.6.1.i.x.h.i.6.9.5.<.Q l r d D ) *.6.r.-._ A D r.D.Z.Z.B.B.B.B.m.n.Z.Z.B.B.m.m.m.n.k.Z.x.( M L w.K.I.Y.R.R.Q.~.Q.R.Z.h.{ A j M { j.D.x.j.B.V.N.j.5.#.3.M.M.<.*.j.N.N.n.n.N.M.j.f.j.x.1.E L [ h.N.B.n.L.~._.^.W.I.I.V.M.x.x.x.h.f.h.n.n.i.*.5.[ G 3.L.~.K.x.f.i.N.V.N.V.B.N.D.B.n.m.9.3.w.k.f.f.x.B.D.P.D.x.n.J.K.m.x.r.d.B.Z.D.N.r.E C M D 9.!.^.R.P.B.x.n.N.M.x.h.n.j.:.*.x.L.A.j.N.V.V.N.n.n.i.:.5.i.x.V.L.R.~.^.~.L.J.L.L.i.M t M { i.5.3.<.3.5.*.*.>.3.>. .[ ( [ 3.f.a.q.3.:.*.",
"| q.a.s.x.j.r.2.-.*.*.<.3.2.2.3.5.6.r.a.j.x.h.r.6.i.h.h.i.3. .[ ! F l d M R  .1.3.r.<.) D R j.L.K.K.D.D.K.K.K.D.Z.Z.B.Z.Z.Z.D.D.B.D.n.] Z T p.P.P.R.W.R.R.~.Q.R.B.j.<.Q L Q 3.x.D.x.n.N.M.j.r.*. .3.x.M.6.3.j.M.N.M.n.x.f.r.6.i.i.| L D ! r.N.D.N.L.W.!.W.U.I.L.B.n.j.j.h.a.a.h.M.n.r.*.5.[ L 3.D.R.N.h.i.r.x.n.x.M.n.N.J.D.M.n.r.>.w.x.x.k.x.n.m.D.Z.z.x.D.K.N.f.5.h.N.N.N.n.5.L M M G 5.R.W.U.J.N.N.B.V.N.j.h.h.h.3.3.x.J.N.j.n.N.B.n.h.i.5.:.6.h.B.P.R.!.^./.~.L.D.J.L.r.M t M ' :. .| #.#.:.#.*.<.<.:. .| { #.3.r.r.6.5.:.| ",
"| 6.a.a.x.d.6.*.*. .+.<.<.*.*.2.5.r.r.i.h.j.j.i.i.6.r.a.r. .Q L N c l M R | 3.q.2.a.1./ F ( N.Y.I.K.D.K.P.Y.P.F.B.Z.D.D.Z.D.K.P.D.L.m.] Z T p.P.Y.Q.Q.Y.Y.Q.W.I.m.j.r.<.:.r.n.D.D.M.M.n.h.6.3.| #.3.j.n.i.i.j.x.n.N.N.h.3.:.<.3.:.' G C L :.n.L.D.I.R.I.L.L.J.D.N.x.f.a.a.i.i.f.M.j.r.*.5.[ L :.B.J.h.r.a.a.x.j.f.j.x.N.L.J.M.n.p.9.f.N.m.m.x.k.x.B.B.x.x.D.K.Z.f.6.h.M.x.j.f. .A c C Y 5.L.L.L.D.B.B.D.D.N.j.f.a.h.r.r.n.B.x.h.j.n.N.n.a.3.:.5.a.N.I.!.!.!.^.`.^.L.V.V.D.6.M i C Q ( Q ( [ |  .#.:.<.:.#.| #.:.3.3.3.3.5.5.*.[ ",
"[ 2.e.a.j.h.<.{ [ ( { <.*.[ { 1.3.5.r.r.i.h.h.a.6.<.<.r.3.Q A M l l v G [ 2.s.d.s.x.3.Q F { F.T.R.P.D.K.P.Y.K.S.D.J.K.D.Z.Z.D.K.D.P.n.] Z T p.P.W.~.Q.Y.R.Q.I.B.x.f.6.3.f.B.U.W.J.N.x.a.:. .:.*.3.r.j.j.a.a.h.f.x.B.N.f.3.:.:.:.{ ' R D L | j.J.D.I.U.L.D.D.D.B.x.j.a.i.i.r.r.r.x.a.5.:.3.[ L | M.N.6.6.h.j.x.j.a.j.x.N.D.N.x.x.x.j.m.D.B.m.m.x.m.D.Z.n.m.D.K.D.m.f.j.x.h.a.6.( c j C R 3.B.B.D.N.B.V.V.N.x.h.a.h.j.i.a.M.M.h.i.n.j.j.n.h.6.6.f.n.L.!.^.W.W.!./.^.L.B.N.B.5.M i M L L G Q [ { #.*.<.3.*.{ [  .<.5.3.<.<.5.5.:.[ ",
"( 1.q.r.s.q.{ ! R R ) *. .( ) *.*.3.5.5.6.r.i.r.<.#.*.<.[ A l l l z N R +.a.c.N.v.M.3.E D +.L.T.Q.Y.K.K.Y.R.P.K.K.P.P.K.D.Z.Z.D.D.L.n.' C T f.I.^.~.R.I.R.R.D.k.a.3.[ { i.L.~./.L.M.f.:.( [ 3.5.f.j.j.a.i.a.a.a.x.N.B.h.6.3.3.:.' [ ( Y L [ r.M.N.L.U.L.D.V.V.N.j.j.f.a.i.r.6.3.a.5.3.3.3.[ F ( x.x.3.3.a.a.h.i.j.N.N.N.M.a.i.x.m.m.D.K.Z.B.D.K.P.Y.K.B.B.D.K.Z.J.x.x.x.f.f.3.R j t c L *.x.x.N.x.n.M.n.x.j.j.h.x.j.r.a.M.M.j.h.N.f.a.n.n.h.h.N.B.I.!.!.I.L.W./.~.D.N.N.N.3.v i l A A A Y ( [ #.<.5.5.*.[ ' | :.3.5.5.5.6.r.5.:.",
"W *.6.6.2.+.R D A G W [ [ ( _ +.*.3.r.6.5.5.5.3. . . .[ L c l c v m D W *.a.c.N.M.x.*.L F +.P.T.Y.P.J.K.Y.R.Y.P.K.P.Y.P.K.D.D.D.D.L.M.] C Y s.Y.^.T.J.J.P.J.n.s.3.[ L Y 3.J.~.~.L.n.6.[ Q { r.a.x.N.x.r.i.a.a.h.n.M.n.h.r.5.<. .( [ ' Q E ' 3.a.x.L.R.L.V.B.N.n.h.h.h.a.i.r.3.*.6.<.6.r.6.[ G Q j.x.3.3.6.3.r.r.N.D.D.N.j.3.3.j.m.B.K.P.Z.D.Y.W.Q.Q.Y.D.D.J.D.m.B.j.x.n.j.j.6.Q j e d D  .h.h.n.f.h.h.h.j.x.M.M.x.a.6.a.N.N.n.N.N.a.6.h.n.n.n.B.B.L.W.U.J.J.U./.R.V.N.N.V.3.c r i v C A R ! [ *.5.r.6.<.{ ' [ #.3.r.a.a.a.f.i.6.",
"R +.2.1.+.Q M l l M G R Q W ) | *.5.i.6.<.#.| [ [ [ ' R A v M A A D L / +.6.a.s.r.2.! F D  .F.I.P.K.D.D.K.P.P.L.D.J.K.P.L.K.D.Z.B.L.N.[ M K r.P.T.N.x.n.c.s.r.i.:.! A G 3.L.R.I.D.j.3.[ ! *.i.i.j.V.M.a.f.h.h.n.B.x.a.i.r.<.| ' ! ' [ ( ! [ <.r.j.L.W.L.N.n.M.x.h.j.f.i.6.6.<. .3.:.f.x.a. .L Q j.N.a.r.6.<.r.h.V.J.D.B.j.<.*.i.m.B.J.K.Z.J.R.R.W.R.Y.K.K.K.B.f.r.r.x.N.x.n.h.{ v r i A *.j.j.N.f.h.f.a.h.M.B.N.j.a.r.j.N.N.N.L.B.h.r.a.n.N.N.B.N.J.U.I.V.V.I.!.I.N.N.V.V.5.z 8 d A Y Q ( [  .5.r.i.i.3. .[ [ | 3.r.a.h.j.j.i.5.",
"L +.2.*.[ G d r y l N A G R ) [ | <.5.<.{ ( E Y Q ! Q F M A L R L L Q )  .*.*.*.| ) F M A { V.L.I.P.K.K.K.K.K.K.Z.Z.D.K.K.K.Z.N.N.K.N.' c A 1.J.D.f.5.e.9.o.#.r.:.! D Y 6.I.R.D.B.f.<.[ [ <.a.r.h.D.N.f.j.j.x.V.D.j.5.3.3. .( Q ( ' [ ( ( | 3.r.h.L.!.L.x.x.x.x.h.j.f.6.5.3.:.| 3.<.x.N.j.*.Y Q x.V.x.h.i.3.j.V.D.J.D.B.x.3.#.6.B.B.D.K.D.J.P.K.Y.Y.P.K.P.K.n.r.[ :.x.V.n.N.x.<.F u d F 3.N.N.D.j.j.h.f.j.N.B.M.h.h.f.x.B.n.M.I.V.n.a.a.j.N.N.N.B.L.U.I.V.B.J.R.L.N.N.D.D.5.l 2 z Y [  .*.:.3.f.i.a.i.6.*.| { | 3.5.r.f.j.j.r.:.",
"( | <.*.) G l t y l m N L W / W E | #.[ Q F A Y ( G M v M R ' ! F L Q [ *.+./ L L G z d D +.x.I.R.L.D.Z.D.L.L.L.N.N.D.P.J.D.D.N.L.D.n.' d v <.n.n.5.3.r.*.{ :.a.[ ( Q  .M.R.J.a.h.h.5.|  .6.i.r.M.D.N.i.6.n.V.N.B.r.:.3.3.*.[ E !  .:.{ [ #.r.a.x.L.R.D.j.a.h.j.j.a.i.r.r.5.:. .3.r.x.N.B.3.L ! V.B.M.x.j.M.D.L.V.D.V.N.h.<.<.j.B.B.D.B.x.Z.P.K.D.K.D.Z.K.Z.w.#.R 6.V.V.M.N.n.h.! d i R 5.x.D.I.J.n.a.a.j.n.x.j.x.r.j.B.j.j.B.D.N.n.n.j.n.N.N.B.U.!.!.I.V.B.J.P.N.D.V.J.D.| l t M E 3.h.h.x.j.6.<.i.h.a.3.{ ' #.3.r.r.6.i.h.6.[ ",
"/ | *. .W S z s i c A A G R W R L ( ( E L M c C F v z c C E [ ( L R ! [ [ ! F m A A z d A [ h.L.R.L.D.B.A.J.L.I.D.B.J.I.J.D.D.B.J.D.c.( i v :.j.a.<.5.a.3. .<.r.| [ { 6.V.I.N.6.6.a.r.:. .3.r.i.x.V.N.r.5.j.B.N.n.6.<.5.<.#.| ' ' *.<. .| 3.a.j.n.L.I.N.a.a.h.f.f.r.5.5.5.5.3.:.r.i.n.N.M.<.L [ D.V.N.x.x.D.L.I.B.B.x.f.6.:.5.N.P.Z.B.m.k.m.D.D.D.D.B.x.z.9.{ ] +.h.D.D.V.D.V.M.{ z t F *.j.D.I.L.n.i.i.h.j.h.a.h.r.j.n.h.j.B.V.N.N.B.N.N.B.J.L.~.^.~.I.J.V.B.B.M.D.D.J.B.[ i 8 c R 6.M.N.B.n.6.:.6.a.i.:.{ | *.3.5.3.3.5.5.*.( ",
"( [ [ W A l s i l A L L L R W Q L R L D A c d j l i d c A Q [ ( L R ( ( Q D c d N A v l N / r.D.R.L.B.N.N.D.L.L.L.D.J.P.F.D.F.A.N.V.x.E u c [ 6.*.#.r.j.i.5.a.h.<.:.5.j.B.n.r.#.:.r.i.*.( ( | :.r.x.x.6.<.a.M.N.j.5.3.5.*. .:.:. .3.3.:.:.r.j.M.N.I.I.j.6.i.f.r.r.5.<.<.3.5.5.5.f.f.n.M.j.| L  .V.D.N.j.x.J.U.U.D.V.j.6.6.5.j.I.Q.B.k.k.h.k.N.B.D.D.m.f.1.( E [ i.x.B.D.D.D.D.V.3.M t M { h.D.L.J.x.r.r.h.h.i.6.a.i.f.f.i.x.D.V.j.N.V.B.N.N.J.U././.^.U.J.V.N.n.M.D.J.L.V.[ i 8 j L 5.N.D.J.N.a.#.:.i.r.{ [ :.*.:. .{ [ [ ' Q R ",
"+.) L M s r r y M L Q R L Q / ( Y Y A M C v d d i u j v D Q ' Q L Q / ! L N v v L R D v N W 6.D.I.D.n.x.N.D.L.L.P.A.D.J.Z.B.D.B.x.B.f.L t c !  .'  .a.x.i.r.j.N.i.6.i.j.j.3.{ [ :.5.3.[ G A L Q <.i.f.3.:.r.j.n.a.3.<.<.#.#.3.3.<.5.6.3.3.r.j.M.N.U.I.j.3.6.a.6.6.3.<.:.<.3.5.6.f.a.x.x.f.' F | N.D.N.f.h.V.U.U.I.J.j.r.r.f.N.W.I.p.1.p.h.h.x.B.Z.Z.m.i...L T #.s.j.M.N.N.N.B.D.r.A t v [ f.V.D.B.h.r.i.j.h.r.3.i.f.a.6.r.n.D.V.a.n.B.N.j.j.V.U.^.^.^.U.L.J.B.N.M.D.J.J.N.' i r d A #.x.B.D.N.a.' ( <.3.! ' 3.#.{ ! R R Y D C A ",
"1.W c r 7 7 r i A L R L L W ) ) L G M c C M l l z l M A F R Q G L W / W L D F L ( ) R A F ! 6.F.D.n.f.f.n.J.I.I.J.N.N.D.N.N.V.N.n.N.<.v w l Q  . .6.j.j.3.3.h.x.i.5.5.r.5.{ [ #.:.*.{ Q F A L ( r.f.h.r.5.r.f.j.6. .{ | {  .<.*.3.r.r.5.<.5.a.j.n.I.I.j.<.3.r.6.5.3.<.<.3.3.5.5.a.a.h.a.6.( A ' x.N.n.i.r.x.L.U.U.J.x.i.f.j.M.L.k.{ ] q.h.f.x.N.B.B.z.9./ Z K #.i.j.M.B.N.N.N.V.i.F r l ! f.D.D.n.h.i.h.x.h.3.#.6.h.j.a.j.N.N.x.6.f.n.h.6.i.N.P.U.W.!.I.J.D.J.J.B.J.V.V.x.! i t j C { j.N.B.h.#.A A ( { Y ( 3.#.[ E G F C l j z ",
"| D r 1 1 7 r s v A D D L W ! Q A C z l v M c M D A F F D L L C Q ! / Q L L R ! [ [ R G L ! <.M.h.r.3.3.i.x.B.D.N.j.x.N.N.N.N.M.x.a.Q t 2 d L  .a.j.M.a. . .6.5.| [ | *. .' [ :.{ ( ! Q Q !  .r.N.n.j.a.r.r.r.6.#.( ! ( ( {  .[ 3.r.i.6.:.:.6.h.x.D.V.a.:.:.5.6.5.3.<.<.<.3.3.3.i.r.5. .| Q C E r.a.a.6.6.f.N.J.L.D.x.a.j.j.h.x.[ K T 3.p.p.k.n.B.B.f.#.T Z K | i.x.B.V.N.N.N.N.r.F e u Y i.D.J.j.a.a.h.j.r.:.{ :.f.x.x.B.V.j.r.<.5.6.<. .:.h.V.J.I.I.J.B.V.J.L.L.I.D.B.x.( l d z C [ j.V.x.#.A t l Y Q Y ( <.*.{ ( E Y A z l c ",
"W m 9 2 8 9 t d d z v M L W R D M M z l M C A L R G G F A D F M E Q Q Q W W / ( / / R L R R !  .[ [ ( Q Q ( #.3.:.{ *.6.r.r.r.5.*.[ v 3 4 i v Q 6.a.i.*.[ |  .Q G L E ( ! Y L Y L F L ( { #.r.n.D.j.5.<.:.:. .{ ' Q Q ( ( {  .[ 3.r.f.r.:. .3.f.x.x.f.3. .#.<.3.5.3.:.*.#.:.3.5.r.3.[ F L L v F  .|  .<.5.r.f.x.N.M.a.r.a.i.3.:.K m K $.9.9.p.h.n.x.1.Q S Z T { w.x.N.n.n.N.n.f.#.M w i R i.V.B.6.6.r.a.a.5.:. .<.f.j.j.V.M.6.<.<.:. .{ [ :.h.V.L.L.D.N.n.B.V.J.L.I.V.B.M.| v z M C ( f.N.a.Q t 8 z L Q Q [ *.:. . .{ ' Q Y Y R ",
"Q N d d d s s l s d l M L ! L v M C v c C D L ( E L G D M A D M L L L W / ) ) ) W E L L R F N F F L L C j d M Y A M D Q ! ( ( E F A t 1 r u i C [ [ ( Q R [ ! v z M F L G M d t c c D ( | *.6.x.M.6.' ! ( ( ! Q Q E ! ' ' | *.{ <.r.f.i.:. .3.h.c.a.>. .| | *.3.5.3.*.| | #.3.6.6.*.Y i l A l C ! R Q  .5.5.5.r.f.a.3.*.3.<.' Q M l F | >.>.9.i.p.r.] Z c M L ' 6.h.j.i.a.x.f.*.Q l e l ! f.N.j.*.*.<.6.6.3.<.<.6.h.i.i.n.j.3.3.6.5.:.| | 6.N.I.I.J.N.j.j.N.B.N.N.N.x.n.x.| M c C M R 5.j.6.L 8 r A Q ! ' {  .:.#.:.<.*.|  .#.*.",
"! L L G v d l d l z l v L L D A D R Q L L ! [ ( Q ! Q F M M A A N L E ~ ] { ) ] ( T P ( ] T M l A L A d i t r y r t d c m z d s d r 7 r y t y d m s l A A F A s i l A N s 1 ; 1 7 2 s D R ( *.6.*.L M D L L L G A I / ( ( [ |  .$.>.1.*...o.7.d.x.9.| ) ) { @.*.| | { [ [ [ | +. .L l t t s l z z m F ! { +.*.3.*./ G G R L A z c v Z F F D W *.*.W m t 9 y N W |  .+.*.*.[ R D y 8 7 l ( e.s.6.! [ *.<.| ( [ *.e.1. .*.6.*. .3.r.3.{ [ 3.N.I.I.L.M.f.f.x.M.j.r.r.q.1.6.j.*.A z M M F [ 6.*.D 9 y v R [  . .+.*.+.3.*.[ +.2.6.2.",
" .[ [ ( G m c z A A N A R R G F L Q / ) ) [ {  .{ | [ R D A N m N E / ( { +.+.>.+.{ ..=.$.) E P K / R z i y r 9 9 r y s s y r 9 d y i d d t r t y 8 t d s l l r d l c z i 7 1 < ; 1 r d c L ! Q L c z N A A A N N L E Q Q ! [ [ { { { [ ) { 1.t.q.$.( ~ ( ) ( / L L R L L L R W R N d i i s d l d l m F L R ! [ L m d d v c d y l l l l s i z D F z 9 < ; 1 i M F G L F M l t 8 1 1 2 d L |  .( Q ( [ ( L D L ! [ W L R ) / ( *.:.:.#.<.h.J.I.L.x.j.f.h.j.j.a.6.*. ./ [ 6. .A l m m A ! | ) M 8 y l A Q [ { { [ | *.[ W [ *.+. .",
"q.r.e.2.[ L A A Q W L L R L D F L L / | +.{ | *.1.<. ./ L D A m A ( { ] +.>.1.7.1.1.w.p.q.$.o.=.( *.( l t s i t c v v c l d d s l d l c l y r i r 9 y d y s l s m M M m z d y r 9 t i y s D L N z d v G D A A A N F L L L R ! / ( ( ~ W E ( | =.o.( T L E W L A M N A M c z c m M v c c z l z v d l z v c c N L c s r t d d i t l z l y 9 r t i y 2 ; # # % 1 9 t i s r 1 % # # % ; 7 d A L G N F F F N l i z A A v l c D G R | [ { #.5.n.L.D.n.5.r.f.j.h.a.r.5.*./ F L [ ( A d v m A L R G z r y y d m G R R L ) [ R L Q / R L ",
"s.x.c.d.2.( L L  . .( R L A z l c N L W ( [ |  .<.*.[ ! R L F A H ] $.$.1.9.>.%.1.9.p.k.t.1.=.1.>.*.R i 8 t d z A D D M c z z c v z c M v l l m l l v m c v M M L W ( W L L G G G F A v v L W F M M L ! R L L L F L R R L R R R ( ) ( E L T ~ ( / R K S H L S M m M N m z l c v m A G L F M M A N M N M v z m A N c l l x v x v m A N l l v v g y 8 1 ; ; ; < 1 2 8 7 1 % + + # ; 2 t l M A v d d i t r 9 r s v l d s l N A G ( ! ( ( | 6.j.i.:.#.<.r.f.a.r.6.3.*.W B M L I B l M A D G G A v l s y r r s l z z L R G D L D c l ",
"e.x.x.d.a. .Q ! 2.1.) L A d 9 8 9 l N M D ! [ (  .) Q L G F D F K ) *.9.s.t.=...=.>.7.q.9.*.| [ | Q z 8 2 2 t m L W ! L G G L L G D D L L D D L G L L G G D A A / 3.s.2.{ [ |  . .! L G G W { [ R R ! ( R L R L R / ) / W R L L E ) { ( P L T E E E L A Z K P T A A A A A D G L F L Q Q L N M A L L G G G F L R E L L L R R R Q G R R L L ! Q G N z i r r r r r r r 9 2 < ; ; 1 r s l m A A v d t 2 < 1 8 t d z l z c M D A D R Q E G F Q { [ ! ' [  .:.3.<.:.*.{ I m l c N B c A D L L G A A A z d t 7 2 7 r i z M N N A l y i ",
"3.e.q.q.s.<.! ) q.<.Q M l r 1 1 7 l v d z R ( R ) Q L D N m M A S ~ +.e.x.e.*.*.1.$...| | [ ~ L L m t 8 2 < 8 m [ <.6.1.+.*.<.<.) ( ) [ / R R ! {  .[ Q L A v M  .j.V.d.1.<.3.1.| Q L F L [ q.s.<.| [ ! G A D N R W / Q L G A v Z R ( E L L P T ( ( W K S R ] | R L F F L R Q W W ! / / R A M M R L L L L L (  .+.} } *.<.<.<.1.[  .+.| +.3.3. .[ R A z z v v z m m c d y r t y l M G L R R L D c i 7 7 r i d l v A F L L G G W ' Q A z M R ! Q Q Q ! ' [ [ { [ ! F v l d M G D D L R R L A N M v z d 9 1 1 8 i i l l v v d i z ",
"*.1.|  .a.3.( [ r.+.F d y r 8 r d m M l c G R L Q L G A m l c N N L [ q.t.*.o.9.p.=./ L L P L F c v l t 7 1 y G  .r.j.h.r.e.s.a.2.3.1. .W L Q  .a.j.6.) L v d v *.h.x.6. .+.{ ! A M c l N  .M.V.h.6.+.Q c d d s m N N v l d r 8 t z N M m N S S P T L M M L / ( L A m N L ( | +.1.<.*.*.{ ! L L Q R L A m D [ r.f.y.e.h.j.d.h.s.r.e.r.6.e.d.x.d.h.1.W A N F G D R W W L m l c M M R  .<.*.+. .{ / L c d i i d l F R Q W ! ! ( +.3. .R C A E ' [ ( ( ' [ [ {  .#.[ R G A m L [ ( W ( { { / L N c m M v l i y d c v z d l v z v L ",
" .*.! ) e.2.( [ q.{ M r r y i l N A A M M A G L L L F A m l z M M H ( 1.1.( ) t.x.>.R M m N S S v G D d 7 8 v ( <.d.V.N.x.x.M.c.d.s.6.[ F N ! 6.M.D.d.[ L d r z | 1.*./ R W L z 8 r r 2 s  .A.L.x.e.*.L y 2 7 7 t y t 8 2 < ; % ; 7 r r y k c z c b f t y c M M d y t l R *.a.j.c.j.h.h.a.1.{ ) / W L v i l ( h.M.x.x.M.M.x.h.a.j.h.a.e.s.x.N.N.L.x.| L D L L L / [ | / D v B G A [ s.c.j.a.a.s.3.{ L m d y s z R ( ) ) [ { <.s.h.r.{ R L ( |  . .*.:.:.*.:.3.r.2.[ / Q L | q.<.<.2.r.r.<.) G m A F G F A A G L R D l l m M D ( ",
"3.) ( 3.s.2.[ / <.G d t i l M A L L F N D A m m F D G L F N m m m m / / A N ~ f.e.>.R m j N Y / Q ( W v r d L  .2.a.N.D.N.N.M.h.e.e.} L L L [ x.D.N.a.( z r y z W A c l l v l 8 1 1 2 r z ) x.A.s.<.{ L s 2 r s d 2 ; 1 2 < ; < 1 8 9 9 t f f p a e 9 t y p 9 > ; ; r s G e.N.F.R.P.L.P.G.N.d.a.e.{ D d t l W q.d.a.h.c.j.6.3.r.h.s.q.q.s.d.M.I.T.I.+.z D W R W [  .{ R N N G R F ( j.L.M.h.j.x.h.r.( N l s s l L R ( +.<.1.q.h.i.r.6.! C [ i.| #.6.i.f.h.r.r.h.x.h.1.R L 6.V.h.e.a.x.N.j.{ L A L L R Q W / ) [ ( D l l c N Q *.",
"1.[ [ 1.h.a.<.| / c r t g A R W ) ! G A G F M N L L L L L G A m N C R A d Z ( q.*.| R m l F Q ) ) ) R m i d L *.e.d.D.I.F.V.c.r.+.{ Q G L ( 1.x.N.s.| F i 8 y c z t 7 8 y z z r 8 8 t s z Q *.<.{ ! Q L l t l m m 9 1 8 0 9 r r 8 s k f k m m z m c l c M b s 8 e 1 r d R c.U.R.!.R.R.E.R.P.V.N.c.3.W m d z Q q.r.6.e.j.e.*.+.3.a.d.h.h.x.M.C.I.N.c.! d D / / [ ) [ ! A m G W / L W 6.M.M.d.a.q.6.3.! v d d s d c m L [ 1.6.e.h.i.6.r.[ A ! i.r.3.a.j.j.j.f.a.x.A.N.h.( G +.M.M.e.2.e.c.a.) L Q ! R R Q ( [ [ ( W A l l m F { a.",
"h.r.4.r.x.x.6. .D s r d A W +.*.| ( L L Q L A A L L L L R Q L M m F W m d T { +.| [ L m m ~ #.*.| W A l i d L  .a.x.L.T.L.N.s.+.R F F L Q *.h.x.s.[ N s r r l D s 7 1 8 d F L A v v N B N L L N v l c m l l A L G y 9 s s l m c c S L S N S L L ) ] R L E L M Z l 2 2 y R N.!./.E.R.E.~.!.R.I.I.L.c.2.! A A [ h.r.r.d.x.e.*.*.6.a.M.N.M.D.G.D.D.s.<.N t A [ +.3.*.*.( A D ) <.*./ L ( 6.h.s.2. .| +.R l d z d i y d M ! <.r.r.r.r.6.r.[ M A *.i.<.a.h.f.h.i.r.h.V.M.a.! m L 3.j.r.+.+.2. .F A R Q G M A L Q L D N d y s c G  .d.",
"N.N.M.x.c.M.e.| D l d B R  .6.6.[ / R W ( L A A L L L L ! | ( D c K | / L [ | ) | ) L c F $.s.e. .F s t i d A ! 3.s.A.L.M.a.*.Q v v G W ( 3.x.h. .A r 7 t g A R A l s z L +.q.3.[ ) ) W L R D d 2 ; 2 y d c L Q R l s c z N L A H E ( R L R ) +.f.x.@.R ~ P L { N 8 2 r L c.R._.U.Y.U.U.I.P.P.I.L.D.M.3.! Q *.c.x.x.M.M.h.2.r.x.h.D.L.A.L.L.N.x.r.( s 9 A { 6.j.d.x.2.! ! 2.s.2.[ F F ) 1.6.1.{ ) { L d d c l t i g B Q | *.<.*.r.r.5.Q d j R { | 5.i.r.r.3.:.<.q.<.[ F z m R [ 6. .) ! F d s c M d r r d z d t 9 2 7 y l A ( 2.",
"M.A.A.v.x.v.r.| A z M L ) *.6.3.[ ( Q R R D M F L I L R [ 3.*.! m D *.2. .[ R L / Q F A ( s.c.h. .M 8 r l c M G ( *.s.h.*./ L m t l R [ ) 3.h.q.! c 7 8 d m F R W G A L ) s.D.D.d.a.6. .( [ Q m 2 * ; 9 s m R ( / N v M M A G A L / | | [ ..1.e.N.A.q.W T K L $.A r 0 y F e.L.^.Y.U.U.P.D.D.D.F.N.A.V.s.| [ q.V.A.V.V.N.j.y.j.N.x.I.U.D.L.L.M.s.y.R r 8 M { e.N.N.D.x.<.*.s.d.3.Q M A ) 1.2.1. .[ | L d s z d 9 i z A L R W / / 3.6.#.C e u M C R | <.:.*.[ Q E L D v v A A N A { [ Q M s t r 8 r 2 ; ; 1 2 2 1 1 1 9 d m A L ( ",
"x.A.D.j.q.2. .Q l l D ! [ *.3.*.+.| R N m c m G L L I W | 2.2.*.L N ) 1.[ F l M R R R / 3.c.M.h.+.D y d M A N A A L / ! A c l t 1 d L Q ( <.4.*.Q M i i c D L R { ! Q /  .x.I.T.A.M.d.1. .1.<./ d 2 1 r d A ! [ ( R A N A A A F R { 9.d.k.k.x.c.c.N.d.$.] E E | m r y d M [ r.M.D.L.I.G.A.V.D.D.M.V.N.a.| { s.L.I.F.V.N.v.x.M.A.V.U.I.A.F.L.N.j.6.S 7 r M / 2.x.N.V.x.6.6.d.s.<.A z D | 3.*. .[ ) [ L l d d r 2 t z A D A D L L Q ' L u 2 t i t z L Q L G C j d i i t z L L m l D L M t 8 t r 1 1 < ; ; ; ; 1 2 2 8 s m A A A D ",
"6.h.s.+.Q G A c t l L { +.1.2.*.<.*.L d d c N G D F L W [ *.3.2.! c D ! L l 9 d L L Q [ 1.q.q.6. .L M N D A m v l l z d 9 8 8 1 < i l v R +.{ Q L A c l A W { | *. . .*.<.j.L.I.D.V.x.q.1.h.x.6.N t 7 r l A W ( W ! D v G F D / +.1.k.B.A.A.N.N.d.x.x.s.9.$.{ ] l 8 s l z N D R *.e.x.M.M.N.V.V.M.N.x.*.R ! e.I.U.D.N.M.N.N.N.C.A.L.C.j.x.c.d.s.{ g 1 t M L { 2.x.h.3. .<.r.3.[ m l A [ [ R L D L R F z l s 9 2 r c D F A D L L A A l e e t t e l A A z j u e 8 r l c A Q I M v m m d 9 9 s y 2 2 7 8 7 2 7 t d d d c A G D m z ",
"R ( ( D d r r r r z W *.3.6.w.3.*.+.L i d M A D A A F R ( [ *.6./ d l D A s 2 i L L L W ! ! ( | { W L G F M c l s r 7 1 ; 1 2 ; 1 t 9 r L { E B A D N v K  .e.h.6.3.6.2.3.s.N.N.V.V.M.y.q.M.A.x.D i 7 r d A R Q L / A z L L L 1.w.t.k.c.B.M.c.x.t.w.s.x.s.q.*.( l r z m l s 9 t M Q -.y.j.M.N.N.M.c.6.R x A <.A.L.N.x.x.N.N.M.x.M.M.y.*.*.<.*.*.R 8 ; s N F W { r.+.W R ) +.[ R N l m L F l s s c B N c z d r 0 i M L L L L R R M c d u j d u d F Q L v l d d d l L E R W L N F F M d i d l d y t s d d d l m A A A A L L L B c ",
"d i i 8 < 1 9 8 9 m [ e.p.e.q.*.2.R m c c B G G D v N L Q )  .{ R l y z l y y s N A A A M m N F S L P L H N c d p 7 1 > ; - ; ; 5 e r r f A Z k b N M c L t.F.K.x.N.M.h.i.j.N.V.D.M.M.x.x.L.I.g.S t 1 t h B D D J m g z D ^ -.y.x.h.x.N.c.4.*.1.*.*.q.d.s.2.o.W s t d A M y 2 2 r l F ) <.e.a.e.q.r.! z l N ! e.d.e.q.s.x.j.q.*.q.+.( G m N F A r 8 r l A A A A G F v z A F N m d d l d r 1 < 2 1 i h h z g d g h L W ( W I / W L A M c M M d M Q *.( G M z A A A E { o./ L T ( ] L M c k M M c z m N M v x m N A G R R R L D N ",
"t 2 1 1 : 1 r 9 s L *.p.s.q.*.| $.L l z N L ( [ W L L R W ) [ W N t r l d y d c M M M m c l l c N T ( E S M m b a t 7 7 7 1 1 2 9 t p s z N M z m b b m P s.F.Z.k.M.N.N.N.D.D.B.V.x.x.M.N.I.L.r.c 8 > 0 d x S S n z g z D ` r.g.x.h.j.c.a. ./ ) [ [ *.3.*.{ ( L s y l L L v d l s c A L ! [ [ [ ) [ F d l v G {  .[ ) { +. .( R Q A z y 7 r s i r t l D L G m l z z s i z v d i y d d d t 8 2 1 0 h x x N n z x S ` X.-.} ( *.} { ! Q Y R F l v ' r.<.[ E G Q Q ' #.5.9.$.{ o.5.w.o./ K Z K T L A D G G M z z M D G L L G A N M ",
"t < ; 1 2 8 t t k / 2.e.t.$./ / [ D d z L ) *.2.+.[ ( ! W [ ) L i 8 t l d d N R L L G F A A B N F [ >.) F M N Z z d s p y e 9 9 y s f c m m b b c d f m P t.A.x.j.n.N.V.L.R.I.B.B.j.x.N.D.U.V.*.i 1 ; 2 t g M B g z z x L *.f.x.x.x.x.c.r.[ ! ( ! Q / ) ! W R D i i v R / L F L L ! [ [ [ ) ! R L G m l v M A R L L G L L L D N z r 2 1 ; 2 t t l c D W ( R N l A D N M G G M c v A F F G L A z B J L J L S m B W 3.4.r.*._ 3.3.<.| { ' ' Y l z ( i.r.3.#.[ :.<.w.p.f.f.w.9.p.x.B.k.9.{ Q ( o.| R R / / L z c S R L L D M v c c ",
"d 1 1 0 8 8 r i l [ 1.1.2.) L / { L z m Q { *.q.3.*.[ W Q { { L r 9 i l d z Q +.{ { [ ( ( [ _ ( ) q.d.*.R H K K N M c l k d s s c c M S S M M A M s k A ~ p.N.e.j.n.N.B.L.R.I.V.B.h.j.M.N.D.j./ r : ; 1 2 t z M c M x x I 4.x.x.c.x.x.x.e.+.{ +.[ Q R L L W Q D s i c R ( W / | 1.a.x.x.s.q.*.[ W G m m F L L R L L L L R R I L c r 2 7 8 i v M L L ! {  .[ R G Q ( ! W ) ( L F L Q / / | 1.+.W } *.*.{ W S x S { r.r.4.} W *.4.:.{ { [ [ E l c R 3.3.<.3.5.h.j.n.x.x.x.x.x.m.Z.L.Z.n.p.3.5.r.:./ ( +.1.[ G G ( | [ Q G M l d l ",
"i 8 8 t 7 1 7 t l ) +.| @.( T { +./ A D ( { | 3.<.[ Q L R |  .Q r t d l d N [ 2.2.3.<. . .<.1.<.2.x.c.w...) ( / E T K A N N M m S S L E L Z Z L S b M P | s.x.2.f.n.B.D.J.I.L.V.N.i.i.h.h.j.5.L r > ; ; ; 8 h x x B M B ( g.C.v.x.f.a.e.6.*.*.<.+.W G D L ( ) L d y l G Q W { 6.a.N.L.D.N.c.h.q.*.L v N G R ( [ ) [ [ ) [  . .{ G d r d l N L Q ( [  .<.3.3.*.{ -.6.2.1.2.*.[ / *.1.3.3.s.v.j.3.y.g.g.r.[ B x D -.y.r.3._ E } 3.*.[ [ ' [ Q v M Y #.|  .3.i.M.N.Z.B.N.B.B.B.D.J.K.D.Z.N.c.n.s.| Q [ q.c.f.*.*.a.d.q.*.) L v d d ",
"d i i i 2 < 8 i l E [ ] { ) ) 1.*.{ L L ) ) / *. .Q D A L [ | Q i d l l d F | 1.q.r.6.*.*.3.6.2.s.k.k.s.e.q.1.*.$.+.{ / ~ ~ ~ E R R W ~ P S S L F S F W *.q.2.*.e.M.D.L.J.J.V.c.a.#.| :.<.6.*.G t 1 ; * * 8 g x x B S L *.v.D.N.g.q.<.<.1.<.*.+.| R A N L ) [ L l y d A L R [ r.d.V.L.V.M.N.V.N.<.D d v F W | *.*.<.*.+.*.6.q.3./ m d v A L ! [ { +.1.6.r.e.q.3.h.v.x.d.d.e.<.*.d.j.x.x.M.N.c.a.g.v.v.g.| N c I 3.y.r.3._ I { <. .' ' ' [ Q c c Q <.:.<.r.h.B.B.B.N.N.B.A.Z.A.D.D.Z.D.J.J.F.f.( L [ d.I.P.M.M.F.D.M.d.q.[ F z l ",
"B v x i 1 1 r d k F / ( / ) @.9.*. .L D Q L L [ | L N A L / ( L d l z l c R  . .<.q.q.1.<.6.r.6.s.e.w.f.x.k.s.t.w.w.9.1.=.1.>.+.{ | { ) E L L P F E T / 2.1.] | e.c.V.V.V.V.M.x. .L F Q [ 3.*.L i 2 : ; : t x M M D W } r.v.N.x.e.*.) [ -.<.| / Q G A N F ! ( G z s s v N A R +.s.N.A.c.j.M.V.V. .v i M L ( <.2.6.q.4.<.2.a.s.q.) m d M G R [ +. .*.<.<.3.r.r.6.y.j.d.e.r.3. .| q.e.s.d.h.a.6.3.a.g.x.f.| M z L -.r.6.6. .W { *.[ ( [ | :.( l j Q r.a.a.h.j.B.B.n.x.x.m.N.N.B.B.N.N.J.L.L.J.p.E m ( x.R.!.U.I.U.F.V.N.x.2.R m l ",
"L D M t ; 1 r i d M R / E ) >.2.o.| G m G A M ! *.R A F I ! Q G z c v c N / +.[ { 1.q.3.1.q.y.q.s.2.2.f.c.x.d.k.s.f.f.t.t.s.t.7.w.e.q.=.[ ( / / L { ) [ p.1./ +.d.x.c.x.x.M.M.x.W c l D ( 2.<.R d 8 1 1 6 d B V S E *.4.f.g.d.y.<.( L W  .*.) L D A A A D R W D m d d z z l N W <.d.M.h.r.f.x.g.[ l i D Q  .r.e.s.h.r.2.q.d.d.r.Q d r v F R [ *.*.*.+.{ | 1.q.q.r.j.h.r.q.1. . .3.6.s.x.j.r.3.3.r.a.s.e.{ m g D -.r.e.f.2.[ *.1.( (  .3.r.{ c d R i.n.M.x.j.N.B.n.x.x.n.M.M.N.Z.m.B.F.K.J.D.r.Y d Q j.R.~.!.U.I.V.N.N.N.r.W m l ",
"<.Q D t ; 2 r d s K / ( { | ) / E Q L L Q D m L [ R L L L W W F v d d v L ) [ [ | +.3.r.h.g.h.a.q.w.t.d.x.c.c.c.c.k.f.k.k.d.d.x.x.c.c.x.s.7.1.1.@.@.1.| +.q.>.+.d.a.6.3.4.y.a.q.L i v ! _ *.[ g 0 i i t i z B D D W -.r.4.} } ;.[ S z L [ / F m d l M F G D F L m l d c c d z F  .r.h.1.{ {  .{ m d d G | r.x.A.N.v.r.+.1.h.a.*.M i y z A R  .1.1.<.*.{ [ } *.*.3.e.6.<.<.*.*.<.<.3.q.e.s.a.6.*.6.q.q.6.[ m d A [ 6.6.h.x.e.1.[ ( [  .5.h.:.M 8 M [ j.j.f.h.x.x.f.h.j.x.x.j.n.B.N.N.D.D.N.n.*.l i Q 6.c.F.I.F.F.M.x.A.D.s.Q z G ",
"r. .( l : 1 8 i c R [ | $.+.( E F M A ! [ R F ! W N M R ( / Q L v d i v R {  . .*.1.6.s.j.j.f.y.e.e.p.d.x.c.c.c.m.x.x.c.c.x.c.M.Z.Z.Z.N.N.c.k.f.s.e.q.[ ) 1.>.1.q.<.} { | | [ ) D l M R R L M 1 q a g g g x S D S U [ } _ E I W G l s M L G c s t d m A N v v N c l l v c l v D | 2.2.) L F F A d i c ! r.c.V.F.F.c.2.+.1.a.6. .v y y z A ! *.6.2.1.+.{ [ { +.+.3.r.6.-.<.-.*.1.3.6.r.r.a.a.q.<.6.r.r.q.{ N d A / <.<.r.j.e.<.) ! [ | 5.h.:.C e t C ' <.r.f.f.i.3.5.i.h.j.j.n.B.N.N.B.N.n.a.Q r y L [ <.j.A.A.N.x.j.V.C.a.Q z L ",
"f.r.3.A 1 1 8 t F ] >.1.2.+.~ L m t m  .1.) W ) F i l / +.) W Q m d i m ! *.1.<.3.6.e.h.j.j.s.e.s.s.s.k.x.m.M.N.N.M.N.B.M.m.B.A.Z.N.B.Z.A.A.N.m.Z.m.d.[ R ] [ +.` U D D S M z l x z x S V g 2 * i h n M M B D D S L E U D x x M l i y l M v i 8 2 r d c z d d l d l c v x v m N ( { / A d i y r 8 r v { j.N.N.M.j.3.[ [ +.*.( L l t y z D ( 3.q.q.3.*.} |  . . .<.q.2.*.-.*.*.1.6.q.6.q.r.e.q.1.r.a.f.a.:.F l M Q *.*.6.h.r.3.' Q ' | 6.h.:.A t 1 8 d F [ :.:. .R R Q ( [ *.r.x.N.N.n.x.j. .c 1 t B G L  .j.c.x.c.x.A.V.a.W M ! ",
"r.a.a.R r 8 r i R +.e.s.q...E L Z d D <.3.| ) W c y c (  .[ ( ( A d y M ) 3.q.q.6.6.e.h.j.g.s.e.k.d.d.x.c.N.N.Z.Z.A.D.A.N.N.N.D.c.c.c.M.N.Z.N.B.A.Z.m...L L L R J z d d s 8 1 2 0 i s l M i 1 2 g M S S S D J L D D J S M z g z s y y d c z y 2 1 2 t d l d d d d m A N M A A A L L m y r r r 2 7 r v ( q.a.2.*.R F D R ! L c i y r y z D [ 3.3.r.3.*.*.*.*. .| *.6.3.*.-.*.*.3.6.q.6.6.q.e.r.3.h.j.x.x.5.Y z v Q 3.5.r.h.r.3.{ ! [ *.i.j.:.C t e < , t C L Y L l i t t d C Q *.h.j.6.<.#.G e 1 y M A m Q 6.j.d.N.M.F.V.r.Q A [ ",
"3.6.a.! i t y d W 1.d.x.e.[ R / W L / <.+.[ ! F l z G ( ) [ | [ F d t N | e.h.d.r.r.y.a.s.s.e.q.f.s.f.k.c.M.N.Z.A.F.K.A.N.m.M.N.k.x.c.M.M.N.N.A.Z.Z.N...F A M A x i t i t 2 1 8 0 i t d M g t h N D I L D L L L D L D S B N N M d i i d m M l y l d d z m v z l v D L F D L L D A c y 8 t d s r y i z G ! W G m t r s M N l r 7 r 9 i z D [ <.*.3.*.*.<.<.+.{ { 1.r.6.<.3.3.1.6.q.r.r.r.a.h.a.6.n.N.N.N.a.Q z l ( i.f.h.j.i.6.*.[  .3.j.x.#.M r u 2 < 4 i l z z r 3 * & * 2 d C Q ( R A M t < 8 i A F A Q 3.j.M.N.N.G.N.6.R D +.",
"-.<.r.! i 0 y c [ q.x.c.t.{ ~ | $. .*.+.( R L A v D / / W { <.*.R z y A *.h.j.x.a.e.r.q.q.q.6.2.q.w.t.s.x.c.M.M.A.F.F.Z.m.c.c.x.d.x.c.c.x.c.N.Z.B.B.x.) m b z M t t i d d t i g z x c B L M z S L W ( W R I U U L I I I I R I L c d d c A F F D W L A A D A A A A L L L G L L G S v d i l M v d d d l c v l t 7 2 2 r s s r 8 8 r r d z D [ <. .+.| | *.*.| {  .2.a.r.3.4.4.3.r.r.e.a.s.j.x.j.a.N.B.B.B.j.( c j ( a.j.j.j.a.a.3.#.<.r.j.j.[ z e t t t u d j d i r 2 < * % % * < r t w 1 < ; < r i A L L ( 3.j.V.N.N.G.M.1.R L r.",
"*.*.6.Q r 1 y G 2.s.x.c.d.@.] *.2.2.*.{ W A M L D R [ ) / +.q.2.| A d F *.a.s.a.2.1.-.*.<.1.3.2.2.7.q.s.x.c.M.M.D.F.A.N.c.c.x.s.s.s.f.d.k.x.c.M.x.x.s.E d y 9 t > 0 h M n x M B L U ^ { { I S U ` *.-.*.{ _ ( ( W ( ( ( [ { ) E m d d c M N G W ( R G A A D L Q R W ! Q R L R R R L F D F G A m m M M M c l i r i s d l l d y t y s d l A { 6.*.| [ { +. .[  .2.3.a.r.1.3.3.3.6.3.r.a.d.x.M.x.h.N.B.B.N.j.[ v d E 5.r.i.j.j.j.3.3.5.r.h.a.( l r r j c z l c c l l i r 4 < * # # & % & % # ; w t s N L L ( +.6.x.x.x.N.j.+.L Q x.",
"} } 3.R 2 ; i / f.d.x.c.x.1.| 1.6.2.+.[ W v z W L R ) [ [ <.a.e.q.R c L *.q.9.3.| { [ [ | *.1.2.2.2.w.s.x.M.N.M.A.D.A.M.c.c.k.p.s.e.e.p.k.c.c.c.t.s.q.L r 1 $ # ; t V L L J L I ( { 2.d.q._ E _ ;.r.f.y.3.-.*.{ _ { } X.&.-.| W z i t d d i v R L F A m v A Q |  . .o.| ] ( ) { / ) ) / E L L G L R E R L D A N A D K G K A c s d d l l A  .e.2. .{ {  .| { <.s.<.r.6.*.<.<.*.3.-.3.r.h.x.M.x.h.M.N.N.N.j.[ M d L #.:.3.j.x.x.3.6.6.6.i.6.Q j t u c C c z C A C A v j i r 3 < < & # & * & 4 d t d m A L Q ( | q.6.2.a.2.( F R x.",
"<.<.*.D 2 1 M [ d.x.d.x.s.<.5.6.q.6.+.R v z L [ / W ( | *.<.6.h.s.[ V J ..;.) W L K L ( $.1.1.3.5.r.p.j.n.N.N.N.n.N.B.B.B.n.j.a.e.a.s.s.x.c.c.j.d.r.6.L 7 * # ; 7 J [ ` { / E ) +.&.9.l.x.*.[ 1.e.s.a.6.2.r.q.<.*.[ +.3.<. .[ / M y i l t 2 8 i y y t 9 r A  .1.1.9.1.{ [ *.2.2.1.*.@.| ) E T R W ] | $.1.+.( ) [ ) ) ) ( E S m z c l l F | 6.2.*. .[ ( ) +.2.e.3.3.#.[ { :.<.#.r.5.5.i.x.N.x.a.j.n.j.f.r.' M d D [ 3.r.x.M.i.:.<.6.r.6.<.Q l r s c N N S R ( ( W L A M z d t t r 2 2 8 t y i d s M F A A L Q Q L R / ) R G ) r.",
"*.*. .D 7 7 F  .h.c.x.M.s.<.6.6.q.2.[ N l A ! { ( ( { -.1.<.1.q.q.{ S V ^ { W L H H T ] >.w.p.i.r.i.j.x.N.N.N.N.n.N.N.N.n.j.h.h.a.s.d.j.c.M.c.d.h.r.6.L 8 ; < 8 F +.q.9.q.>.| +.+.>.q.x.c.2.| *.w.q.3.+.*.6.q.1. .[ +.3.-.| ) Q d 9 t l y 1 1 2 1 1 2 8 s R <.2.1.q.9.+.[ $.q.s.s.e.q.1.@.{ [ | *.2.9.q.s.w.2.q.2.>.+.| { ) E H M m l l F  .2.3.*.*.| [ [ *.2.2.<.*.| ' { 3.6.3.6.5.5.r.j.x.j.a.f.r.*.#.<.' M i L | 6.f.M.N.r.#.-.6.y.y.6.! z t s N L W [ 1.2.*./ ! Q R R L L G c l l v M M m M v D L A m M N M l d z A D F ( 6.",
"<.*.| F r r L *.e.x.x.x.y.*.3.2.<.*.Q z c R [ ) ) [ *.6.q.<.*.-.1...L N U ( ~ L L L Q { 9.j.k.k.p.f.j.n.N.B.N.N.M.N.N.n.j.f.f.j.s.d.x.c.N.N.c.h.h.e.r.R r 8 i N +.s.x.d.s.q.@.+.@.2.e.d.x.9.{ ) *.+.{ [ | 1.1. .{ [ +.3.*.{ / L d r y z d 9 8 9 9 9 i z D { 3.-.=.q.w.$.] o.w.x.x.x.d.t.2.*.1.9.q.s.e.q.t.p.s.x.s.9.*...| [ / R F A z l F  .2.<.*.<.*.{  .3.4.<.*.*.{ ' | 5.r.6.6.5.5.r.a.f.a.i.a.:.Q ! :. .F d L #.i.j.N.n.r.#.<.r.a.h.y.[ v y k K [ 1.d.M.x.q./ ( [ {  .*.*.*.! R L L Q Q R R R ! ! G m z l l y 8 9 d M G [ 2.",
"2.3.+.L y i L | 6.h.a.s.6. .*.*.) / L N G ( [ / [ [ *.q.q.*. .*.| X.E A L ) [ ( ~ ( { >.i.x.x.x.f.f.h.x.M.N.N.N.N.B.N.j.a.r.a.j.j.j.x.x.M.N.c.d.s.a.a.R t s D [ 2.d.x.d.q.1.o.{ >.q.q.q.e.1./ L / ( ) [ *.<.| W ( (  .1.+.[ ! G M s i l l l m N N A L ( { <.<.{ $.2.9.@.) { 1.t.d.f.s.e.1.@.*.2.q.p.9.*.>.1.7.s.e.2.@.| { [ ( W E G c d F  .3.*. .<.<. .*.r.r.1.*.*. .{ #.5.r.3.6.5.5.6.6.6.6.r.f.<.! ' 6.3.L l F  .a.j.j.a.3.<.6.a.h.h.a.{ M s m E 1.s.N.F.m.2./ [ | *.3.e.a.s.q.*.) )  .<.<.*.[  .{ Q D N N N m d t d M L [ 1.",
"6.2.<.Q d d L { 2.r.3.6.3. .+.) Q L F L R ! ( ) | { +.3.<.| [ { ) ..~ V L ` o...| @.>.5.p.x.m.x.k.h.f.h.x.N.B.B.N.B.M.j.r.6.i.h.x.x.j.g.x.v.c.j.e.r.6.L y z Q 3.q.s.x.d.2.*.*.*.1.9.1.@.1.@.W H W ! ) | <.<.[ R Q ! | *.| [ ! L A d i l v G ! / L ! *.2.1.*. .! +.*.=...) ] o.=.7.7.2.1.+.[ [ ..9.t.1.| | ..+.=.1.1.*.+...{ ) / ) L v d D | 3.*. .<.*.*.1.a.a.2.| :.<.:.<.6.6.3.5.5.5.5.3.<.3.6.a.5. .<.h.6.L d D #.h.h.6.:.*.5.f.j.g.f.y.{ N d N ( q.d.B.F.c.1.$.<.3.2.a.j.x.h.h.6.*.3.h.x.h.6.[ | [ ! L L R Q L N l l m F / *.",
"3.3.<.W l l R +.6.r.*.<.<. .+./ W L D L R R ! |  .[ {  .{ / ! ( { X.^ S P { $.=.*.2.9.9.f.n.m.n.c.j.f.h.x.N.B.B.M.n.x.a.6.6.r.f.j.d.a.r.a.j.j.d.6.1.*.A t m ( 2.q.e.k.f.1.=.9.9.1.1...{ @...~ L ) ( ) { *.*.[ ! R W {  .[ ) / L A l d v G _ <.*.| *.r.a.<.{ ( E [ [ ] ( ( ) [ | $.+.o.o.{ ( / ( 1.q.$.) ) ] ) ) ..@.*.$.| ) ( ( | W M d A { 3.*.*.*.*.<.2.r.q.1.( *.5.3.3.6.r.6.6.3.5.6.3.:.:.5.a.a.i.j.N.6.L d D #.h.i.:.[ | 6.j.x.h.a.r.[ N d N [ e.d.c.A.m.q.w.e.e.a.d.x.s.3.*.<.2.d.N.V.h.*.W / ( W L L W ( W F v l c D ! +.",
"3.3.1.W l l Q <.2.r.*.*.*.|  .( W R L L L R / [ ) ! ! ( / Q Q ( ....E H E ..=.1.7.e.i.w.p.x.m.x.n.j.h.h.x.M.M.x.j.h.a.r.r.6.i.a.s.a.6.3.6.a.h.a.2.*.{ v t N ) 3.e.2.t.t.1.1.e.q.*.@.[ ] o.[ E R / ! / [ | | [ ) Q ! { { / ! ! L L v l M I *.e.q.e.e.h.a.*.) / Q R T L L T ~ ] o.+.{ ) [ [ ) ( ) ..@.) P W ( W E ) o.=.$.] / ~ / +./ N d A [ 3.1.<.*.*.3.q.3.+.{ ! *.r.5.3.5.r.i.6.3.3.6.5.*.*.3.i.h.h.x.N.5.D i M [ 6.5.#.' { 5.h.j.a.a.r.[ N d M | d.x.x.B.M.f.s.h.h.h.x.j.1.! E { r.c.C.M.r.| Q / ) ( W R W ( ) L v l z A R ) ",
"6.6.3.Q d d W 3.1.q.<.*.| [  .( R Q R L L ! / Q R L L W W Q ! _ { ( L V U { @.1.e.f.f.r.w.k.x.x.x.j.h.h.x.x.j.a.r.r.r.6.r.r.a.a.r.q.2.1.2.e.y.r.6.*.[ v t D [ 1.f.1.q.e.1.7.s.q.$.o.) ) | ( L L T R W ) [ [ ( ! ! ( { [ W ! ! L R M l z G *.s.a.h.r.r.6.{ ) [ ) A A Z A S P ) *.+.] ( ( [ [ { { ) [ E H T / E T [ $.1.=.] W / ) *.( A l N [ 3.3.3.*.*.q.r.*.( W ( <.i.6.:.3.r.f.r.3.3.r.6.:.*.3.3.r.r.h.j.#.M r l R  .*. .[ { 3.a.h.a.a.r.{ M i m +.x.x.k.m.M.k.s.d.d.j.x.j.+.G G { s.N.N.x.q.*.( [ +.+.[ ! W / { L z i d v D L ",
"r. .{ R t i R { { 3.*.( [ | ( I W L L R R Q R G M m D L L Q ) _ ~ E H M V ^ *.1.s.x.x.k.j.k.k.f.j.j.x.j.a.r.r.i.r.<.*.3.a.i.3.| ( *.2.2.3.q.r.r.r.2.*.N t A [ 3.2.*.o.$.2.q.9.2...| { ] / P H A F R ! / / / ! Q G W [ [ ! F D W G A c l D +.a.s.e.6.<. .| { ) ! M M b b N L ) o.*.=.*.+.....{ ) R R R P L L ~ ] +.2.e.2.[ W ( +.1.| N l A [ e.2.3.*.*.3.3.| W R #.<.3.3.#. .3.a.r.<.:.5.3.#.| #.{ :.<.3.3.' M d i M Y ! Q Q ! ' } [ } <.*.R v d N *.c.M.x.d.k.M.M.h.r.d.M.d.*.W Q  .s.M.M.j.6.*.| 3.r.6.*. .[ / [ A l s r z L G ",
"3.{ [ G 9 r D L Q +.+.( ( ) Q L Q L R Q R R R D z l A L L Q ( ( U P S b M E >.e.k.c.B.m.x.x.x.k.d.x.x.j.r.6.r.a.a.r.6.5.3.*.( Y R { 2.q.r.s.g.h.a.e.3.N t F  .6.1.+.| +.1.2.2.1.o...{ ) R K S N L Q / ) [ [ / R F R ! / W G A L A A z l A { 2.2.q.1.+. . .| [ ! S N m m A L ( | +.=.1.=.$.@.o.{ ~ / ( / / / ) ..1.7.w.2...) { *.2. .N l A ) q.1.*.| +.<.*.[ ! ! | #.<.<.:.:.3.6.r.<.*.*.| ( ( | { #. .#.:.( M d d l M M c z c M A M A L I A z l F 2.M.c.k.d.x.M.x.r.1.r.x.x.q.*.*.6.j.c.x.f.3.+.1.2.6.3.3.3.<. .[ D l t 9 c R R ",
"+.[ ( A 2 8 c c N / { ( ! Q L L L L R W R R L D l d N L R R W E J J V z M ~ 7.x.x.B.D.Z.B.m.n.x.x.n.M.j.i.r.a.j.j.x.f.<.' Q F M L { r.h.j.x.M.x.d.j.r.N r L *.q.$...{ | =.2.1.>.+.+.| / L S A S W / ( [  . .( L D L R Q W L A S A N z d A ( +. .<.+.{ { +. .[ ! L S N N H E ) [ { *.2.1.>.*.$.+.{ | @.+.| ..o.@.9.9.q.2.@.{ o.1.q.+.N d m W <. .[ [ | *.| ( ! ) {  .*.:.<.3.3.3.5.:.| ' Q R ! #.#. .[ { :.' C d j j i t 8 2 8 8 2 1 4 y d i d l L e.B.x.s.d.x.c.a.<.{ <.s.x.j.s.g.x.x.d.e.2.*.{ q.3.*.+.1.6.6.1. .R c r 8 c ! [ ",
"{ [ W c 2 9 l d l L ! ! ! R F D L F R Q L L L D c l N R R R L D S S N b S [ s.M.c.N.Z.D.D.Z.B.n.N.N.N.n.j.j.n.B.M.M.a.[ L G G F ! <.g.c.M.N.N.N.x.M.s.m 8 L *.2.+...{ | *.1.1.+.| | { / L H L T ) [ { |  .| / L A L Q W ! L N A N N c d M ! { [ *.[ ) { +. .) W L K S H R ( [ { ) @.2.1.$.o.o.o.$.1.2.1.1.>.>.=.t.e.w.q.*.{ +.2.p.*.M s l L [ ( / ( { *. .( / [ | *.<.<.<.<.3.<.<.#.[ Q L R { 5.3.<.|  .5. .F j l j i t e 8 4 3 < : < 2 r t d x L e.B.d.s.k.d.s.1.| ) *.a.x.x.x.c.M.c.r.*. .{ [ 6.*.{ { *.3.2.1.1.{ G y 8 c ( <.",
"! W F i 2 r d d l D L Q / R A A L G L R L L L D c d M R R L S M M n b b L &.d.c.m.M.N.F.P.K.Z.M.D.B.N.M.N.V.D.J.D.N.6.! G R ' | +.e.c.M.N.V.A.N.M.N.a.z 2 G +.*.o.o.| | *.1.@.) / / / R L L E ) | +.*.| ) ! R F N R ! ! ! L A A v m z d M !  .| { ) / [  .{ ( W R L L E ) ..+.o.( o.>.@.[ ) ) [ @.1.2.1.2.q.q.q.d.d.d.s.1.{ @.e.d.*.M i d A / W W W [ +.*.[ ) [ #.3.5.<.*.:.3.3.:.*.[ E Y ! 3.f.i.6.:.3.a.<.G l c c v c l d i u i y t i i d z m L q.N.c.x.x.d.p.1. .| 3.h.x.x.j.j.M.c.6. .[ ) / <.+.{ { | +.*.*.3.3.W d 9 c ) 2.",
"N m s 1 < 8 s d c N D L W L M m L F L L L L L D l i c L R F M h z h h z L =.s.k.M.m.B.F.P.K.Z.N.D.N.n.M.B.J.L.J.D.j.*.! Q { 5.h.q.g.M.M.N.A.V.M.c.x.3.d 1 D { +.o.@.+.+.*.*.[ R L L L F F L ~ { *.<.*.) R L A M A R R L L G A A c v z l N / +. .[ ! ! [ | [ ( ( W W ( { @.>.=.*.[ +.@.[ ~ W / ) ..*.=.*.2.s.x.x.c.x.c.x.9.o.=.s.k.*.M i l A ( / Q Q (  . .[ ) [ #.5.r.3.*.<.5.5.3.<.| ! !  .i.j.h.a.5.r.x.6.Y l C A F D M v M C S A B M M v c c L 2.B.Z.Z.M.k.f.q.3.1.a.x.M.x.j.j.M.c.r.*. ._ Q ) ( ( ) ) ( [ | *.2./ d r m ! <.",
"9 2 ; # ; 2 r l v M N F L D c v v z M F G L L A z i z L I A z i f h h b L @.s.x.x.c.B.D.Z.m.n.m.D.N.M.M.N.D.D.D.x.<.( ( *.r.j.M.x.M.N.M.N.A.N.j.x.a. .i 1 D {  .*.1.1.>.1.=.) L A N N N A L ~ ) *.+._ R G D N v F L D M A A N A v M m z N Q ) ( / Q W [ | [ ) { / ) o.>.2.2.1.=.@.*.o.( R E ( ] +.*.*.+.1.k.B.B.M.x.x.x.e.*.1.s.f.+.v i l D [ [ / ( [ [ / L R /  .3.5.3.3.6.r.3.3.3. .( { 6.j.j.x.j.i.h.M.a.Q M L Y Y F M C R [  .{ ( Q I D N c L *.c.F.L.N.x.x.d.r.r.h.x.M.x.x.v.M.x.r.2.3.[ G R L I Q ! ! / [ +.6.! d s A R ( ",
"* # X o ; 1 9 l v m m A G m l c r 9 d N G R R D M d v R I B g t f z b n J +.s.c.f.x.B.B.x.f.f.x.Z.B.N.N.N.B.D.D.5.! L [ r.j.x.M.V.D.A.C.V.A.M.a.d.6.) t 1 D { +.2.q.w.9.7.1.) F N N m m N L W (  .[ R F D F A m L G c s z N M N N D A v M L R G Q R W [ { [ [ +.( { >.q.q.9.1.*.1.1.o./ R W ) | >.1.*...1.k.N.Z.c.d.s.d.e.>.1.e.e.[ l t l F { | { { | [ L M A R | :.3.<.5.a.r.<.3.<.| ' *.h.n.j.M.x.h.j.N.h.[ G Q Q E D v A [ i.M.j.r.<.{ ! L N F o.x.F.P.N.x.c.x.s.r.s.x.c.c.M.N.N.d.q.r.q.[ N L G G R / ( [ | <.r.! d l D G L ",
"* +   + ; 6 i g B B M h g z g d 6 8 8 q x E U B g g S E I B z i M v m v L 1.k.e.e.d.x.x.s.2.e.N.D.F.L.D.N.A.N.s.W L R >.x.m.N.F.F.D.A.A.A.N.x.f.<.3.L 8 8 A [ *.2.r.e.q.2.<.| / S N M N A S L / ) L A A A A F L L M d l m N A G L A m c m L Q L L L ( | [ [ | | | +.1.e.p.q.1.<.2.*.o.[ W ( $.*.e.2.q.2.+.t.Z.B.d.q.q.p.w.*.$.2.1.R l 9 i L | [ [ <.<.Q m c D R +.*.<.3.r.r.6.3.3.*.{  .1.e.d.x.x.x.x.M.C.x. .F ! I D m z D <.A.V.M.N.N.h.<.( F C [ x.L.D.x.j.h.j.6.3.r.a.i.f.n.M.n.i.3.6.3.[ Q Q L R W ( ) [ | 3.2.Q d d A R R ",
"; % # * 1 t d g x z g i i d i t 8 0 0 t x L D z t a V U J B B M m M M v F *.h.e.3.a.h.e.6.1.e.N.P.L.P.L.F.K.B.q.) ) +.s.N.A.F.L.F.V.M.M.N.M.d.r.[ [ A 2 9 A )  .2.e.a.q.1.*.{ ( F A N A A D L Q Q L N M N D L L G m l c N A A G R A c z M L W L A D W | { [ | { { *.r.s.e.6.2.6.<.*.*. .( [ 1.q.s.q.q.1...9.c.k.w.>.@.=.>.+.o.$.{ F i 7 i L { [ [ +.{ L m A ! +.6.1.<.3.r.e.6.<.<.*. .| <.a.j.j.h.h.x.N.A.x. .L ! L c t y F e.R.U.J.L.L.D.M.3.R A | x.V.n.f.i.i.6.<.*.#. .#.r.x.N.n.i.<.3.*.( E ( / ) { | { [ | *.+.L y s A R ! ",
"2 8 7 7 t h z d g d t 0 q t 0 6 0 i i i z B x t 1 8 z S M x S D M N N c N [ q.2.*.r.6.*.+.1.s.N.P.F.F.F.D.A.k...) o.2.d.N.A.D.A.M.j.a.e.s.a.3.*.R R z 1 8 N ! | 3.q.r.2.*. .[ ( L D A A D F F D G D N v M D L L A m v A D A A G L v d d M R W G v m L [ | |  .[ | 2.d.j.e.2.q.a.*.*.2.<.[ | 6.h.e.w.e.2.+.1.q.1.o.] / W ( [ ] ) R v r 2 y L [ ) ! _ / L D Q *.q.e.6.1.3.r.e.6.<.*.<.+.[ +.e.j.d.r.6.a.M.N.e.[ R ! F s 1 r L j.R.R.I.I.I.U.I.f.R A { h.j.r.:.<.3. .#. .' Q [ 6.n.N.M.i.<.<.#.( Q |  .*.<.*. . .*. .[ A 9 t N L W ",
"d z z d g M x d d i t t t t 8 1 0 d z z g g t 2 ; 1 i g d h B S A A N z c W *.| <.6.*.( { 3.a.x.M.x.c.m.c.k.7./ / ..1.e.x.Z.N.c.p.6.<.*.*. .[ ( L L d ; 1 d L { *.*.*. .{ [ ( W L F A A F F A M A D A M N D G F A M N D F A A F F d 9 t c L R D v v L ( [ { | [ | 6.j.j.y.q.r.s.1.<.2.3.| *.a.j.q.e.e.2.*.*.+.( R T F N A L L L M s 7 1 r D / Q L R Q R Q | 3.6.3.3.3.6.r.r.6.3.*.<. .! ) 6.j.h.r.2.e.x.j.-.W L R A y 2 d ) x.F.I.I.I.L.I.I.h.Y A ' 6.5.{ ( [ | [  . .[ [ :.f.M.N.M.a.<.3.<.| { *.<.3.3.1.*.1.2.<.[ v 2 7 l A L ",
"B D S x x M x i d a i d d t 6 > 0 z S B h i 8 1 : : 8 i a x S V N N M z v W  .[ 6.3.( R ) *.<.*.@.+.1.q.2.1.@./ ( { *.2.d.N.M.s.*.*. .[ / W Q W L F y % # 2 m ( [ ( Q Q W W R L G A M M A A M z N D G F A A N M A N A D D M M D N r 1 r z L R D A M F W ! ( ) / { 3.s.s.e.r.r.q.3.*.*.-.*.6.j.x.a.a.3.| [ ) Q L M A M i r i d i r 1 ; ; 8 m L L M D L L / +.3.1.| <.6.r.3.<.*.<.<.*.[ L R <.s.s.s.r.e.j.a. .Q R L m t r A *.x.M.B.J.L.D.D.J.j.Q M ( 3.*.( Q ! ( ( [ | *.5.f.j.j.j.x.r.<.3.5.<.3.<.1.3.<.*.1.r.h.e.| z < 1 t z A ",
"S D S M x n z a d d g z h i 0 6 t x D S z i 8 2 : ; 1 0 i x B x c M A m M W  .[ 3. .R G ! ( Q L N S E ) / ( ) W ~ ( [ @.q.d.e.*.W ! W L D N A D D m r * % < d R W L D D F A N M N m z z m N m l M A F G A c z c A N N D A m v A c 9 2 r c G R G D N D L G L R I !  .3.4.2.6.3.*.<.[ { +.<.a.x.j.h.y.[ D A A m v d z d 8 ; * ; ; ; % % * 2 z F A z m N A R { *.+./  .2.2.*.[ {  .*.{ R M F [ 3.2.r.2.2.q.3.[ R L L M d d L *.h.j.a.n.D.B.M.N.a.( v ! <.#.( Q Q E R Q [ 3.a.h.i.5.i.f.r.<.5.6.6.i.3.3.*.|  .3.s.x.d.| l ; < 9 d N ",
"z x M M M x g d d d z M x g a d z M S V x d t 8 1 1 6 q i z x d d M G A v L [ ( [ W G G Q R A N a k S R P L T L L L ~ ] o...( L M M m l s y y s d i 7 1 7 r d F L D M v z d d l z l d d l m m c v c M D M d d c N m M D A m c m d 7 2 i c F R R A m N A x x A A F !  .*.+.*. .[ { ! / { *.6.e.2.<. .A t t y r t t t 8 < * # # @ % # % ; 2 d M z l c c v D W ( ! R ) +.+.[ / ( [ [ R v d v L ( ) | | +.*.+.[ W L / L A D I ( +.3.<.i.M.M.h.a.:.Y z Q :.#.( Q Y D G R [ 6.i.5.<.<.r.h.r.3.6.r.r.h.r.6.*.[ { 3.h.x.c. .d ; ; 8 d N ",
"i i g m M z g g g z x B M z z M B B N M M z d q q 0 i d d z z i t M L D l A Q W L G A L W L N A l c H W R P L H S H E ( ( R S m d s y r 8 7 2 2 9 7 2 r l l z A F A M c i 9 r d d d s y d c m v l d l A v t i m m c v D F M c c y 2 7 s z D R R N c m m d d z c v L [ { [ { [ ! / R W [ { *.*.[ ! E g < 2 3 < 1 4 2 1 < : & # # ; ; ; 1 2 d c d d z c v A L L A L R ( _ / / ( [ Q N i r d M G L ! ) {  .*.+.) R  .[ ( ! R F L ! *.6.x.n.f.5.[ A j R #. .( Q G v D R  .i.r. .| 3.a.j.f.6.r.i.i.j.f.r.*.[ { 3.s.g.N.*.d ; ; 7 s M ",
"q t d B S M g d d z M x z N S S S B N B B x z g g g g d d g h g s A L A v d d m z l A ! ( ( W L N K E ~ R L L L L S L ~ T K S N c m y 2 t t 7 r r 8 t m G A N N A D A c s y t r d i r r s c v l y i d d s t s c d d l m m l d l t d d d l A L D M v l s i s s s z N L L I L L L A A A F L L N z l y 3 < 1 2 1 : 8 3 2 4 2 < : < 2 7 9 r t s l c d M N M A A c z A R Q ! R Q +.[ L s 1 9 d z c N G Q [ *.<. .! G [ r.r. .R l d G [ a.n.j.h.3.Q A l D Q Q Y L D C L ' 3.6.<.| | #.r.h.h.r.r.h.x.j.v.s.<.| [  .q.x.h.| s * 1 8 y M ",
"d d z S J B x x z M B n M S D D S V V S S M x x M M M x z x x z M R R A l t r d c M L ) [ | [ ! W / / ( / E P L P L ~ ) ~ L L F N D v l m v l c v d z L ! R G G A F D M l d y r i t 9 8 t l c l s i s d d d d z l d l m M z l l i l m m N G G A N m l s i s s s y l M N v c z z d d d l l d t 7 t 4 1 1 2 4 8 2 r 0 8 0 8 2 2 2 r i d d d d z m N G G D A v d l A L R ( / ) +./ v 9 1 r z v c m F L / [ ) R L F ) 6.r.+.R l d G  .r.f.i.i.<.Q A l C F D A C C M L ' 3.5.#.' ( ' [ 3.r.6.5.f.x.M.x.h.3.{ W W *.s.a.! r 1 r r i A ",
"z z B L L S M M M B B n B J I L B B S D S B M M B S S B B B M z N L L N l y y l M L [ *.<.3.1.+.$.| ] ) [ ) / R W E ( { / R T L N G F D L F D L L A A Q [ ! L L G L L F A m l y y t r 9 t l v m l d d z v v c c l l x M M v z z l M F G L L G N A M c l l d s y 9 s l d t t t y t t y i s y 8 2 8 4 2 2 8 0 r r i i t 0 7 9 r r d z M M c l c M D L G G A d r d M G L ) [ { { G y 2 2 s M M v v A D L R G M M D L [  .) L c c L *.3.*.| *.| E D z M M c l c M C G ( *.*.( Y G L D ! #.#.#.3.f.x.h.e.1.( F A Q *.*.A 2 7 d i s A ",
"S S L E U S M M M M x z M L L J x n V D D B n M B D L L L D M z c G L A m c v A L +.r.r.s.h.e.2.9.1.*.*.1.>.+.{ { ) ] { ) ) ( E A G L L L L W  .| R L ! [ ! L L L R L L L L A v d d s y s c A D m v m N A D F F N A A A B B M m A G R R R R L D F A A A M z s y t d l s y d l l l l l v v l d s i i i i y y i s d l s r 8 t d d l N L F M z c M N A A D M t 7 s v A L ( [ [ ) B y r y v F F A M m m A G D m m F N D G F A m A R [ ' R L Q Q Y L A A A M c v M A D Y Q Q G M l l d C R E Q ( | :.*.| ( L M z m G L l 8 r g g l A ",
"I I W ( U N z x x x g d z S D S g z N D D B x z B L W ( W L M g m L R L G D D L { a.x.x.M.v.s.r.t.p.s.d.d.s.t.w.1.| { +.*.7.1.| L L R Q L R | a.r.{ Q ! ( W R R L L L L R Q L A d l l d l M G L L L L L R Q / ( W / ! R L R R L R ! / ( ) [ [ ) / E L G A z d d l m M v m G L L L L L L G M v v N N m c l l c b c c d y t d m Z F R ( ! G M m A N A A L G l r d v F R ) [ ( ( A v M A L Q Q R L A M N L I L L R F M v m m A F L G F C A L Y L R R Y L F A M v v v M M M c j u r r i l v M A G L L F M v l s t t d i i d l m A A ",
"W E W W S h d g x x g i d M B M d g x S D B x h x D W ( ( I M d N R Q R Q R R / 3.x.x.j.N.M.a.a.p.d.c.m.c.x.d.d.1.{ [ @.9.k.f.*.E G L Q L L +.d.s.+.W Q R L L R A A A D G L D M i d l l M L W ( { | { [ [ } <.3.1.6.3. .| *.*.{ { | +.*.1.6.r.y.r.<.[ Q S l l c m L R R W | *.+.1.*.*. .( L F G L L F N N Z F L N m m m c c Z L [ -.6.1.[ Q R Q Q W ! [ { R m v A R (  .| { +.R L W ) [ | +.+.+.! R L R ( { { [ ) L D G F L L A c c v G ( ! R Q ( ! Q E L M d u i i d l l l d i d i d j l c v c v l s s y r 2 2 9 t z v v D L F ",
"{ _ ( E B d d z B B x d g x M z d d d x N M z g d N E ) _ W J M A R Q R W / / [ e.j.r.q.M.c.e.h.k.x.c.c.x.s.t.w.>.| | >.w.x.s.+.R A L W D F { e.e.| R L F N A L z v m M M m l i r i l M L [ <.3.d.s.6.*.-.6.a.s.y.d.s.3.1.e.a.2.*.<.2.a.j.M.N.V.D.M.d.3.W M l v A ) 3.3.2.a.j.h.M.c.x.x.r. .{ *.+.{ / R R / { @.) / / ) W F H R q.h.M.c.s.2.3.6.1.2.2.a.x.r.( L L / [ 1.3.3.q.[ (  .1.2.6.s.x.x.e.3.{ / { 3.6.1.+./ ( | ) ( W D A M M R #.*.| #.:.| { [ Q M t 2 8 t l C D F G L L F C M M M M M v c l s 9 2 8 i d d A Q R / [ ( ",
"2.-.X.( K x M D L D A z l x m z d i t d z z g d a M E { *.*.` W R / ! R Q W W ) a.s.*.*.x.x.r.x.B.B.M.c.x.s.q.2.1.*.1.q.s.k.t.| T N L ( L D [ 2.q.| E L A v M G d z v v c d r 2 r i z F ) 4.d.x.D.N.a.3.6.h.x.d.y.j.h.2.3.s.d.r.*.1.e.c.V.F.P.I.R.U.I.N.<.F z z L <.c.M.x.M.N.N.F.D.F.F.N.h.d.m.c.s.1.@.*.9.f.x.d.e.s.k.q.( R ( s.c.A.F.Z.M.M.N.d.x.x.N.I.A.2.! R ( { 2.e.s.d.*.) *.r.a.d.N.G.L.A.M.6.[ [ q.h.r.{ ( *.e.1.*.{ Y Q F M R 3.r.6.a.r.3.<.:.' A t 1 3 i A R ! ' { #.*.[ ! R L F F F A D A l 8 1 i N L A W 1.3.3.q.2.",
"k.d.h.p.>./ E W ' ( T A Z A M l t 7 7 p d s r r e N / $.2.w.9.*.! / ( / R L L W { | *.6.a.s.h.x.x.M.m.x.x.e.1.3.1.a.d.d.x.r.| ' P A ~ | W ( *.| +.| ) T H L L M v v A G D M i ; 8 r d L 6.M.M.N.N.x.3.| 3.x.x.6.3.j.a.#. .a.j.5.3.3.h.A.L.V.N.D.F.I.I.A.q.D s c A 5.B.m.n.N.B.B.D.B.D.Y.Y.J.D.L.Y.L.B.j.k.B.K.L.K.L.R.R.B.>./ E 2.M.F.I.A.x.Z.A.c.c.d.c.P.F.e.{ [ ! _ 4.v.N.h.3.6.3.<.6.j.C.D.G.M.x.3.R Q -.<.( L !  .3.4.3.} ! *.[ L L 1.s.r.a.1.3.2.1.[ F y < 1 l R { | *.r.x.s.3. .{ / L L R / Q F v t 1 d [ | | 3.x.V.N.x.x.",
"m.N.Z.D.x.1.o.| >.>.{ E L L S m 9 2 2 9 e 2 1 2 r L *.2.2.9.2.*.) / Q R L G L R ! (  .6.a.e.q.q.h.c.M.j.d.q.<.3.a.x.x.d.h.6.{ [ P H ( @.( { 7.1.o.{ [ / P E E A m m G W R F z 9 r t d Q s.M.x.x.n.f.:.| 5.x.x.i.i.f.a.6.r.h.h.r.3.2.d.D.G.N.M.N.V.D.F.N.6.D i l S $.h.z.n.N.N.B.Z.Z.J.R.R.P.K.I.Q.R.P.D.D.P.Y.I.R.~.).~.P.k.{ L | c.P.T.Z.x.N.N.x.x.k.x.A.Z.p.1.) L L <.x.j.a.a.a.6.-.*.<.r.j.v.3.<.( G G ! Q A z B G L R ! [ {  .{ G A [ r.q.2.( [ [ [ Q N t 1 1 z ( 3.3.1.q.h.q.*.[ / R G G R [ ! L A d 7 c *.s.s.x.V.L.D.N.N.",
"B.B.J.P.D.f.1.1.f.k.p.$.' / E L a y t t 7 ; ; 1 t / s.s.2.1.1.+. .! L D D D D G L R [ 1.6.1. .{ *.a.j.h.e.<. .*.e.s.r.2.6.*.) ( L K ) *.{ +.q.7.o.{ { [ ( ] ( L S D W | ( L M l s y l ! h.x.r.6.f.3.{ | 5.a.a.r.a.r.r.f.h.r.6.6.-.4.j.V.D.M.j.x.M.M.N.M.2.A t i S ' 1.p.x.n.n.B.Z.D.K.R.R.P.K.P.P.I.Y.P.Y.R.Y.P.R.)._.Q.R.Z.$.M W c.T.T.M.d.N.c.k.x.k.x.M.x.p.e.+.A z Q  .! R [ *.{ ! W ! { *.<.R L M z z v z i i z v l d l A L L R M l L | [ R m N A M z y 8 2 1 v [ 2.1.| { +.! L D D A A L / [ ! Q R M r N e.A.A.D.F.D.C.N.V.",
"B.m.B.B.x.w.1.9.n.B.m.p.1.:.o.{ H S Z c t 1 ; 1 y ( d.s.1.1.1.+.*.! D M A D D F L R [ +. .( W Q Q *.6.6.1.[ / [ [ ) Q W [ [ ! ( P L ) *.@.$.1.>.{ / ( [ { o.] L T R +.2.) A m m l s l Q q.q.*.*.5.| '  .3.5.<.:.6.5.r.a.i.3.<.3.} 3.j.N.N.x.s.s.j.x.x.x.2.D r r C E o.9.j.j.k.Z.D.K.I.R.Y.K.D.D.B.Z.K.P.R.R.Y.P.P.Q.~.Q.R.D.$.M R c.R.I.m.k.M.d.f.d.s.k.M.x.s.d.6.A r i d 2 1 t v z v A I ! ! ! m d r 8 0 r t t d z x i 8 8 r t i l l l N G N d t t r 8 2 1 2 8 9 m ! { ! G D G M v z z c B R [ ( W W ( F y A h.I.I.P.V.v.x.c.N.",
"B.n.x.x.i.3.>.5.x.B.Z.x.p.r.2.*.) ) / L c r 2 2 y W 6.2.*.<.<. .*.! F A F L L L R ! ) ) R A A D M E [ ) ! F M A v l y d D L G L W R ( +.*.*.o.] W S S E ] ..) L / ) 3.q./ m c N l g l L *.*.+.<.*.[ ' *.5.:.| [ #.5.r.5.3.3.5.3.) <.g.v.x.d.a.y.d.j.x.x.6.F r r c Y | 5.p.e.f.D.J.L.T.R.I.J.D.D.N.B.D.I.R.R.T.I.T.W.~.~.R.N.| C / M.T.L.M.c.N.p.w.2.2.d.A.N.x.c.r.G 2 * $ + + % < < 1 i A L G A y 2 ; < 1 2 9 y s l l d t r 9 8 8 r l M M l d y r 9 2 < ; 1 9 i d M G F v d d l v z l l c A R [ ! Q ! ) D t v 2.U.R.Y.N.j.j.M.N.",
"x.k.j.f.5.| | >.k.n.N.x.j.s.2.| *.*.#.[ R m i 9 y L | +.}  . .{ | ! L R W ! W W R R Q L v s d z s c v l d 8 1 2 1 ; % < t i i l L L E ) | [ E L A f f S T / W L / ) <.*.R v v M g l c L | 1.3.r. .[ { <.6.<.| [ ( :.3.#.| <.3.:./ 1.g.j.h.h.h.s.j.j.j.d.1.A r t l T #.9.e.r.f.B.A.J.I.Y.L.D.D.D.B.Z.J.Y.R.R.I.P.T.R.Q.W.I.c.' c / x.K.F.M.x.c.q.$.[ [ e.L.F.M.M.a.R 2 o   . o o # + @ ; r d i t < ; ; 1 2 7 8 t d d d i y s i t r 9 l A x s d d r 9 2 < 1 7 y d d l l s 9 7 9 y s s s d v D R / Q R Q W B 8 d { G.U.I.M.s.j.M.M.",
"f.f.f.i.$.' [ :.w.f.j.j.j.d.3.' +.*.<.<.| Q M d y A / { [ ( ( ( / ! / {  .| { [ Q R I D v d s d t y 2 ; ; % + # % * % ; 2 1 1 y M F P / ) W K K M s a M N S L L R R / W A v c l d c m L +.r.r.q.[ [ [ *.3.5.:. .' #.*.{ { :.#.' ( 2.j.j.f.h.x.j.d.h.r.2.[ z 9 y l E >.9.i.w.s.m.N.D.J.D.N.M.M.N.B.B.D.I.R.I.L.K.J.R.R.P.J.n.) u L q.m.M.k.t.s.*./ L L 1.Z.N.x.x.d.W 0 # o o + + + + o # * ; : ; * * ; 2 8 9 r t d d d i s d d d s y c A c z v l t r 8 8 r i d l l d i r 7 2 8 r 8 8 r i c D L L L L L L z 7 d _ v.D.V.d.r.h.x.g.",
"j.f.f.r.| ( { 5.1.9.w.s.x.x.3.! ) { +.<.<.[ F l y M W { _ E R Q Q ! { <.2.<.*.*.[ ( ! Q L A m v d y < # % % % ; ; 2 7 9 8 < 2 d b H E ) [ E L R Z l c M c z N L L G G A v c l r d v M L *.s.r.*.( ( [ | <.5.3.<.<.<.:.#.:.:.[ E [ q.x.j.a.g.x.x.h.e.1.| L y 2 t c / >.9.p.s.f.x.n.N.Z.N.x.f.f.j.m.m.A.I.R.I.L.L.N.R.W.J.J.D.| e c | s.x.e.>.1.| L N N { x.k.q.a.g.Q r ; * % % * + # % % % % % % ; ; 1 2 7 r y s r i d g l c c z l l A G A G G l i y y s l c v c v z d s t r 0 9 r r r s v A A N F G D N g 8 z { d.N.N.a.6.s.d.s.",
"j.j.f.<.Q ! #.3.<.<.<.i.x.j.<.Q L R [ -.3.3.( v r l D I G A D G F ( *.3.6.e.r.3.*.+.| ) ( / Q L N l 2 ; 1 1 1 2 y r t d d s l N L ~ { ..{ ) ~ E L K F S S L T W ) Q L D z d l s d m z A  .q.1.<.[ ( (  .6.i.6.5.6.3.:.3.<.| ( ! *.a.M.M.d.s.h.j.3.*.| W M y r y M [ r.r.r.a.j.j.n.M.n.h.6.3.i.n.x.r.N.I.N.M.J.D.V.D.V.V.L.N.( r d N Q |  .[ ) ( Q G G ! { | <.s.r.G 8 < < 1 1 : * * * * : 1 < * 7 r t r 9 y s y s d b N Z M M Z M A D A F L G N l c M A G I L G N m c c m c d r y y y d c N D G F A v v v l N ) M.c.q.3.a.r.6.j.",
"r.r.r.#.R Q  .3.6.*.| :.r.r.| R S L _ *.4.6.{ M 2 t g z z x M A F R ( [ *.6.r.3.<.<.*.| [ { | { ! L d 9 r r r i l v A G D A L W [ $.2.7.1.@.o.o.) ) [ [ { o.*.1.1.} [ W D M v d d c l M [ 1. .|  .[ ' #.r.i.r.6.5.:.#.:.:. .[ ( +.e.j.a.r.a.6. .( ( ! L v t 9 t M ( 5.r.5.6.a.j.n.x.a.6.:.:.r.n.h.<.r.x.i.f.M.j.i.5.r.n.N.3.A e s s z A L R ! [ | ) W R R / | <.<.M 2 1 1 2 2 2 < < 1 2 r r r r t a d s s k c c c m N F S A Z F F F A A L R L N D F L ! ) ) ( ( L M l z A L A c l d d l m A L R D N l l m M L | d.g.3. .3.3.3.a.",
" .#.:.[ L E #.3.r.| ! { <.#.( Y A I [  .<.y. .v 1 2 3 4 t i l v M N A G ( 1.6.3.+.*.+.{ [ +.<.3.<.[ A d d l l v A R [ ) ! / | *.q.s.x.x.f.e.p.d.2.q.e.p.s.f.x.c.c.a.6.*.! L A l l c l M Q [ / ! *.| { :.r.6.:.| { ( ! ( [ | |  .| 2.2. .*.3.[ N M A G A l r 9 t j D '  .| | <.r.r.5.:.#. .#.5.h.3.' ( [ ( | <.[ E A R 5.5.L i u i 7 2 y v D R [ { | [ W Q [  . .Q i ; 1 2 1 2 8 8 2 8 i d i d l d k l d l m N Z K K L L L L K L R L A A R ( Q A Q ! [ *.*. .| +.( A s d F ! Q F M c l z A L W / L M i d M A R  .a.s.1.{ *.<.*. .",
"L L R L F Q  .:.6.{ ( {  .( Y L G Q _ _ {  .! g < < < 1 0 i d i i y i v W <.3.*.{ { [ ) [ *.<.<.3. .G l z N D L / +.<.{ [ *.6.q.t.k.N.Z.M.x.c.Z.x.c.M.N.N.N.A.F.F.M.x.a.*.) R M v v v M D F D G { ' [  .#.( G M C M M A G !  .5.| { ! R ! ( A 9 r d c z s r r y e t z A D D Y ( Q E Q ( [ [ [ { Q F A M c A A z u 2 d R Y i w l d 8 1 y v A L W W / ) [ {  .[ ( M 1 * 2 8 1 2 0 r 8 r d l d d c c c c c m Z H L / E W ~ W T L R Q R L L (  .[ L / (  .3.<.{ [ +.{ D i y m L L D M v l z A Q ( ) G M i i z m D / e.a.1.| *.*.) G ",
"i u i z C Q { {  .' ' { ! S c v A F G A M D v 4 < < < 2 0 y t 2 1 1 8 z ! *.*.[ { [ / / { *.+.[ ) ! N d M W [ | 3.q.1.{ { 2.s.e.7.t.c.Z.N.c.M.A.K.F.F.F.F.F.F.K.F.M.M.x.r.1.} ! S N N N l s l c R L L L F c t 2 e t t u d A ' 3.[ L m m A A i < 1 9 i i t r t i 2 < < 4 r r t l i i z A G D C M z l d t 8 8 8 < ; * 2 d u 1 w v M i 0 i z v M S L D L ( { W D A i ; * 8 r 2 8 r t r y z v z z m S S S H L E / ( [ ) ) ) ( W R R Q ! ( )  .1.*.) W (  .1.*.{ { *.[ G d r y l l l l l l l N L Q R m c s t i s l G *.*.| [ | | L y ",
"4 1 4 i M E ( E G G R Y M t 4 8 i y y 4 1 4 4 $ * < 2 2 4 0 2 * ; ; 7 c W { ( L ( E L L W ( R A c c t r A  .q.q.q.2.+._ | q.a.r.>.2.d.B.N.c.c.N.P.L.F.F.K.F.A.N.B.c.M.M.g.h.s.q.R A A N i 8 r i M c l j t 8 1 1 3 w r 8 e l L [ W N d d z d 9 1 2 9 t y y i s s w < * * ; * ; < 3 3 8 i l l d i i i t 8 3 , * * ; < 8 8 < < t M D v d i d g z v A z v L R M d i 1 % ; 8 r 8 r r t y g v D D D N E R W ) { ..+.*...{ { | ] ~ L L E ( { | *.3.<.| R / {  .| | +.*.W L c y 8 7 9 r d l l l v D G D z c l i y r d A R L R W Q R M 2 ",
"t 4 8 i z D D z i j l i 4 ; & * : * * $ o + # @ * 3 0 4 2 4 1 * < 1 r v L R G m A M l l c v d r 2 9 1 2 D 3.d.s.<.*.{ { *.e.a.r.7.9.s.M.N.c.x.c.A.N.N.A.L.K.B.x.c.x.N.N.j.j.c.x.+.L A A s 9 r r l j l d t 8 8 r t i i t t l A L L A c l l l s t y d d d l c z d i r 4 3 < < < 1 3 2 r l M C C A A v l i r < * < 4 t i i 8 8 j D L L A l d z v M M M A G D l t 8 * % 1 t t y i t l v A G Q _ Q F [ ] | 1.q.q.7.q.*.+.+.@.{ W H N L ! ( ) [ +.| ( L ! ( ! ! [ { { L G A l r 7 8 r i z v z v D L L D G N z l d z G A v A L A M z r ",
"d t t t u i u 1 , 1 3 , % # # # # + # @     + @ 1 r y 0 2 2 2 1 7 8 y v F D m l g s r 8 8 9 2 ; 1 7 1 2 L a.c.d.+. .+.<.e.j.k.s.s.t.d.M.N.c.k.x.N.m.M.F.I.I.N.d.M.c.N.M.h.h.x.x.r.R A A l i s t s l M M l y u d j l l d k v C N F L K x c M M z c x m M Z S N l s j j i r e r t 8 t c L ( ( ' ' [ E C z l 8 1 e u j v v d d M R R ! R A m A D F A R / Q F z r 1 ; < t d g z v l D R Q !  .3. .R *.$.1.s.x.k.s.s.1.*.*.=...E S c L R R R W ) / R F R Q G F R ! R D G L N d r t i s c M v N L / / ( ( R A N m A R N z A F z l z d ",
"z i r r 2 ; * * % ; < * % * * $ * $ + @ # # % * 7 0 t t t t t r t d v N A m d y t 8 1 1 2 2 8 9 e r e d T 5.k.f.>.#.$.r.f.k.x.N.j.j.x.x.n.n.x.f.m.B.N.B.I.L.x.r.x.N.n.i.6.h.x.j.a.[ L C l j l s c A S V N z d l c m m z c V K H E E P S H U E L H J E ^ R R E L L K m d k d a l p y N o.s.s.s.x.n.$.Q T N e e l M c S T K E [ / ) [ ` / / ) [ ` ) | 8.7.^ n r 1 1 7 i l v D L F / +.1.*.*.6.3.| 1.q.t.s.k.k.s.q.| ) *.1.( L K M F A D L Q Q L F G ! W M d m G G N F D N M l t y d l M N M R <.r.6.3. ./ L L Q ) L R R D v l l l ",
"i r 2 2 1 ; * ; ; 1 1 < < 1 1 < ; ; ; ; ; * ; 1 8 r i d d l l l d z N A D N c l d t 9 8 9 r t y s s d m / 1.i.q.,.:.>.w.f.k.x.N.x.n.M.n.n.n.j.r.h.N.B.B.J.B.a.5.r.h.a.3.3.h.n.j.i.#.Q A l j l j m L E L S N M A N F H V S U ( ( { ..{ ~ ~ ` X.X.` ` X.;.@.=.;.&.+.) F b m c d k a f L q.Z.Z.Z.F.n.1.] ( K d k S T K T ] o.>.1.$.1.1.1.&.@.;.1.;.q.t.x.d.{ A a 1 8 r d l c L ( ! [ 1.e.e.e.a.r.1.p.s.p.t.t.w.1.| E E +.1.( K S m A A D L Q Q L F M L G c l M F A A L F N m d r r l z M M v L <.a.r.r.2.+.( / [ *.( ( / L m d s d ",
"1 ; % % * * ; < 2 8 8 r t i i i r y d s 9 1 2 r t d z v M D L G A A G L L G D A A m l d d l l l l k m L { 1.5.>.q.5.9.p.h.k.x.n.j.M.N.n.M.N.x.r.r.n.B.N.N.h.3.<.6.f.f.r.a.N.V.j.h.r.*.Y l j c l F ] ../ T T E / ( [ { ) ) @.2.7.q.u.t.=.X.;.t.k.8.7.u.d.t.s.x.c.N.t.) T T S z l a z ~ k.P.L.F.L.x.q.:.o.Q Z K ( $.o.{ 5.n.m.f.p.x.x.k.f.f.k.k.d.N.B.A.m.=.P l 7 y d l l v W *. .[ <.h.c.x.h.r.r.p.q.1.*.*.@.) P A L | *.W Z b f Z A A L Q W R L A F D N A L R L L W R G N d r r s d z l l L *.r.3.6.6.<.{ ) { *.[ ( W G d 2 < 2 ",
"# o o o # * 1 2 0 r t l v A A S D F L G m d s d l M D F L ! [ [ W Q Q W W R R R W R L D A A A M Z C K ( >.9.1.>.p.i.p.p.f.j.k.k.j.M.N.x.N.D.V.j.r.x.N.M.x.i.3.3.j.N.B.n.N.I.J.j.x.n.f.( z j M c / 1.1.) ( ..=.2.p.k.k.t.q.s.x.c.c.Z.N.s.7.7.d.c.d.k.c.c.w.w.c.A.R.A.s.2.1./ M l d m ( x.P.F.Z.Z.k.w.1.>.{ ( ] :.p.i.9.z.P.D.f.z.N.N.N.N.N.Z.N.N.A.Z.A.N.9.( M 9 s d l z D +.q.*.W { e.M.x.r.6.r.1.| / R W ~ L Z c L [ { L c a s m M A L W ) ) ( Q R L L ! [ [ / (  .| / L z r r y t i d z L *.3.+.+. .{ ) ) [  .( Q L N r # o # ",
"# + + + % 1 9 r 8 9 d A L Q / [ { [ { { ( L F A F R Q R Q [ *.<. .{ [ { [ ! W ! / [ ) Q L I R R ( / ] >.i.p.w.9.9.i.p.f.f.j.k.j.n.N.M.x.N.L.L.N.a.x.n.n.M.j.a.h.D.L.D.N.D.I.J.x.x.M.x.[ c l C A =.e.2.{ +.e.d.k.A.P.P.Z.c.N.A.F.D.P.H.v.t.q.s.x.c.v.A.c.1.@.s.N.I.Y.K.Z.x.@.S l z A ..M.I.F.N.B.f.i.9.r.q.9.9.w.h.p.w.N.Y.Z.f.m.A.A.A.F.L.F.A.Z.Z.Z.A.Z.s.$.T k d s d M / s.g.*.I ( 2.j.h.3.1.q...~ S b M A M k f H ( / H l s d m m A L (  .*.*.+.( R / | *. .{ | 1.1. .! M t 9 y r y l N ! +.| ! R L R ! [ { { / R G M 9 + X # ",
"* * * * < 8 t y 8 r l L ) [  .3.6.<.*.1.1.+.[ ! ! [ [ Q Q | 1.2.2.<.*.<. ./ R Q R [  .[ ! ) } *.p.w.w.p.k.x.f.w.1.w.f.k.x.m.m.n.A.N.n.x.N.D.D.N.j.x.x.M.N.n.x.N.L.D.N.n.N.D.V.N.f.j.f.[ M l A G 2.e.1.$.q.c.m.c.A.Y.R.K.N.Z.F.L.P.I.L.N.k.u.d.x.N.v.Z.l.X.) 1.l.N.T.R.I.A.q.P b c H =.Z.T.L.N.M.f.f.f.k.m.B.m.x.p.,.1.N.P.m.j.B.L.F.F.L.P.K.A.Z.A.A.F.A.c.s.$.L c i s F *.M.v.<.Q [ 3.a.q.<.-.6.+./ Z z l c k y f L ( ~ L N c N N A L W { <.4.6.q.| ( | <.*. .| { <.<.+.[ D i 9 r 8 r d m L Q G m z l m L ! ( ! R L A c r ; # * ",
"< 1 1 2 9 s l d y d A ) | [  .6.r.3.*.1.2.1. .{ [ +.{ Q R [ 1.2.r.2.3.2.*.W L G L { 1.*.{ +.q.h.m.m.m.n.m.B.m.p.q.h.m.B.Z.D.D.Z.D.M.j.x.N.N.M.n.j.n.n.n.n.h.a.x.x.h.h.x.M.x.j.j.a.i.r.[ M l A L :.5.1.r.x.B.m.x.m.K.I.D.x.x.B.Z.P.F.A.M.x.x.m.N.A.M.c.s...) *.t.c.T.~.P.A.d.) A l L 1.F.R.P.M.k.p.x.B.Z.J.P.K.Z.i.] #.m.D.m.m.D.R.P.D.D.J.D.Z.Z.B.Z.F.D.B.B.k.3.A d d L 2.c.j.-.)  .1.3.*. .+.*.=.[ L N M N b d N ) o.{ ] E L E L R W [ +.3.q.r.r.+.[ <.3. .[ [ )  . .{ [ L d r 8 2 9 y i l z i r 8 9 i v D F A N M v d r 2 < ; ",
"2 8 r r d m A M z m L  .+.) [ <.6.<.*.*.<.*.{ [ { *.{ R L ) <.2.e.6.2.6.*.Q A A R *.e.2.*.3.d.N.m.D.Z.m.B.D.B.f.k.B.K.P.I.Y.I.K.A.j.f.x.N.n.j.x.j.M.M.x.h.3.*.6.:.#.3.x.n.i.3.3.j.i.6.{ A l C L { >.9.k.Z.Z.x.k.k.Z.K.B.f.f.j.k.F.Z.c.x.c.N.A.K.I.N.x.s.=...1.t.M.R.Q.D.Z.c.*.L z L q.P.~.P.c.p.p.m.J.K.P.R.Y.K.f.( { N.D.m.B.D.~.P.D.Z.Z.B.N.B.m.N.Z.B.m.D.D.k.L l l L <.s.r. .{ *.<. .[ [ [ { >...~ L L L H N R 1.q.1.1.| / [ / / ) | *.3.q.r.3.{ [ <.<.) Q / ( [ [ ) ) L z s 9 9 t t 9 r r 2 2 2 8 t l c c l l z l y r 9 7 1 ",
"7 9 s d c L / T L K W { ) / | 1.3.6.*. .*.*.[ ! ( *.{ L L (  .1.6.q.4.2.<.Q M M F ) 3.6.a.x.M.x.k.x.x.x.B.Z.B.x.B.Y.~.Q.R.Y.P.A.B.n.x.M.N.n.h.i.i.j.x.h.3.#.| [  .:.i.x.h.3.#.*.i.h.r.Q j z L E :.9.5.w.B.K.m.f.p.m.N.f.w.k.z.p.c.N.N.m.N.Z.F.R.L.P.m.t.p.q.w.m.Z.I.E.P.M.k.1.E m H w.D.P.F.f.q.x.D.P.K.D.D.I.R.x.o.] k.D.m.m.Y.R.K.B.m.N.N.m.B.B.z.n.B.B.D.Z.x.R c l L )  .-.-.| ) [ [ ! (  .+.=.1.+.) ( ] / K / 9.k.s.q.@.{ +.] ) ) { +.<.6.e.1. .[ ( / Q L A R ! ( [ [ ! A i 2 9 t i s y r 7 2 9 t y s l l s d i i y t 9 7 2 ",
"r s m A L [ *.| / R ) +.[ ) +.>.4.6.*.{ *.*.[ ( [ *.[ L L ! [ +.*.2.6.2.| F z M G ) <.6.a.M.V.M.k.p.w.k.m.B.Z.D.I.Q.~.Y.K.K.K.J.B.M.M.N.N.x.a.6.<.6.r.5.*. . .|  .3.a.j.r.#. .<.a.j.r.Q j c E ' ,.w.q.9.k.m.z.f.p.k.f.w.p.x.n.f.x.Z.Z.M.Z.D.F.Y.A.K.M.p.w.7.9.x.A.P.R.P.N.c.7.E c F q.Z.Z.M.s.e.x.D.P.K.D.D.K.P.m.1.>.x.J.Z.D.W.Y.D.B.B.D.Z.B.m.m.k.x.m.B.Z.B.f.R v v L ! [  .*.| ( ( ( W ) *.<.q.1.=.$.@.| ) W [ q.k.s.q.*.| +.[ [ ( ! ! [ *.q.2.+.( R L G F F D R / ) [ [ F s 1 9 d c M v l s i d l l z c l s s d d d s t r 9 ",
"s c L / ) >.q.1.[ ( | *.+.o.>.1.3.3.| [ *.*.| {  .*.( F G Q ( { | 2.a.6.( c d D R { 3.6.a.M.N.M.k.9.>.w.x.m.J.R.~.^.W.D.B.Z.K.K.N.N.V.D.N.j.r.3.<.3.3.*. .*.:.:. .3.a.a.<. .<.i.a.h.r.E j c ( *.i.z.h.q.i.i.i.p.h.p.5.5.i.z.z.h.h.Z.D.B.Z.K.K.D.B.D.m.p.1.>.7.k.Z.K.Y.P.D.Z.e.W c H q.N.c.x.s.d.m.Z.K.K.D.D.D.D.m.p.p.m.D.J.P.Q.I.D.B.D.K.J.m.z.n.z.m.B.N.B.n.r.L v m L ( | *.<. .[ ) ( ! | 6.e.s.q.2.q.q.*.{ [ +.e.f.p.e.1...o.[ ) Q F A G ) *.1.*.) R F A A D v L W Q ) | R l < r v L W R G A A A D D A A m l d l c c l d i y ",
"c N W | +.1.7.>.{ ] +.1.*.1.q.9.<.*.[ [ *.1.+.+.*.<.( G L ! ) { *.q.s.q./ l l R [ 2.s.r.q.s.x.j.j.w.>.$.9.x.D.P.R.R.P.Z.m.Z.K.L.N.V.D.D.M.a.5.3.6.5.<.#.#.<.3.<.| 3.r.6.<.3.f.N.6.r.6.Q j c ( 5.n.B.n.i.q.5.5.q.z.i.>.:.5.5.q.q.p.Z.Z.m.Z.K.D.Z.N.Z.n.q.o.#.9.z.B.A.L.L.L.L.k.( M L t.N.c.c.d.x.N.B.Z.D.D.D.Z.B.x.x.x.m.Z.K.I.Y.K.D.D.J.J.Z.n.z.m.m.D.D.B.D.m.9.F l c R | 2.e.q.*.{ { [ [ 1.h.d.s.e.w.w.w.7.$.{ =.e.t.q.w.1.| [ ] ! L v l m L ) { | { / R G D A x L E L Q | / v 2 i G | 1.*.[ ! ( ( / ! Q L F N M A A m l l l l ",
"A F ( >.1.2.2.>.| { +.>.=.7.w.2.*.*. . .1.<.| | 1.1.[ L W [ | *.r.e.e.6.( z l Q *.h.M.f.3.2.r.e.p.f.,./ { f.B.m.B.D.K.K.J.K.L.L.B.B.D.V.x.r.5.6.r.r.5.<.3.5.5.3.<.6.r.6.6.j.N.D.5.r.r.' c c ' i.D.J.m.p.i.5.,.5.h.q.,.:.#.| #.,.w.m.B.z.m.D.Z.m.N.n.f.$.( { i.x.c.M.A.K.Y.T.x.) Z P s.Z.N.B.x.c.B.m.m.B.Z.Z.B.N.f.m.B.m.B.K.P.K.J.J.J.J.B.x.z.n.B.B.J.J.D.J.N.r.F d l L *.s.h.q. .{  . . .6.h.a.9.s.t.1.2.t.7.{ 1.q.q.2.q.1.[ ( ( Q D l d M L R / ) [ / Q R L A c L Q L Q | ! l r z ! r.c.j.r.2.r.6.<.*.{ / R L R R L A v v M M ",
"S A W $.1.1.2.1.o.| @.$.$.7.q.*.*.<.*.*.1.| / ( 1.1.{ ! [  .<.6.d.e.6.6.[ m z R 3.x.V.j.2.3.6.6.9.f.>.T E p.x.q.p.n.K.R.Q.R.P.F.n.N.N.N.j.r.6.r.f.h.j.h.j.j.j.f.f.j.j.a.h.N.V.B.r.f.h. .M c ( i.Z.D.n.p.p.q.:.,.i.q.5.,.#.{ #.,.w.x.m.k.m.B.x.h.k.w.$./ Y { f.x.k.x.N.F.I.T.x.( A T s.Z.N.N.x.c.B.m.x.m.B.N.m.m.f.B.Z.B.B.K.P.D.B.D.J.D.n.f.z.m.m.D.K.K.D.J.B.i.L l d L +.a.r.+.[ [  . . .3.r.<.@.q.7.o.*.s.e.o.>.q.7.1.2.*.( W / Q F c z A G G W W R L R W R G z L ! R /  .R d d A { x.L.D.M.M.M.d.r.1. .[ / / { { ( L G L G A ",
"H N L { *.=.1.*.| { o.o.+.9.q.+.+.-.*.*.*.) Q / <.1.| ) { *.3.e.x.e.6.r.*.A z R q.M.A.c.a.r.q.3.>.w.$.T / w.k.9.5.j.K.~.).R.D.N.x.x.n.n.j.r.r.i.j.M.V.D.D.D.N.n.M.D.V.x.x.B.B.x.j.x.x.:.M j E r.z.n.h.i.i.5.,.q.q.i.p.i.5.3.5.5.i.x.m.n.B.n.p.w.9.{ E S S { k.k.d.x.B.A.L.P.d.E Z R d.A.M.c.x.N.D.m.x.x.x.x.x.m.f.B.D.Z.D.P.K.B.B.B.J.D.m.h.x.B.N.J.I.K.J.K.J.f.L z l L { 2.<.( ) [ | | { *.<.[ ) { [ ( | q.e.1.*.9.2.1.1.+./ T T R L m z N F D Q R D A L ) ! L v L Q R ( | Q z N L *.M.L.F.N.N.j.r.-. .{ ) [ | *.1.*.| [ [ Q D ",
"P N L [ *.*.>.*.) ] { | +.q.e.$.[ +.*.*. .! R ( *.1. .[ | *.3.a.c.a.r.h.3.F c L s.M.A.M.d.h.r.*.>.1.#./ ] i.k.p.>.f.D.~.).Y.B.j.f.j.x.n.j.i.e.a.x.B.L.I.L.J.N.x.B.L.I.B.M.V.N.j.n.M.n.:.c u L 5.q.p.i.5.5.:.,.i.i.f.h.p.i.i.i.5.p.x.m.B.Z.x.9.1.#.T S m C o.z.k.d.x.B.A.F.K.p.L Z W x.A.c.x.c.F.K.B.x.x.k.j.k.m.f.N.D.A.D.L.D.m.m.N.B.B.m.x.n.N.B.J.I.I.K.I.K.j.L v m L [ <.+.! ) [ { [ [ +.*./ R T P R ] >.9.9.*.7.2.1.1.+.W L G R L m l c A A R L A A Q { ( F A L L L Q [ ! A G E *.c.F.N.M.M.2. .( / / ( { *.1.q.r.6.2.1.) G ",
"E m L | 1.<.| *.*.[ | +.+.2.e. .[ ) { *.[ R R [ +.1.<.{ [ <.q.6.h.j.x.M.r.D j L i.j.h.f.a.6.<.5.1.1.:.| 1.x.B.m.k.N.K.R.Y.D.x.p.q.p.k.n.x.x.h.f.m.B.D.L.D.m.x.N.D.J.J.D.B.M.x.x.V.N.j.[ l d F ' <.i.i.<.:.*.6.j.h.a.h.n.N.x.i.q.k.m.m.m.B.Z.k.1.$.E M M E :.w.p.5.n.D.N.Z.D.r.L N | n.D.M.x.M.V.K.N.n.j.s.h.j.a.i.j.M.N.Z.J.A.x.n.B.N.N.B.n.n.V.B.K.J.K.D.J.L.h.R z s A ' | { [ +.} [ [  .*.| ( E H S L / *.7.=.=.1.$.o.@.[ ~ / R G A N v l x A G R L ! ( Q ! R F D C G ' [ Q L L R [ n.D.M.M.h.| Q R ! ! ' #.<.6.3.<.j.M.j.3.L ",
"/ m G { 6.r.<.1.3. .*.*.*.2.r.+./ ! [  .[ Q / +.1.r.6.*.{ *.6.6.h.n.M.x.5.A d D :.r.i.r.r.3.*.3.i.w.3.:.w.B.D.Z.B.D.P.Y.K.B.k.p.w.f.x.m.m.n.x.x.x.m.B.Z.B.n.n.B.D.B.N.V.V.M.j.x.B.x.r.! d t A ( 3.a.r.<.:.<.r.x.j.f.j.N.B.x.f.a.x.x.x.n.B.Z.m.f.:./ S S / >.9.9.i.x.x.j.N.V.5.D M | n.D.N.x.N.B.D.N.x.h.r.a.x.h.h.j.x.x.N.V.B.N.n.n.n.n.B.N.n.N.B.J.V.V.N.B.J.f.L l t M W ) ( ( +.[ ( [ +.*.| [ W L L L R ] $.@.*.$.[ ) { ) W W L D M M v z x B D L I _ { ( _ Q F D A L {  .Q L G L ' x.D.N.N.j.#.Q Y ! ' | *.*.5.5.5.x.N.x.r.Q ",
"[ m D { e.j.q.2.2.<.1.1.*.1.3. ./ / [  .| ( [ <.2.r.q.-. .*.3.6.h.N.M.h.*.C i M ( <.r.r.5.*.#.5.k.f.9.5.f.Z.K.K.P.I.Y.P.Z.x.p.q.p.j.x.m.N.B.B.B.x.x.x.m.m.m.B.A.A.x.x.M.N.j.j.x.M.r.#.R d r M ! 6.f.a.3.3.6.h.N.n.j.M.L.J.x.h.j.p.p.j.m.Z.m.k.p.$.( T E { 9.p.p.x.j.i.r.M.B.3.A C | n.V.N.M.N.V.N.n.x.f.6.a.n.n.n.j.h.j.M.N.N.B.j.j.h.j.N.n.j.n.B.V.N.n.j.n.B.r.D d t v L W W ! [ W W { <.*.{ ( / W E T P R / ) | { / W ) / R T D v z v M v M A D R E {  .[ [ Q G G A R #.*.! L F G ( x.D.V.D.M.5.( Q [ *.3.6.<.5.r.i.M.N.x.a.( ",
"/ z A { a.x.q.2.<.<.<.<.*.<.-.| { [  .<.*.| *.4.3.3.3.*.+.*.1.2.h.N.x.5.' v u c Q <.i.r.3.*.<.a.m.k.i.w.k.B.D.D.I.Y.I.J.B.k.w.9.k.x.n.m.B.Z.D.D.N.n.x.m.Z.D.J.J.D.x.a.h.f.r.h.N.x.<.[ Y d e v Q r.j.f.6.r.f.x.D.B.N.D.R.L.j.i.j.1.1.p.B.B.p.$.| | ] ( [ 1.z.B.B.M.j.5.6.x.M.:.A A  .x.N.M.N.V.D.x.x.x.h.r.j.N.N.N.j.h.M.B.N.N.B.j.j.f.a.j.h.h.n.B.V.N.n.j.n.B.6.A l i c L R Q ! L F L | 3.*.) W ) ] ( / W L H L / ) / R ~ E L L z d d v A A M A L W Q _ { ( [ Q Y Y L ! <.:.Q F F L ' N.I.L.U.D.h.*.| 3.r.h.j.a.i.h.h.N.n.h.r.! ",
"R l A [ r.s.1.-.| *.*.+.<.<.*. .*.*.1.6.6.3.2.y.3.<.*.*.-.<.<.1.j.N.f. .Q c u l Q 3.h.i.3.<.6.x.Z.m.f.f.z.x.n.m.B.Z.D.Z.N.x.f.p.M.N.N.B.B.D.K.P.Z.B.B.Z.J.I.I.L.J.x.r.5.3.3.h.D.x.3.| E j 8 l L a.x.j.i.h.x.N.D.V.V.L.I.B.6.<.r.,.>.i.m.x.3.' ( { o.#.>.p.B.P.I.N.h.5.r.j.j. .F A | h.j.j.M.V.D.h.j.M.j.f.n.D.V.N.x.x.V.J.V.N.N.n.n.j.i.i.6.i.N.B.D.N.N.n.N.B.6.A l i z F R R Q N m A W [ [ ! Q [ | ] ] [ L m m T ) ] / W L F L l d l M D A v v I ! R Q ! ! [ ! E Q Q [ <. .L M A L { V.W.U.R.J.n.r.5.f.j.x.M.M.j.M.x.n.h.6.<.Y ",
"R l A [ 2.6. . .[  .{ [ *.1.*.-.1.1.2.e.a.e.y.a.6.1.*.1.3.<.<.3.x.n.r.{ Q c t j R 3.j.a.r.6.a.N.D.B.m.m.x.f.p.f.f.k.x.m.N.m.m.m.D.D.D.D.D.D.K.P.D.D.D.D.K.I.P.J.D.x.r.:.*.5.j.D.x.r.3.! d 2 j F f.x.x.j.x.N.N.V.D.J.L.V.i.{ [ #.9.1.9.p.r.#.{ o.>.9.w.w.j.B.K.L.n.a.5.i.j.i.[ L A { a.a.f.n.B.N.j.x.N.x.j.B.L.D.N.n.M.V.J.D.N.x.n.N.j.i.6.<.6.n.B.V.N.N.N.B.V.r.A l y l A L R R N M m N G R W W [ | ( ) o.R c m T | +.] / T K L z l z S D M z l G E G L R W { ! Q ( ( | <.[ A l z F #.L.!.U.U.D.x.r.r.f.f.h.n.N.N.B.x.h.r.3.*.L ",
"/ c A ) 1.2.{ { [ | W R | <.*.3.3.3.6.y.s.e.r.q.3.<.1.6.3.*.<.r.n.x.5.| ( v e i G <.j.j.f.f.j.V.D.B.B.Z.n.w.1.9.i.f.k.x.m.B.Z.D.D.D.D.B.N.B.Z.D.D.D.A.B.B.A.D.N.N.j.6.*.3.h.N.N.f.i.6.Q u 3 l L a.x.x.x.N.N.M.N.L.I.L.j.| Q ( | w.5.>.$.o.{ $.5.w.z.N.n.x.B.Z.N.x.i.6.h.x.r.[ L A | f.h.h.M.B.M.x.n.N.x.j.D.U.D.N.M.x.n.N.V.N.x.n.N.j.i.6.5.6.j.N.B.n.n.n.N.V.i.A l t d A L L L D G D m N L W ! ) ] R R [ T m F ( >.1.{ ) W L L v z v S A v z z A I G L Q W [ R E ' [  .*.! v i d D <.R.^.I.L.N.j.6.3.r.6.r.j.x.B.B.j.i.3.3.3.Q ",
"| M A ( 1.2.{ { { { L D ( +.*.2.2.2.6.e.y.q.3.-. . .1.q.1.+.3.d.N.x.5.:.[ M 8 t D <.x.n.x.x.M.D.B.m.Z.D.x.1.$.>.f.f.k.x.m.N.Z.D.A.Z.B.N.n.x.n.m.B.Z.B.x.k.c.n.x.x.h.3.*.r.N.B.x.6.r.5.E r 3 v Q a.n.n.n.V.B.n.n.U.W.L.r.( R (  .5.,.$.{ ( ] #.1.k.Z.K.D.B.B.N.c.n.i.r.x.N.a.[ Y F #.j.x.x.B.V.M.M.M.M.j.j.J.R.J.N.N.j.h.x.B.N.j.n.n.j.i.i.6.6.h.n.N.h.h.j.N.V.i.D l y d A R R L D Q Q F A R ! Q W ( K F / L N E | 2.1.| ] / R L v z v A B v v B B I L E W W ! D Y ' | #.#.Q z u u D 5.!./.I.J.M.j.3.*.3.<.5.a.a.N.N.f.r.3.6.r.' ",
"+.N A ! +.r.1.| { ! L G Q { *.*.1.3.r.a.e.2.+.[ [ { 1.1. .*.r.s.n.j.r.r. .z 3 d Y 3.N.M.h.N.V.x.x.J.R.D.i.{ { $.m.m.B.m.x.D.K.B.M.M.M.n.x.j.j.j.N.x.j.h.j.j.h.i.h.3.<.r.j.N.M.f.5.#.[ M 8 w v | i.6.j.V.N.V.L.N.W.U.D.j.:.[ | 3.9.w.9.o./ / o.9.B.K.R.R.P.J.Z.B.B.N.n.M.B.M.*.D A  .x.N.N.B.B.n.j.V.V.j.x.J.L.B.n.x.j.j.j.x.x.n.h.n.n.i.5.i.j.n.V.j.h.f.i.n.B.f.F y 9 l D L R L Q L R ! W R R W / R R W ( / ( } 6.q.1.| ( ! R L z d g v M z v A D A D R ! E G D G ' [ ' [ Q M u e c 3.R.~.I.D.B.h.<.*.6.i.6.a.B.I.D.i.| <.j.f.| ",
"[ z M Q | 2.*.{ [ W L F R [ +.*.<.3.6.r.r.3.| ( ) [ *.*.{ *.q.e.h.f.6.<.! i 3 l Q 6.N.N.N.B.N.x.B.L.R.K.f.:.$.1.B.B.Z.B.m.Z.D.c.f.h.j.j.h.f.a.a.x.j.h.f.a.a.r.6.6.<.3.f.x.N.x.6.:.( L d 1 e M | r.3.j.J.V.N.D.J.W.I.D.N.j.a.h.x.k.f.r.>.o.$.p.m.K.R.~.~.R.Y.K.F.J.J.D.B.V.M.*.F A  .x.N.N.B.V.B.n.V.B.j.j.B.V.n.x.j.j.j.n.M.x.j.f.x.j.i.6.f.N.V.V.j.h.h.i.j.N.i.G i r l D R ! W R L L R Q R R Q ! / ( [ _ [ } <.2.4.<.[ Q I L D z g g z z d l M B v v D L L G D G ! ( ! ' E v u 8 v 6.!./.I.D.N.x.5.<.a.j.h.x.J.U.D.r.#.r.M.a.( ",
"Q i l L ( +.[ ( / R F A L (  .*.<.<.1.2.6.<.[ W ! ( | { (  .2.6.6.5.*.' A 8 2 v ' r.j.x.D.D.N.B.D.Y.R.K.x.w.w.p.B.B.D.Z.m.m.m.p.5.r.r.r.r.6.6.6.a.f.a.i.6.3.<.<.<.:.r.j.x.j.6.[ ! F M r 1 u M ' r.3.j.J.N.j.N.L.I.D.B.V.D.D.V.D.Z.k.9.1.5.p.Z.R.R.~._.).~.W.Y.L.Y.R.I.D.D.M.:.L A | j.M.M.N.V.B.M.N.M.j.h.x.x.h.h.a.a.j.M.N.x.f.h.h.f.r.i.n.J.L.V.h.h.a.6.a.x.r.A y r z D R ) [ W W R L L R R R / {  .[ / ) | *.+.+.{ Q D N M M v z l g i t d v v l d z M A D D G Q Q E Q Y z u 8 M r.!.~.I.D.B.x.r.5.j.N.n.V.R.!.D.i.3.j.B.r.L ",
"R r s F Q / R L L L D N F /  .+.*.*.*.<.1.*.) R Q Q ( ! Q [ <.*.:.| ( L j 3 8 v [ r.r.a.D.V.M.L.P.Y.Y.K.N.x.x.m.B.m.B.m.z.z.f.1.<.3.3.<.:.:.<.5.r.r.i.5.:. . .*.:.:.i.j.a.3.[ L A v v u e i z L i.f.n.N.h.r.h.N.N.n.M.D.I.L.J.D.Z.p.$.:.9.k.D.Q.R.~.^.~.Q.R.I.J.I.R.I.D.B.x.*.G M ! 5.f.j.M.N.n.x.x.j.f.a.a.a.i.6.6.6.a.j.x.j.h.h.h.a.i.f.B.L.I.B.a.i.i.3.r.a.3.v r r v G Q [ { ) ) Q A m D R Q ) | { Q L R / ( / ! L N d s d c M M x d t t d v v l i i l v A D Y Q R Y E F j t r D a.R.R.J.V.B.j.r.i.n.N.x.V.~.!.L.h.r.n.V.3.A ",
"! r y A L L A N A D A M F / +.+.*.+.+.+.*.{ / R L L R L L )  .[ | ! L C t 2 t z ( 5.r.h.D.N.j.V.K.K.K.Z.B.D.D.Z.m.z.x.x.f.f.i.:. . .{ ( ! ! [  .3.3.3. .' ! [  .*.:.r.a.3.{ Q D M v C j t d j C r.n.M.i.:.*.3.6.a.h.n.L.I.L.D.N.p.$.' { 1.k.D.T.P.Y.R.Y.Y.I.K.Z.D.L.D.M.x.j.| A j A ( :.i.x.x.h.x.x.j.i.r.6.6.3.*.<.3.6.r.a.h.j.h.h.a.i.n.K.I.P.n.5.5.6.<.5.6. .j 9 u N L R ! / ) [ Q M l M R ( [ [ Q D A G L L R G B d 0 8 t l S S M l t i l v v z d d l M D D Q E Y L R A i r e F j.R.I.V.M.j.f.i.j.M.h.6.j.R.R.L.x.j.V.J.r.L ",
"[ t t A G D c z z A D A G (  . .+. .| { [ ( Q R L L L L L ( { W ( L D v t e i j Y <.j.M.B.j.5.i.n.m.n.m.Z.L.K.B.f.w.p.p.w.q.1.{ ( ! R G A D Y Q  .{ ( R D F Q [ {  .3.5. .' Q Y D A A d t d j M <.x.j.*.[ | { { *.5.j.D.L.V.x.h.o.] ' | 9.n.D.P.J.K.K.J.K.K.Z.n.M.V.N.j.h.i.' l r j A E | 6.i.r.h.j.h.6.5.5.3.*. .*.<.<.<.5.i.h.a.a.a.f.B.I.I.V.6.{ | 5.<.3.:.Q d r d F L G G G R Q L N z M R [ ! I A x v D G D G A l t 2 2 r d A D B l i d z z z z z z v D G G E Y F F L v r 8 1 F x.W.L.n.a.3.6.r.j.x.6.{ 5.D.U.J.M.M.I.U.j.( ",
"+.t r N L D z l d N G F L ( | [ { { [ ( Q R L L L L L G L ) [ R E F F C u t d d C  .x.M.a.3.#.#.1.9.i.k.D.P.D.k.,.#.$.1.>.$.[ E R R G A v v D Y Q R A l i l D Q ( ' #.#.( Q ! Q L A C d u l j z ' 5.3.[ | | ' [ { *.a.B.D.M.r.:.{ :.5.w.z.D.P.K.D.Z.Z.B.B.Z.m.d.n.B.n.a.a.r.E t 2 t j v D Q | <.5.a.a.3.3.r.r.<.*.*.:.:.<.3.6.r.h.f.a.j.V.L.V.f.{ R ' 5.6.5.| D u r z L L D A N G G G G D D L W D v d d z v M M v l t 0 2 2 r d v B v d i g z g l v M B D G G D L A M A F l 2 1 3 G x.I.B.f.5. . .:.r.h.<.' 3.V.U.J.n.N.U.W.n.{ ",
"*.t 8 M L F c c d A L G L ( [ ) [ [ [ ! L G L L R L L L L [ [ L L A G A i t j i c ' j.j.#.[ | | [ +.1.f.D.I.Z.i.] ( ] #.{ ' E A Y Y G A v v F Y G C d 4 1 r v L E Q [ [ E Y Q Q L C M i d v j d Y [ [ [ :.#.' { | :.i.N.D.x.3.' $.p.n.m.D.R.R.K.Z.Z.B.m.m.m.k.e.N.V.n.i.r.5.L 8 3 e t t i c Y [  .6.r.:.<.h.j.5.<.:.*.:.<.3.3.<.j.j.h.x.V.D.j.:.Q D Q 5.i.5.' v r 9 z L L D A A A A D R R L F G x i r t d d d l i 0 2 4 8 8 t l l v z i t g l i l M D D G L D B A v l M A d 1 < 8 Y j.D.j.6.<. .( [ <.r.<.[ 5.D.W.J.n.n.U.W.n.[ ",
" .t 2 A G A A z z A G G R ! ( W ( ( ( Q L D D D G I R E W W G M z D L N d s d d c F +.2.{ [  .[ ) [ +.q.Z.I.c. .K / ( ( ) L c N ! ( R z d x A M d 0 < * ; 8 z L E ! ! Q F N m M N M c d d z c l N Q {  . .<.<.+.2.+.2.M.N.q.<.q.c.M.Z.F.R.~.T.K.N.N.M.m.k.s.k.M.N.V.N.j.3.( M t 2 r t 0 2 8 i l A Q  .<.6.s.a.2.*.*.-.*.*.*.*.*.r.a.j.x.x.a.<.{ R R Q )  .{ L d t i z A D D A A M A D G I I D v i t 4 4 8 0 0 3 < < ; ; 2 t i i d d d i i i l z D G E ( ! G M z g i r t t 8 2 2 8 R y.g.6.<.-. .| ' :.r.:. .h.U.W.V.n.N.K.R.n.' ",
" .i 2 v A S D M l M D G L R E R Q Q R L D A A B G L R R R L A z l A G M d d d l l M ( *. . .<.} |  .*.6.M.D.s.( F Q R L L m l M Q Q D d i l l i 8 < * * ; 2 d A L L F M l d d d c c z l l c z l v G ! ) [  .<.3.d.6.2.a.a.2.q.x.M.N.Z.L.R.~.I.N.M.c.x.x.d.s.x.B.V.V.M.a.-.! M t r i i r 2 2 0 t i z L { 6.s.2.|  . .} { [ [ { { *.<.3.3.1.+.[ ! ! W L G L L N s t i z M A B B A A G G D A M v z i t 4 1 < < < : * * * * 1 t i i r r r r i l v A L E ( ( R B d t t 2 < 1 1 1 8 t t G <.a.y.3. .[ [ ' :.i.5.5.n.R.R.B.h.h.B.P.n.| ",
"*.l 4 g M D L A z x B D D A A S L L G G D A M v M S G G D A x g d M S v d d l z d z L [  .*.1.+.3.3.3.q.x.M.r.( G L A c l y i c D A z t t i t 1 < ; ; ; < 2 t l A m l t 9 r t i l l z l z v c l l m D L R / *.a.x.r.*.| {  .2.g.f.x.N.L.E.Q.K.c.c.x.d.s.s.d.m.D.D.N.h.<.{ R v t t d d t 0 8 8 8 2 7 l W 2.q. .W | { [ ) / ! / ( R Q ! ! Q R L L Q W L v l m c y t d z M M v M A G L L M g i i d i t 4 < & $ % & % * * : 2 t i i 2 2 1 8 i x A D R ( [ Q A d 4 * ; * * * : 2 t l d D { r.a.4.{ Q ! [ 5.i.6.a.D.U.K.n.i.a.n.K.n. .",
" .v 8 y v D G M z l l z l i i d A S S D D A v l d l z v M v l i l m N c d l z v l z A Q ( { +.+.q.a.r.2.r.s.2.[ L A l y r r y l l l d t y d t 2 2 2 8 2 2 2 8 t l i r 8 r y d l l z z z c m v z l d c A D L { s.h.6.{ Q R / [ { [ 1.k.Z.P.P.N.k.s.s.s.q.9.e.c.K.D.h. .! R G z t t d d d d i t r 2 2 i L  . ./ R [ [ ) ! E L L R M A D D D A D D A L G l i l l y d z M A M z x M L L A g r r y d i t 2 * % % % % # * : < 4 t i i 0 2 1 2 i v A D L ! ( D l r < # @ % ; 1 8 t d z M G [ 6.a.3.[ Q ! | 6.6.5.h.J.L.n.i.6.i.j.V.j.| ",
"} M 0 t z D A z g t 8 8 2 1 1 r x v M A S B z d i y i l v v l i z m M c l l c m l z v A L L /  .r.h.a.*.[ { { ) L m d y t i d l d z z l l z d t i d d i 8 2 2 8 8 8 8 t d c m m c v z l z m m v z d l v M A ( r.a.1.! G F L L A N / 7.d.k.s.9.=.@.1.7.*.{ ..q.x.j. .D v B A l r t s l l l l d y r 8 i D Q R R W / ( ( W L F D D M N N A N N A A l A A d 9 y d i x M G G A z l z G A l r 4 t d l i 8 ; % * * * % % * < 1 4 t i i t 9 2 7 i z M M A L L m i r 2 ; $ ; 2 r t d l z D R } 6.r.*.{ _ | <.i.6.<.a.N.N.i.:. .:.6.j.i.| ",
"[ M 8 8 z A v d g r 1 < 1 2 8 t l z M A A M l d g i i l v x l d m m m z l l v M d l l l M N L { e.j.s.{ R L R R A l d c c m A m B D D D A M z d l v M z i t t t 9 r i l m A A N M M v l c M A A m z z M N A ! <.4. .L M m N v d z P ..=.{ ( E R E ) { / L L / | | F i t l v d r i d l l l z l s 9 8 y M L L R / ) [ [ / R L L L L L F D D F D D M D A d 2 7 i l S G I R G v l g S v i r t l v M i 4 * % : 1 < * ; 1 4 4 0 y i i s r 8 0 s z m m m A D v d i t 8 1 8 r r y g z z D ! <.6.3.*. . .5.i.f.6.:.6.h.a.3.[ ! ' | 5.5.[ ",
"( v 1 2 z v l d l t 1 ; 1 t d d g l z z z l d d z l l z z l l z M m v z l z m A z v l l M m A ) 6.s.q.) G A D A s y v L L L Q L ! ! Q E R G M l z S L G A M M M N A A D D D A N D A A M A G L L A N N D G L ! |  .) L M v z l d b L ( ( P H F H K E W L M m N A N d 8 r l c l d l c v c z z l l 9 8 i A W ( / W [ { [ ( R R Q ! { / R L R W ! W L R L M y r d M L L R R G M l g A M z l v D L G z i 4 2 4 8 4 2 4 t y y i d l l z d i s l m N A m N A A M z d s t i i t i l l g M ! 3.6.<.*.<.<.3.5.i.6.:.3.r.5. .! Q ' { <.*.( ",
"! z : 1 l x d d l y 1 * 1 i d i t i i t r r t y g l x v l d l M N m c z z v N D A A c c A N N ! *.3.*.Q A M v l 7 9 A ( ! / [ /  .{ ! ! ! Q A l x G ! ! Q W ! ! [ ) / Q L F A A G L G F L Q ! ! D D F L R Q ( [ [ / Q L A m c z M L E P H H L L L R R H M c l d s 0 8 s z v x x z m N m c c v c r r s G  .1.{ R ( ( / R L L Q ) 1.{ Q Q ( | +.+.( ) ) R M d c G R R R R G M z l A D D D L Q W Q A v d y y y y t i g l l l z v v A m c c m A A D A A F L G N z l d g g d l z l i z W 3.3.*.<.3.<.|  .3.5.:.<.6.5.' Q '  .<.3. .E ",
"L g 2 0 i d g z z 2 % * 1 2 8 t 2 8 8 8 2 2 2 2 t d d i t i l v z d l M M A L L G A N B D F L R ) { [ R A m c z 9 l L ) [ ! Q W W ( *.*.[ { Q i d D _  .{ ( { *.<.q.{ R ) R m N F R R D L ) [ R A A A G R [ *.6. ./ R Q Q L A A F / E / ) ~ ) [ ~ ) [ ~ L H F S F N M Z N m m Z A L F K S M A m t 8 t L a.c.*.F W W L v l M W +.<.+.! G Q *.3.*.*.1.*.( F M A L [ ( Q L L L G A D D D G ! [ [ ! I L D m c v c l l N F A M N A B M L L L L E R K K F L T F S A v x z l l l d i t z R { *.r.x.6.Q G { :.[ | *.#. .(  .3.5.6.5.{ L ",
"I l 2 8 i i i g i < $ * < < : : ; < 1 1 < < < < 2 0 r 8 8 r i l r r d m v A R ! ! L S F L L Q [  .{ ) R L F N z d m R [ [ Q L L R ( <.6.3.4.[ z r M ( *.*.{ { } +.1.) Q ) L l l A L G A G R L M l m D L L / *.r.*.{ / ) [ ( R G L ) ) +.1.@.$...o.o.| [ ( / ( [ [ ( / / R S N A K R L E R L L A l r 9 A 2.c.3.L L G m i t z R {  .| ! F L [ <.<.*.3.<.( A v A L { } } _ Q R I L R L G L ! { { ( R I F m c M D F F R ( ( / ( ( / E [ o.[ [ +.o.) / W ) ( L K K A M v z l z v z d l A Q } y.h. .M D [ { R ! :.| Q ( #.5.5.3.:.' L ",
"R z 2 8 t t t t 2 ; % ; 1 1 ; % * ; ; ; * * * ; 1 2 2 1 < 2 r t 1 1 y z z M L ! W D N F L L / <.2.*.[ ! ! W L m z N R ) ( R D A G ! 3.r.6.3.W d 2 g R {  .[ Q R G L F L ! F d l M v z z v v d r r l A D A L { q.+.{ ( ( [ [ Q D L o.=.t.x.s.e.1.q.=...| ..o.1.t.d.e.q.2.+.W L L ] +.{ +.+.[ ) L m s 8 l { d.2.R L A d 8 8 l L ) ( ) R M c F ! [ [ { [ L l y l A E [ *.{ Q L R Q W E L G I ! ! Q D S m l z D W [ +.3.a.h.d.h.a.r.1.s.x.f.s.d.s.q.2.2.e.q.{ / ( ! R R D B D I G v z z v R *.<.L t v ! Q m L *.{ D Q { -.*.+.{ ! L ",
"R z 8 8 t t 0 8 < ; ; 2 t r 2 1 < < < ; ; * * ; 2 8 8 2 1 2 0 r 1 2 t l d z A A v d l D G F ! 3.a.3.{ [ [ ) R D c N L E R D M v G ( *. .( R x 2 1 t v G L D v l t i s v D c s v v s r t i r 2 < r l N m l z L [ W W R G L R G v H >.p.m.Z.c.x.e.s.*.) [ | @.q.c.A.M.x.f.2.| ) [ q.s.2.2.1.$.o.E m l t i G  .| L F M s 8 9 l G R Q ! L v s l A F L F N d 8 2 9 d M L ! Q G D G L Q Q L A B A A M d t 8 r z R +.6.j.M.V.F.F.V.M.x.s.M.D.N.B.N.M.d.f.x.Z.N.e.1.1.1.*.*.{ Q ! { ( D A l y l D L z 2 d G A j A { ' D L ! [ | | { / R ",
"L x t t i i r 0 1 1 2 t d d i t 2 2 2 1 < < 1 1 t i d i t t i d i t d l d l l i r 9 d F F M L | 2.*.[ ( / Q L G A F L G m s y i M R Q D l y 2 < 8 0 t d g d t 8 9 r t l l y s M m s r d l t 2 1 y l M v d i d c l v c d d l l d A 7.c.N.B.x.x.d.t...~ ( { $.t.B.F.M.k.p.1.o.+.1.d.x.7.>.*.+.@./ m m l t i v N v l d t 9 t z A D L Q L A z z v v l i 9 7 2 2 8 y g v M M z z l l A G D z i t r 2 < % $ 7 N { e.x.B.N.F.L.F.Z.c.x.k.N.D.Z.N.Z.c.s.w.x.F.K.x.w.e.w.6.r.3.}  .3. .R E M i t d d t 8 s x z d A Q R L L E ! ) | | ) Q ",
"G v g g z l d d r t t d z z d i 8 0 8 8 8 r t i l M A M z z v M m z v m c v z t 8 9 d A A l z F ! R L G D A D G R ! / G s ; ; 1 r x x t 2 < : 2 t r r t i i t t i i l v z l N L F m m F G M d y d c A A c i 9 7 7 9 0 2 2 2 9 r A e.Z.Z.c.f.x.f.2.{ ~ ~ [ =.s.B.B.x.p.9.$.{ @.9.d.x.2.@.+.*.2.o.A A v y 2 1 2 7 8 9 r r s z c z A L L L D A A M i 7 1 2 r y s l l l i r 8 8 1 ; 8 t t 2 < < ; @ # O + e T 9.x.M.N.Z.A.F.A.B.M.M.k.M.B.m.M.N.k.2.1.s.F.P.c.s.s.s.r.a.r.<.<.4.3.{ ! I M d y t t r d l d z D G G R R R R W ( / R L ",
"D B M M A A M M z z v v v v l d y t t t i d l v M L Q I A M M A N N G L G L L M l d l M M l i i z l l l l l M L / | +.R t + O % 1 i i 8 8 8 2 t d d g z v v z l c v A L L R ) [ ! R L Q W L D A M A D D M l s t i y t t 9 7 8 r H d.D.Z.x.s.k.e.*.| / W ( +.9.f.s.e.q.2.*.{ +.7.f.x.9.@.o.1.s.2.R F m d 7 ; ; ; 8 t d l v m z d c D R W R R L L v s y l m M N D D v i 2 1 : % o # * * % : 8 1 % + + ; c { f.m.M.A.A.A.A.B.c.M.A.x.m.c.x.c.N.d.=.1.s.D.P.M.d.k.f.e.a.y.3.*.*.<.<.[ _ R v i y i i g l g M L I I / W E E E R L F B ",
"A A D D L D G D A S D S A B v l l l g g g l v A G ! { W D M v M m A R ! W ) [ ! L A M N A m d r 8 7 7 r t d N L ! +.1./ t + O * 8 l l i z z d z l z M D G D B v F G R ! / | *.{ +.) Q R R R Q W L L F A M m M N L D N A m d i s L x.F.Z.c.d.d.7.@...( R R ) @.1.1.1.2.q.1...+.1.t.x.2.o.| *.s.q./ D x l y 2 < 1 d c A D F A v d v L ) { [ ( ( ) Q G F L R R R ! ( L z t 2 1 * @ + + + $ 8 z l 8 # $ 7 S *.d.c.c.A.Z.N.M.x.f.x.Z.m.M.c.x.M.N.d.*.1.p.A.F.c.f.d.s.r.r.6.*._ ( { <.{ } ! M i i l l l c z N E ) ) [ _ ( ( W U J S F ",
"S J U E U J J U L J L U U V n z v B B v M D G A D L ( ( D z v A l m | <.[  .*.3.[ Q L D D A z s t l l d c M A L Q { *.Q r + + 1 d x v l x D D v z l v R ( W L D E R Q [ {  . .-.<.<.{ Q E ( _ ! Q L G A z v R [ +. . .| _ R S M T x.D.m.n.x.p.( ..o.{ ( / ( ] { [ #.9.i.9.$.| o.9.p.i.$.o.5.p.w.>./ A l d d l l R |  .) | | G s v ! { ! ( +.<.3.*.*.<.3.*.! ( +.-.-.W M z g 0 1 $ $ @ + 0 ^ } S r & z | 3.i.j.x.M.N.B.n.a.r.h.N.N.n.c.M.N.x.r.:.:.f.N.N.x.j.i.5.<.*.6.3.Q ' *.! R ( ' L l u j v z c M L  .r.q.*.{ | | [ / R G F ",
"L L P E U L P E U U U E P V M N L E E L R ! Q G v A I I M v A A l M *.3.[ | <.6.+.{ ( Q L G D A D R R L L L L Q ( | { D 2 + % 7 z B M l z A D M z l M R _ ( ! W ( ( [ { { { { *.6.6.<._ ! ( ! Q L D D A l v L / | *.3.2.6.3.[ L / n.Z.m.x.p.:.L E ( { { [ ] ] { ] $.9.p.w.1.{ ( $.q.p.7.:.1.i.f.k.*.G l z G ! ( 1.r.q.6.h.e./ m F / ( Q ( *.2.a.d.e.r.a.6. .*.q.y.f.;.^ E I B g 0 8 > = i { y.*.d 1 A :.6.f.h.j.x.N.N.j.r.5.a.x.N.x.j.n.n.a.<. .:.a.x.x.j.j.a.5.| ( #.3.' '  .' L E Q F l d l M A A L [ e.M.j.6.*.*.+. .| [ ! R ",
"~ R P R E U R E U E ~ E J N N S W ( [ ( ( ( R A z v A B z B G D d m *.2.[ { *.4.*.<.*.[ R L R W )  .| ( ( W R Q ( [ R s * # < r M D A z l v A A x z B Q [ { {  .{ { } } [ ( { *.r.y.4.{ ! Q R L A m M m d l A L R [ *.2.s.d.<.R ] x.B.B.k.>./ m S T ' o.o.| o.o.' #.1.w.i.q.| T ( ,.h.k.9.3.w.x.N.r.R l m [ r.h.M.x.h.x.A.d.( A Q / E I ( *.r.j.M.h.a.s.r.3.2.s.x.N.f.*.*.-._ I V n i 2 y _ g.g.l r L 5.a.h.i.i.h.x.x.f.5.3.f.M.M.j.j.n.j.5. .| <.r.j.j.j.j.r.<.( Y ' 3.*. .:. .R E R D c j l M F L ! 1.c.V.x.3.*.*. .+.*. .) ! ",
"( E E ~ ( ^ R L L P U P H S V A R ( { [ ! L A z z z x l l D R D d x  .1.[ {  .*.<.2.2.+./ R W ) | *.{ ! Q R L L Q Q A 8 % ; 8 t v M M z l x A S M M D ! [ [ { *. .} { [ ! W [ -.6.3. .! R L D M c l z z y y z M m F W { <.<.( D ] i.k.m.f.{ K c Z K T ] o.$.#.o.' o.$.>.9.w.#.T T :.n.B.f.1.p.B.m.a./ v A +.c.A.V.x.s.M.V.3.F c W W L R [ <.q.j.x.a.r.e.e.6.q.s.x.N.f.*.-.r.1.*.` E B t t L 4.d.d t Y 3.i.a.3.5.r.h.h.6.<.5.j.V.x.h.h.n.j.3. .:.5.a.j.j.j.h.5.{ ( E [ 5.6.6.6.3.[ [ ' E C l z C F R | r.c.M.r. .|  .*.<.*. .( W ",
"^ ~ ^ ` | [ E S J L L L L L J S I _  .} W D v z l l g d l G R D l c { 1. .*.*. .q.r.r.3. .[ ) [ +.*.( L F A M A A A l 2 ; 2 t t d l x x z v B S A D L ! ( ! ! {  .{ ( W I I (  .{ ! L S A A v l l d l l t r s d d l N R Q G m c T $.9.k.p.( L S K K T { 1.1.#.{ ] { { { :.w.,.' T >.B.D.x.w.f.D.x.a.[ N A *.M.L.M.a.q.j.h.W d d R W Q / *.2.r.h.j.a.e.s.h.y.r.a.a.j.r.*.4.f.y.6.3.} W M s x / *.r u R :.r.r.<.3.r.f.a.3.#.3.j.B.f.r.i.h.a.3.<.r.a.j.x.x.x.j.3.( ' { :.5.i.j.h.5.3.5.3.| G z v F L [ 6.j.c.g.3.[ { *.q.r.3. .) / ",
"R E ^ ` +.X./ L L L U U E ^ E L R [ *. .! G A B l d i d z D L B z v { 6.1.q.2.<.r.r.q.6.1.*. .{  .| R M c z l c l d t 2 1 9 t r d g z M M v v M A D L R L A D R { ! L D D D L Q G M z l l z l i z l z z y r y i y t d m c t r d F { ,.f.w.] ( ( ( / { w.k.p.:.] o.| { [ $.w.w.>.] w.B.B.h.p.x.J.d.q.( A N ( e.c.3.{ [ *.[ z 7 s L ( [ | 2.e.a.h.j.f.f.j.j.f.a.a.4.e.4.4.f.g.y.r.r.-.} E x d x A 8 d Q *.5.r.3.a.h.x.f.3. .3.i.h.r.5.5.6.6.r.i.j.x.N.B.N.N.x.6.[  .5.r.i.h.x.h.5.r.a.a.3.E M M L R | a.x.j.r.*.[ [ <.e.a.3.| ( ! ",
"F L P ~ [ | ) R R / / W / ) ) / ( [  . .[ Q L G A l l z v B B l d c  .e.r.h.s.e.6.4.2.3.3.1.*.*.{ [ L c z z l v z d t r r i s d v x v A A v z z x v M M l i d v G M l l v M v v d i i i i i i d c l z c i r y y r r t y r 2 8 y L :.w.k.f.$.1.w.q.9.f.B.D.x.q.>.$.#.#.:.5.w.p.p.9.k.n.f.q.p.B.L.x.6.) F A L W ( L D A L A 8 < i G [ *.*.2.a.s.d.r.r.a.d.d.h.h.j.a.e.r.s.v.x.a.h.g.r.q.<.L i 9 9 8 z ( #.3.6.6.n.M.N.x.r.3.5.5.3.6.5.<.:.3.f.n.N.B.D.D.D.V.V.j.3.3.a.j.n.N.n.a.r.f.f.f.5.! M v D L [ 6.s.e.2.+.[ { *.6.q.1.{ / Q ",
"N A S L W [ ] / / ] [ / W ( [ | } {  .*. .{ ! E R M v A M v z i i z *.s.e.j.x.j.6.4.2.3.2.6.6.6.{ [ L M M N N D F m l l z c m A D A A G D v g d i i d i 8 < 4 d l r 2 r g l d t 4 r i i i t i g l d z z i r y y r t t 9 7 9 t y / i.z.m.x.9.f.B.Z.B.D.P.K.m.h.h.>.:.3.w.p.p.f.k.j.m.k.1.>.p.D.P.M.e.{ Q L D v d c d d m l 1 : d F | 1.+.<.e.h.j.2.6.e.f.j.x.c.N.N.x.s.x.N.c.j.N.A.c.v.x.) d 1 ; 8 v [ #.<.6.r.B.V.D.N.h.i.i.5.*.r.r.3. .3.j.V.D.D.L.L.J.J.J.N.h.i.h.n.D.L.n.r.a.j.f.a.3.! M l v L ( <.q.r.4.*.{ *.<.2.2.1. .( W ",
"v D c y M ( ) R Q ! ! Q R ! [  .*.*. .} *.<.} W Q R G M l l l z l z ! g.N.M.j.s.3.a.q.*.<.6.1. .[ [ ( W R L Q ( ! Q L L E W ! W ! R R R G G v r t t r 1 * * 1 r 8 2 2 0 y i t 8 8 8 r t i i i y s s d d d d d l d y t y t r i z >.m.D.B.m.B.D.P.Y.I.Y.R.K.B.k.k.f.p.p.f.k.x.x.n.B.B.n.5.o.w.D.J.A.x.6.R L R z z N N A N d 7 7 i G / <.6.q.2.1.1. .*.2.a.h.M.N.x.A.j.s.x.M.x.c.V.F.x.V.N.2.L t 2 u M ' *. .3.x.B.N.J.M.a.x.h.3.3.h.n.r.| 3.M.B.N.B.I.I.I.I.D.n.n.f.M.J.L.V.n.x.x.N.n.6.[ E C j l M L { <.2.6.3.*.q.e.q.*.| { | | ",
"l A c 9 l E ( W R Q Q R L W [ | } { [ { *.<.{ Q Q R G M l d z v l c ( x.V.M.j.a.6.q.*.{ *.3.*.{ _ | <.<.*.+.<.6.3.*.|  .*.1.*. .} [ ( ( ! Q D y r t r < * * 1 8 1 1 2 8 t t r 8 r r t i i t 0 8 r t s d l z x v v z l d s i l M o.x.K.K.K.K.P.R.R.R.R.R.K.B.m.B.B.x.j.j.x.m.B.Z.Z.Z.m.9.o.w.B.D.M.x.e.( W ) L R ! ( _ ! A s 8 8 A R | *.*. .| { ) [ <.y.a.d.x.d.M.d.h.c.c.j.x.N.F.x.V.V.r.( N M A G Q { :.f.N.V.N.V.x.f.x.h.5.r.x.x.r.<.r.j.x.n.V.I.I.I.I.D.n.n.j.N.L.L.N.x.x.n.N.n.5.[ R M d l c L | *.*.*.<.1.s.s.r.1.| [ { +.",
"d A c 8 t G ( ( R E Y L L ! {  .{ ! ! [ *. .( E Q L S x d d z v d z ! h.M.c.d.r.q.1.) ! {  .[ { { <.e.s.s.h.x.M.j.a.q.e.d.j.a.6.r.3.<.<.-.*.W l 0 t r : * < 8 8 8 8 r t i i i t i i d l d t 8 8 8 r s l v A F L L L D M l d z M ] f.K.P.I.P.P.R.R.R.R.R.K.B.Z.D.P.Z.x.x.m.D.K.K.D.Z.m.9.o.w.B.Z.x.j.a.{ [  .{ 1.3.e.a.<.! M r 1 l A Q ! ! ! ! ! ! ! +.e.r.6.r.r.h.a.h.n.x.f.j.B.V.x.V.B.h.#.Q { #.( Y Q 5.N.J.V.N.n.a.a.j.i.6.a.N.x.r.r.f.f.a.x.V.L.I.L.L.N.h.h.n.V.J.V.M.x.n.B.V.n.5.[ E C j l l L }  .( ( *.q.j.a.q.1.{ ( [ <.",
"d A z 8 t F ! Q L L G D L ( |  .( R R ! [ ! Q Q Q D v l d l z v d l L 1.a.a.a.r.2. .W Q ) ( ( | <.6.r.e.a.j.M.N.f.a.e.a.d.d.a.6.y.6.4.6.6.6.[ v r y r < : r d i i d l z l l l z M v M D M d r t 0 y d c A I / ) { [ W F c d d z ( w.m.Z.D.D.D.P.P.Y.R.I.D.Z.K.I.Y.K.B.N.D.P.P.K.D.m.f.5.>.f.Z.B.f.s.3.[ | 1.2.s.j.M.x.3.( F s 1 r v G L L W [ { [ ( *.e.2.*.<.3.6.r.h.x.h.i.j.V.N.j.N.N.h.*.' 6.j.*.L Y 6.J.I.V.n.i.5.i.a.6.5.h.M.x.r.6.a.f.a.j.M.J.I.L.V.f.3.6.x.N.B.N.x.x.N.J.D.N.i.*.' D l z l L [ [ E Q +.r.h.q.1.*.( R / <.",
"i v j 8 i A F A C A M M G ! [ ( L D D L L L Q [ Q A l d z x x x l l F [ +.<.6.6.*.{ W Q ( W ! +.1.3.1.3.q.h.j.h.3.2.r.e.r.q.6.6.3.<.<.3.r.r.{ x t t 8 < 1 i z z l x M A B B A D E I Q ( R z t y y d c N L [ <.6.1.+.[ R m i y d / >.f.B.D.B.x.B.Z.K.P.L.D.D.P.R.R.Y.P.K.P.Y.K.B.m.p.9.1.w.N.D.N.d.r.[ / *.a.x.M.V.V.j.*.! L l 2 t m L L R [ <.6.<. .3.a.6.*.3.r.r.a.j.j.a.r.j.V.M.n.V.N.j.#.! r.N.r.Y F 3.V.D.V.x.3.<.r.r.3.6.f.h.j.6.:.6.j.j.h.j.D.I.I.M.3. .<.h.j.j.j.j.x.B.L.D.N.j.i.3.R c z v L [ ) W / +.q.6.<.} _ I F Q *.",
"i l i r d z j i j l j d M R R F x x x x z B R { R M d l M B M v m c A R ! [ +.*.( ( Q Q W R R ) [  .+.*.3.e.r.3.*.3.r.e.6.3.3.6.<.<.<.4.r.a.{ v r 8 1 1 r z B A A D I E Q ! ( _  .[  .3.{ M i i g m S L / 3.d.x.6.*.| [ F s t l E o.w.B.L.B.p.p.j.N.D.J.J.L.Y.R.Q.~.Q.R.T.Y.Z.h.f.1.>.9.k.D.L.B.x.2.R Q q.M.L.L.L.A.h. ./ R m r y A Q W / *.r.s.e.3.r.h.r.r.s.d.h.h.h.a.5.3.a.N.N.N.D.V.x.#.E 6.N.a.R M [ j.M.N.h.:.:.r.6.3.6.r.5.r.<.| 3.f.f.a.h.B.L.D.x.<. .6.a.i.i.f.j.x.N.V.N.N.x.x.a.( c l M R | +. . .<.3.*. .[ Q S N R +.",
"l l d l c j r 8 r t r r l A M d r t r 8 8 d A I D z d z N M M M M v A L L L Q Q G L L G L D N A Q ) [ [ [ *.-. .*.1.6.q.2.1.1.3.3.4.6.6.r.r.{ z < * ; 8 z D L Q ! _ {  .-.<.3.3.<.*.6.j.3.G d g N L Q ( +.a.M.M.s.1.<.1.W d r z / { 1.n.D.x.>.$.>.p.n.B.D.P.I.I.~.).~.Y.P.K.B.f.w.3.1.p.m.K.P.N.k.<.A L r.C.R.T.F.M.a.<. .( A s d L | +.-.y.x.M.x.s.g.j.f.d.c.x.a.r.3.#.| *.r.j.n.M.N.N.x.| L 3.x.a.Y l R 3.a.M.6.| #.6.<.:.3.<.:.:.{ [ <.5.3.6.i.j.n.n.h.<.<.h.a.i.r.a.j.x.x.j.x.x.j.n.h.( z d m W 3.s.a.q.3.<.|  .{ R N N R  .",
"M v v M A d 8 0 2 8 8 8 i v l 8 1 2 < % * 8 d z x d d c m c c N v v A L F S D N m A M m A m d y L ! ( R L ! { } *.<.1.1.1.*.*.+.3.6.6.3.3.3.( d # o % t D Q _  .*.<.3.6.q.r.r.q.<.*.r.M.s.R v m L ! {  .1.d.c.c.c.q.6.a.[ l r c [ [ #.p.m.w.{ ' ] 1.f.n.Z.L.L.J.R.~.W.L.D.D.B.j.9.3.w.x.B.J.L.B.h.*.x F 3.M.R.U.M.j.r.6.3.| L l v ( q.s.j.V.L.L.M.x.v.x.g.x.M.d.3.#.' ! ! { 3.h.h.j.x.j.j.[ D <.j.a.L u D  .6.x.<.[ | 3.#.#.:.{ #.[ ( { <. .{ <.r.r.r.a.a.3.6.x.j.a.r.a.j.x.h.i.h.h.h.x.h.! l u c / a.N.M.j.5.*.| *. .R M A Q | ",
"x x x M N x i 8 8 0 0 t d h d t 0 ; @ $ * 1 2 : 2 y h h s d z n x B B m z x x z g z z z h d 8 : d G E M z L {  .<.[ ! _ { { ( ( ( { 3.<. .*.Q 7 O + ; d Q ) | 2.2.w.q.9.q.e.2.+.[ 1.x.N.s.] K A Q  .<.<.6.r.f.n.n.h.j.x.:.l t G 1.*.+.*.1.[ R Q E ! o.a.N.A.A.N.I.~.R.N.n.B.M.i.:.5.f.x.N.L.D.a.3.! c c { x.N.N.x.a.2.q.e.1.L d Z [ s.c.B.F.L.A.v.M.D.C.x.V.C.<.[ W E ! [ {  .<.<.a.y.a.4.L M  .a.3.G t z ( 4.a.( [ { } { [ _ [ 6.[ ( *.<._ ! { *. . .*.3.6.y.a.h.a.a.h.j.j.6.:.*.a.i.6.a.! i u M W r.V.D.n.r.3. .' ' Q D L / I ",
"M M M S S B g y i i i a h M x d t : * * ; 1 8 > 6 t f d a a z n c M M x z x x z z l g a i t 2 = 8 z B l g B L L G M x A L L S M z A ! | | { A % + * 2 c W [ | 3.q.e.q.2.2.9.=.[ ) 1.c.A.k.$./ R ' :.5.5.r.i.f.x.x.j.n.M.:.l i Y 6.+./ ! _ R A N F L / 1.d.c.c.c.D.L.V.f.r.x.x.a.*.3.r.f.j.N.x.<.( L d d R *.2.6.*.| [ *.r.1.R l F | s.x.x.c.c.d.c.j.x.j.h.x.h.{ Q G D L ! ! ! ! !  .*.<. .A v ( 6.*.A 8 i L { *.Q ( { { ! R L I { ! ( *. .L B D ( W E Q (  .3.r.6.6.i.a.a.6.| Q E | [ [  .L i i v Q q.N.B.j.6.:.| ' ' ! Y Q _ E ",
"M M N S S B z d d l z z B D B g t 1 : : 1 0 i 0 q a h d p a z N z x x c x x x z z d i 0 0 0 1 ; ; 2 t t i d d i r 2 1 r l l i 0 2 8 z L Q L y X % 2 s A ! {  .1.2.q.q.1.1.1.+.) [ w.Z.A.x.7.o.] +.3.r.i.a.h.j.j.h.j.N.N.*.l d R 6.| R L Q L v z M A R  .q.h.x.c.V.N.f.*.:.f.x.f.#.:.6.6.r.f.r.[ R G l s A E W ! L G L ) -.+.R c H [ 9.q.9.2.*.] <.[ [ {  .*.{ L L A M D I I G A D R Q ! Q x d L *.( z 1 0 z D L D R ! Q D v z z L D I ( R l t d L A z z v L (  .{ *.6.a.r. .E S v D A A G v u d c R 3.x.N.h.6.<.| ( Q Q Q [ { Q ",
"S A S S S B z d d M S D I U B t 8 : 1 8 t z N x z N N z f l M A N m x x x M M M z g i t i i 0 2 ; ; : 2 r r 2 < : ; ; 1 r t 0 2 2 1 9 g z s 1 + < y v F / { | *.@.1.q.9.q.q.=.[ *.x.F.Z.d.9.=.o.:.3.a.j.j.x.n.j.i.j.N.n.*.z i D { / L R ( R N M M D Q  .6.a.x.M.B.j.#.(  .i.h.r. .:.r.r.3.3.<.' Q L c d M G G G m m A R ( ! F v F ~ | +.o.[ L m m d d z B S B v G A M M A B v z M A A S B i t M ! L i < 2 y g z z B D B l y r 8 d d z M l 2 2 t M l r 2 8 d B G L ! *.6.3.[ F v i j t r i t r d z I <.h.j.h.i.r.:.( Y G Q { { Q ",
"W E I I L S N x x S I E E L z 8 : ; 1 i z D E E L U L A n N H L L S M M M B A V B M x z x x h i 8 : ; 2 r 9 1 < ; 1 2 7 8 9 r 9 r 9 8 r t 2 < < 8 d M F ( { {  .@.9.s.f.d.f.q.@.7.x.Z.c.w.2.1.1.e.a.n.N.n.M.N.j.a.j.n.x.:.C u z A F L / { W G G L W } 3.e.s.x.N.N.6.! R { r.6.#.' *.r.r.#. . .' ( R v l S R L L A D L Q Q L D A R / { ..+.[ L l 7 1 < 2 r t i z D D M z g d d d z l d d i 0 0 d B z 8 < 8 t i d l z l i r 8 < * < 1 8 r 1 * ; 8 t 8 1 ; : 2 r i l v R [ ! F l i r w 1 1 2 4 r d z I *.r.h.j.j.h.3.' F A E [ ( E ",
"*.} _ ( W E I J L L R E L z 0 1 * * 2 d x L ( ( ( ( ^ L H L E ( ` I B M N S S D I I L L J D S n l r 7 r s y 9 7 2 r i i t t i s d l d d d r 9 s d l v F _  .{  .1.s.x.x.x.x.s.1.9.s.x.s.9.2.q.e.N.n.D.J.n.M.V.j.x.N.N.j.:.A u i s m L [ *.[ W ) *.2.h.x.x.h.j.M.x.:.R Y [ <.*.' Q { 6.6.| ' [ ( [ W N v R { { { ! ( [ +.| / ! ) +.*.1.1.1.+.W F i y 2 1 0 t i v G G D z i i d g i 0 8 8 8 8 t i i r 1 2 d l d l z z d r 2 1 ; # # % < 1 ; % * < 1 < : : < 1 1 1 4 w i v c t 2 1 4 1 1 3 2 4 t d z I #.r.h.n.n.n.6.:.Y F ! [ W E ",
"e.q.1.*. .} } } [ ( ) [ L i < ; * ; 8 d z S U I ( ( ^ U P ~ ` X.{ I M x M D I W ( _ _ W W E E I F M c v N m l s s c N M m m m c A L D A G A v D M c z G | *. .*.q.f.x.x.k.k.s.9.2.9.w.e.q.9.p.x.L.V.L.J.j.x.D.n.N.D.N.f. .A u t r z G ) *. .+.q.h.c.A.A.x.r.6.e.6.[ G F Q ( ! R R ) 1.2.| ) ( R { / F A W +.*.<.[ [ +.6.q.1.<.2.e.s.t.7.$.| ) / L G g 8 i d l M G L D x d d l l t 8 8 r r i g d 0 8 2 y v x d l x v z t 8 4 1 * * * ; < : ; < 1 < 1 2 8 0 8 1 < 1 < 1 w w 1 < < 2 2 r i u t i i l I *.r.h.n.n.j.6.6.[ ( *.*.( W ",
"c.x.s.e.r.e.a.f.2.<.2.r.[ d 1 1 : : 0 d g M S V E ^ W U U ( @.1.` D z g M L W { _ { { _ ( ( _ ( Q R L L R L A c M G R R R R L D ! [ W R ( W L Q G v l G *.3.*.3.2.t.s.t.e.s.s.q.2.1.2.e.e.q.s.c.I.V.L.V.r.h.D.N.D.L.N.r.[ M t t r d M R | *.3.x.x.N.D.V.s.+.[ { [ L m v A D D D W ( *.3. .[ / L ) / F A R [ { +.! Q ( 1.r.q.2.q.f.k.f.1.] / ) { [ ) M r g z z M D D B z d l l d d t y d g z v l t r r g B v i i z M M d r r 8 1 1 1 < < 1 2 0 t 1 8 t d d t 2 < 2 ; * 1 2 1 1 w w r l v z j d y l I <.a.j.n.n.f.6.i.3.:.r.4._ W ",
"N.M.x.M.N.N.M.c.x.h.x.M.2.D r 1 1 1 t d M B d z n E ^ L U { ..{ U M d z B L W } } _ _ { } { { } { / ] | [ / W L / [ @.=.+.[ / / +.) [ *.{ ) {  .( z d R *.6.q.q.1.1.2.9.q.q.q.7.+.q.d.s.e.p.x.N.A.N.N.x.a.h.n.j.x.n.x.r.' C d t r i z F W | 2.f.r.j.M.d.<.{ W A L N d r y l A F I ( | +.| ( L N Q D z z A L L D m A Q  .| ! [ r.s.t.2.| / ( ) [ { ( x 9 i d i z l z l i y g v M z g z B A M M A d d z A D M i r i M B z x z d t r r i i t y d i t y d l z d 2 * 1 3 < 2 i j j z v z M F G G v t s S +.s.f.h.h.i.3.3.6.6.6.1.} _ ",
"A.M.c.M.N.N.M.M.M.M.N.M.r.Q l r 1 1 t g B S h x n U U J E { { ` J M z M D I W _ } { { *.-.*.X.*.[ ) { +.[ ) ) ( { +.>.1.*.o.| | <.( / { { { | { ! c c / 1.6.q.q.1.7.q.q.9.2.1.1.$.q.d.f.t.s.x.M.N.M.x.h.6.a.j.a.h.x.x.a.[ F l d d s l A R [ <.q.-.1.r.3.[ W L N v l s t y d m B L W ) ( E G m l l d d d l l l d c m G Q L A L ) { ..| ) / / E L L L l 8 t i r i r t r 8 0 d v A M M A L R L D D z x A L L B d t l A A v B A z d i i l v v M v l t i d g d y 2 ; , 1 3 u C G G R R G G Q [ [ G d i B { 2.6.i.a.i.:.:.:.<.3.<.{ / ",
"J.B.M.N.B.B.N.N.B.D.V.n.a.#.L l 2 1 i z B D M B N L L J ~ ..` ^ S B B D E W / W { { } 1.3.3.*.*.[ ) o.*.[ [ +.*.+.>.2.2.1.*.*.>.3./ R ( {  . .[ R v A [ 3.2.q.r.q.t.s.t.7.>.@.$.1.e.k.k.s.f.x.c.M.j.h.i.6.a.j.a.a.x.N.j.*.Y M l c z c A R (  .*. .[ [ ) L A N m y y y i d z M B S I W I V x g i 7 i z z d t t i m N A A v l z M F L E W W R A c l z d t d i r r 8 4 1 1 8 g M D D I ! [ _ ( E G v A L W Q D M v D Q R D L I A x z l B I E E L M g z v z d t 2 ; < 2 r v ( :.*.<.<.[ '  .5.6.( z r x W | { :.6.i.#.{ ' [ #.+.[ W ",
"J.N.M.N.B.N.N.N.V.J.B.h.r.6.{ F i 8 d z M D V S S L L J ( { ( R S D L E ( _ / R ( [ X.1.3.-.*.} { ] | +.[ { *.1.+.1.2.1.1.1.1.1.<.! R / [  .} ( L m D [ <.1.6.r.t.s.s.s.w.1.$...1.e.k.k.d.d.k.d.x.a.i.r.6.f.x.h.f.N.D.N.5.Q A z N N F R / ) [ | *.! R L M d l l 0 r i z B S D D D E W L B x z z t c G D v l c A L L L A c l l l N S L P R L m s y d l l l l i t t r 2 4 i v G R E { *.*. .{ ! G v A R ! ! E E W { <. .( _ ( G v x z D ! ! W R S A D D A v g 0 < 2 t l G <.h.f.f.j.5.<.5.r.r.[ v r g L ! Q ' :.5.| ' ! ! ' { { _ ",
"D.N.n.N.B.B.N.N.V.V.x.6.5.a.3.) M t i g l S S V F L J J ^ ( R L L I E ( _ ( E I ( ` } *.*.} { _ | ) { ..[ { $.*.o.1.2.1.1.1.1.1. ./ / [ ) [ [ / L m A ) +.*.2.6.9.7.q.p.d.s.2.+.1.q.f.d.d.d.s.q.i.3.3.:.:.r.h.i.f.N.D.N.i.{ L v N F Q [ [ ) ) [  .L A M d r i l y i h S E W W E ( } } ( J S D J N L Q R G F R [ [ [ ( L D D D N H L L L R L N f d c M M z l g i l i r i M L ! ( { 3.6.<. . .( L M D E ! ! ! [ -.6.h.y.<.<. .R A z z A R L G G S G L R Q E D g 4 r j v G  .a.h.j.x.a.6.6.6.<.! M t d D R R Q | :.{ ' Q R E ( } *.",
"N.n.x.N.V.V.B.B.N.x.i.3.5.a.i.3.I i i i i M B M S L F J E U H F U L L W W R I U ( _ { _ _ _ _ _ | ( ] { ) ) { { o.1.2.1.=.1.1.*.| [ { { / / ( ! L v N W { *.1.3.+.o.=.e.c.c.e.=.*.2.e.s.f.s.q.>.#.[ [ ' ( #.5.3.a.x.N.N.j.5.( A v A R ) [ ( / / Q v s i r r d l g z S ( { _ _ ` 2.r.8.*.! E W ( / ) ) / W ( *.r.3.*.} [ ) ) ! R / ~ W W / W L Z m A L G x l g t d t t z L _ {  .3.a.a.<.} { ( E G I W ! W ! { 3.r.x.j.r.r.4.[ R x l v A v z v M A G Q _ [ W M t r l z v R | <.r.a.r.a.r.<.{ R x i d A Q Q ! ' ' ' Q Y F G E { -.",
"x.h.h.n.B.V.N.N.j.6.<.3.r.r.r.s.[ g i t i B S x V J J J P L H L U S B D L V S E W ^ W I I E ( _ ) / [ | / ~ ( ) o.1.1.+...*.1.*.+.{  .{ Q Q / ! L c m Q { *.<.*.) [ *.t.c.x.q.$...*.2.w.s.t.1.| Q E Q E E [ 3.3.i.h.j.x.n.h.| G z l v F R Q R R M t 2 2 2 r l c x D ` 3.-._ _ X.f.g.u.;.{ ` } *.*.+.{ [ )  .q.j.r.1.*.*.1.*.| ) ....{ ] ] ) E H A G ( ( D M v i i r t M !  .*. .6.y.r.-.{ ( ! Q Q ! ( ( ! ! { <.6.j.j.r.y.r.*.{ M g g z d i d g z A Q _ [ Q v t r l d r i C E | *.<.6.6. .Q A i i i m R ( ! Q F F S C c M F Q ) ",
"a.r.i.j.N.N.M.M.i.#.| 3.r.3.6.h.*.z d d d S D x V J L L U L L W U x g B B x B W I E L S V L ^ _ W ~ { | ~ T ~ ) o.>.*.{ ] o.*.$.*. .+.[ R R / ! L c v R  .1.<.| ) { 1.s.x.s.1.{ { +.1.q.e.w.=.] F F L R R { 6.r.a.f.h.j.M.x.*.G l y r l D L L L l 8 < ; 1 t c x M E 4.g.4._ _ -.u.d.y.3.} } -.;.*.*.| [ [  .q.d.a.3.*.3.r.2.*.| 1.1.1.$.| ) R F A L  .*.Q G D z t 8 t A _ *. .{ 3.4.3. ._ Q E E ! ( [ [ ! ! [ -.6.j.g.6.r.r.3.-.D g i d i t y t d B E ( ! G l 0 r l u < , r v R ! [ <.3.{ R v 8 r 0 l L ( Q F c c j u u j M D G "
};
