/* XPM */
static char * tux_xpm[] = {
"256 256 2369 2",
"  	c #F59999",
". 	c #E79090",
"+ 	c #D48383",
"@ 	c #BC7474",
"# 	c #A26464",
"$ 	c #814E4E",
"% 	c #6C4141",
"& 	c #623A3A",
"* 	c #482929",
"= 	c #381F1F",
"- 	c #000000",
"; 	c #462828",
"> 	c #563232",
", 	c #6A3F3F",
"' 	c #875252",
") 	c #A16363",
"! 	c #B77171",
"~ 	c #D18282",
"{ 	c #E99191",
"] 	c #EE9595",
"^ 	c #C87C7C",
"/ 	c #9A5E5E",
"( 	c #543131",
"_ 	c #512F2F",
": 	c #995E5E",
"< 	c #C77B7B",
"[ 	c #EA9292",
"} 	c #F49898",
"| 	c #D38383",
"1 	c #915858",
"2 	c #281515",
"3 	c #0C0404",
"4 	c #804D4D",
"5 	c #C27878",
"6 	c #ED9494",
"7 	c #F39898",
"8 	c #C67A7A",
"9 	c #633B3B",
"0 	c #2C1717",
"a 	c #A06262",
"b 	c #E18C8C",
"c 	c #653C3C",
"d 	c #8D5656",
"e 	c #E08B8B",
"f 	c #8E5656",
"g 	c #140808",
"h 	c #9D6060",
"i 	c #CF8181",
"j 	c #4A2B2B",
"k 	c #3F2424",
"l 	c #C47979",
"m 	c #B26E6E",
"n 	c #EB9292",
"o 	c #975C5C",
"p 	c #583434",
"q 	c #DD8989",
"r 	c #F29797",
"s 	c #925959",
"t 	c #C57A7A",
"u 	c #935A5A",
"v 	c #B87272",
"w 	c #A66666",
"x 	c #0B0B0B",
"y 	c #646464",
"z 	c #747474",
"A 	c #3C3C3C",
"B 	c #050505",
"C 	c #B67171",
"D 	c #4E4E4E",
"E 	c #7D7D7D",
"F 	c #696969",
"G 	c #141414",
"H 	c #B57070",
"I 	c #DF8B8B",
"J 	c #2F1919",
"K 	c #656565",
"L 	c #777777",
"M 	c #242424",
"N 	c #744646",
"O 	c #4D4D4D",
"P 	c #7B7B7B",
"Q 	c #2A2A2A",
"R 	c #241212",
"S 	c #D78686",
"T 	c #232323",
"U 	c #7C7C7C",
"V 	c #2D2D2D",
"W 	c #E68F8F",
"X 	c #321B1B",
"Y 	c #262626",
"Z 	c #764747",
"` 	c #9E6161",
" .	c #505050",
"..	c #797979",
"+.	c #1D1D1D",
"@.	c #B46F6F",
"#.	c #E58F8F",
"$.	c #1B0C0C",
"%.	c #5A5A5A",
"&.	c #727272",
"*.	c #0F0F0F",
"=.	c #201010",
"-.	c #DC8989",
";.	c #A46565",
">.	c #040404",
",.	c #5C5C5C",
"'.	c #080808",
").	c #060606",
"!.	c #323232",
"~.	c #707070",
"{.	c #030303",
"].	c #EE9494",
"^.	c #525252",
"/.	c #070707",
"(.	c #545454",
"_.	c #454545",
":.	c #BE7676",
"<.	c #4F4F4F",
"[.	c #757575",
"}.	c #313131",
"|.	c #373737",
"1.	c #0C0C0C",
"2.	c #442727",
"3.	c #EB9393",
"4.	c #7D4B4B",
"5.	c #7A7A7A",
"6.	c #555555",
"7.	c #0D0D0D",
"8.	c #AB6969",
"9.	c #3F3F3F",
"0.	c #636363",
"a.	c #202020",
"b.	c #351D1D",
"c.	c #CC7E7E",
"d.	c #161616",
"e.	c #AE6B6B",
"f.	c #422525",
"g.	c #F19696",
"h.	c #5B3535",
"i.	c #E69090",
"j.	c #7C4B4B",
"k.	c #D28282",
"l.	c #BB7474",
"m.	c #BB7373",
"n.	c #7E4C4C",
"o.	c #010101",
"p.	c #090909",
"q.	c #121212",
"r.	c #1A1A1A",
"s.	c #3D2222",
"t.	c #020202",
"u.	c #151515",
"v.	c #191919",
"w.	c #333333",
"x.	c #0E0E0E",
"y.	c #2C2C2C",
"z.	c #955B5B",
"A.	c #EC9393",
"B.	c #181818",
"C.	c #626262",
"D.	c #6D4242",
"E.	c #1B1B1B",
"F.	c #414141",
"G.	c #535353",
"H.	c #0A0A0A",
"I.	c #4A4A4A",
"J.	c #E08C8C",
"K.	c #393939",
"L.	c #979797",
"M.	c #9C9C9C",
"N.	c #A0A0A0",
"O.	c #A4A4A4",
"P.	c #A6A6A6",
"Q.	c #A8A8A8",
"R.	c #A5A5A5",
"S.	c #6B6B6B",
"T.	c #3A3A3A",
"U.	c #EF9595",
"V.	c #2E2E2E",
"W.	c #686868",
"X.	c #7F7F7F",
"Y.	c #737373",
"Z.	c #111111",
"`.	c #1E1E1E",
" +	c #8F8F8F",
".+	c #969696",
"++	c #A2A2A2",
"@+	c #A7A7A7",
"#+	c #ABABAB",
"$+	c #AEAEAE",
"%+	c #B0B0B0",
"&+	c #AFAFAF",
"*+	c #ADADAD",
"=+	c #E58E8E",
"-+	c #DE8A8A",
";+	c #131313",
">+	c #868686",
",+	c #BCBCBC",
"'+	c #C2C2C2",
")+	c #C4C4C4",
"!+	c #BFBFBF",
"~+	c #B8B8B8",
"{+	c #6C6C6C",
"]+	c #8C8C8C",
"^+	c #939393",
"/+	c #9A9A9A",
"(+	c #A1A1A1",
"_+	c #B2B2B2",
":+	c #B6B6B6",
"<+	c #B7B7B7",
"[+	c #B5B5B5",
"}+	c #DA8787",
"|+	c #DD8A8A",
"1+	c #CBCBCB",
"2+	c #CECECE",
"3+	c #C6C6C6",
"4+	c #BDBDBD",
"5+	c #B3B3B3",
"6+	c #AAAAAA",
"7+	c #818181",
"8+	c #878787",
"9+	c #9E9E9E",
"0+	c #ACACAC",
"a+	c #B9B9B9",
"b+	c #A9A9A9",
"c+	c #CE8080",
"d+	c #858585",
"e+	c #CCCCCC",
"f+	c #B4B4B4",
"g+	c #808080",
"h+	c #898989",
"i+	c #909090",
"j+	c #989898",
"k+	c #BEBEBE",
"l+	c #C7C7C7",
"m+	c #BBBBBB",
"n+	c #4C4C4C",
"o+	c #C37979",
"p+	c #DB8888",
"q+	c #3B3B3B",
"r+	c #C1C1C1",
"s+	c #434343",
"t+	c #C0C0BF",
"u+	c #D4D4D3",
"v+	c #DCDCDB",
"w+	c #E4E4E2",
"x+	c #E2E2E1",
"y+	c #E0E0DF",
"z+	c #DDDDDC",
"A+	c #D9D9D8",
"B+	c #9F9F9F",
"C+	c #C4C4C3",
"D+	c #DEDEDD",
"E+	c #EEEEED",
"F+	c #F8F8F6",
"G+	c #FDFDFB",
"H+	c #F2F2F0",
"I+	c #E0E0DE",
"J+	c #C9C9C8",
"K+	c #5E5E5E",
"L+	c #787878",
"M+	c #8E8E8D",
"N+	c #ECECEA",
"O+	c #F6F6F5",
"P+	c #FAFAF8",
"Q+	c #EAEAE8",
"R+	c #CFCFCF",
"S+	c #6A6A6A",
"T+	c #BA7373",
"U+	c #D98787",
"V+	c #919191",
"W+	c #E5E5E3",
"X+	c #E4E4E4",
"Y+	c #676767",
"Z+	c #CDCDCD",
"`+	c #E1E1E1",
" @	c #ECECEB",
".@	c #F6F6F4",
"+@	c #F2F2F1",
"@@	c #9D9D9D",
"#@	c #949494",
"$@	c #D88686",
"%@	c #B3B3B2",
"&@	c #F9F9F7",
"*@	c #737372",
"=@	c #E8E8E7",
"-@	c #F3F3F1",
";@	c #A3A3A1",
">@	c #878786",
",@	c #9D9D9C",
"'@	c #DEDEDC",
")@	c #B06D6D",
"!@	c #F7F7F5",
"~@	c #939392",
"{@	c #60605F",
"]@	c #AFAFAD",
"^@	c #FCFCFA",
"/@	c #D7D7D5",
"(@	c #D6D6D6",
"_@	c #EEEEEC",
":@	c #767675",
"<@	c #E2E2E0",
"[@	c #F5F5F3",
"}@	c #ADADAC",
"|@	c #3F3F3E",
"1@	c #363636",
"2@	c #DBDBDA",
"3@	c #E7E7E6",
"4@	c #171717",
"5@	c #C8C8C7",
"6@	c #B0B0AF",
"7@	c #A86868",
"8@	c #DA8888",
"9@	c #AEAEAD",
"0@	c #F0F0EF",
"a@	c #848483",
"b@	c #3D3D3D",
"c@	c #2F2F2E",
"d@	c #3E3E3D",
"e@	c #5B5B5B",
"f@	c #DEDEDE",
"g@	c #EBEBE9",
"h@	c #868685",
"i@	c #5D5D5D",
"j@	c #EFEFEE",
"k@	c #A86767",
"l@	c #101010",
"m@	c #757574",
"n@	c #555554",
"o@	c #898988",
"p@	c #B2B2B1",
"q@	c #616161",
"r@	c #E1E1E0",
"s@	c #EDEDEB",
"t@	c #7E7E7E",
"u@	c #444444",
"v@	c #6F6F6E",
"w@	c #AFAFAE",
"x@	c #F4F4F3",
"y@	c #D7D7D6",
"z@	c #222222",
"A@	c #70706F",
"B@	c #383837",
"C@	c #292929",
"D@	c #5F5F5F",
"E@	c #E3E3E2",
"F@	c #9A9A99",
"G@	c #8E8E8E",
"H@	c #8B8B8B",
"I@	c #CFCFCE",
"J@	c #F5F5F4",
"K@	c #A56565",
"L@	c #E28D8D",
"M@	c #A3A3A3",
"N@	c #ADADAB",
"O@	c #242423",
"P@	c #676766",
"Q@	c #A4A4A2",
"R@	c #404040",
"S@	c #F1F1F0",
"T@	c #595959",
"U@	c #797978",
"V@	c #A36464",
"W@	c #929291",
"X@	c #484847",
"Y@	c #5F5F5E",
"Z@	c #161615",
"`@	c #383838",
" #	c #323231",
".#	c #0B0B0A",
"+#	c #0C0C0B",
"@#	c #585858",
"##	c #A4A4A3",
"$#	c #E89191",
"%#	c #848484",
"&#	c #8B8B8A",
"*#	c #343433",
"=#	c #292928",
"-#	c #212121",
";#	c #222221",
">#	c #060605",
",#	c #A5A5A4",
"'#	c #6D6D6D",
")#	c #989897",
"!#	c #1F1F1E",
"~#	c #929292",
"{#	c #E4E4E3",
"]#	c #272726",
"^#	c #9C9C9B",
"/#	c #9B5F5F",
"(#	c #565656",
"_#	c #BCBCBA",
":#	c #D6D6D5",
"<#	c #100D00",
"[#	c #2E2601",
"}#	c #322A02",
"|#	c #322A03",
"1#	c #2D2603",
"2#	c #050400",
"3#	c #FAFAF9",
"4#	c #3D3D3C",
"5#	c #3B3B3A",
"6#	c #7D7D7C",
"7#	c #985D5D",
"8#	c #F4F4F2",
"9#	c #363635",
"0#	c #281F00",
"a#	c #6F5800",
"b#	c #B49000",
"c#	c #E6BB01",
"d#	c #F9CB05",
"e#	c #FACE08",
"f#	c #FBD00B",
"g#	c #FCD30E",
"h#	c #FED511",
"i#	c #F8D213",
"j#	c #CAAB10",
"k#	c #917B0D",
"l#	c #4C451E",
"m#	c #747473",
"n#	c #6B6B6A",
"o#	c #373736",
"p#	c #FDFBF4",
"q#	c #A8914C",
"r#	c #C59600",
"s#	c #FAC200",
"t#	c #F9C400",
"u#	c #F8C700",
"v#	c #F8C901",
"w#	c #FFD814",
"x#	c #FFD812",
"y#	c #FFD810",
"z#	c #D8B916",
"A#	c #BBAE68",
"B#	c #FDFDF9",
"C#	c #BDBDBB",
"D#	c #BBBBB9",
"E#	c #F9F9F8",
"F#	c #EDEDEC",
"G#	c #3E3E3E",
"H#	c #E1E1DF",
"I#	c #010100",
"J#	c #A68C46",
"K#	c #F6BA10",
"L#	c #FDBD00",
"M#	c #FBBF00",
"N#	c #FCD311",
"O#	c #E9C00F",
"P#	c #E4BC0E",
"Q#	c #F5CD10",
"R#	c #FFD80E",
"S#	c #FFD80C",
"T#	c #F1D128",
"U#	c #FEF2AF",
"V#	c #2D2D2C",
"W#	c #895353",
"X#	c #ABABA9",
"Y#	c #2E2000",
"Z#	c #C48C00",
"`#	c #FFB800",
" $	c #D79B00",
".$	c #A17100",
"+$	c #F7C901",
"@$	c #F9CB04",
"#$	c #E9C00D",
"$$	c #936905",
"%$	c #785504",
"&$	c #866004",
"*$	c #BF9507",
"=$	c #FAD30D",
"-$	c #FFD80B",
";$	c #FFD809",
">$	c #FEE03B",
",$	c #D4CA95",
"'$	c #EFEFED",
")$	c #A7A7A6",
"!$	c #7B4A4A",
"~$	c #5F3838",
"{$	c #E6E6E5",
"]$	c #90908F",
"^$	c #5F4200",
"/$	c #F1AA00",
"($	c #FCB400",
"_$	c #A77400",
":$	c #D49B00",
"<$	c #FBD313",
"[$	c #D3AC0E",
"}$	c #9A7005",
"|$	c #AF8503",
"1$	c #EFC70B",
"2$	c #FFD807",
"3$	c #FFD805",
"4$	c #E8CC32",
"5$	c #3B3308",
"6$	c #6F4242",
"7$	c #EBEBEA",
"8$	c #43423F",
"9$	c #936702",
"0$	c #F6AC00",
"a$	c #F9B000",
"b$	c #FAB900",
"c$	c #FCD611",
"d$	c #FCD50F",
"e$	c #FFD804",
"f$	c #FFD802",
"g$	c #D8BA16",
"h$	c #5B4E07",
"i$	c #040300",
"j$	c #D3D3D2",
"k$	c #FDFCF9",
"l$	c #F4C35A",
"m$	c #F2A800",
"n$	c #FEBB00",
"o$	c #FFD714",
"p$	c #FFD800",
"q$	c #FFD700",
"r$	c #FAD619",
"s$	c #EAD671",
"t$	c #F8F3DB",
"u$	c #FBFBF9",
"v$	c #E5E5E4",
"w$	c #F5F5F2",
"x$	c #F1C35F",
"y$	c #EFA400",
"z$	c #FEBA00",
"A$	c #FFD601",
"B$	c #FFD501",
"C$	c #FFD402",
"D$	c #FFDC34",
"E$	c #FDE77E",
"F$	c #F9F0C5",
"G$	c #F1F1EF",
"H$	c #717171",
"I$	c #D5D5D5",
"J$	c #E4E0D6",
"K$	c #E8B447",
"L$	c #ECA000",
"M$	c #F8C600",
"N$	c #FFD91B",
"O$	c #FFDA2B",
"P$	c #FFD92B",
"Q$	c #FFD401",
"R$	c #FFD302",
"S$	c #FFD202",
"T$	c #FFD102",
"U$	c #FCD21C",
"V$	c #F4D655",
"W$	c #A8964C",
"X$	c #100D01",
"Y$	c #473B23",
"Z$	c #DB9B1C",
"`$	c #E79C00",
" %	c #FFD815",
".%	c #FFD927",
"+%	c #FFDA37",
"@%	c #FFD003",
"#%	c #FFCF03",
"$%	c #FFCE04",
"%%	c #F7C704",
"&%	c #896E02",
"*%	c #D68585",
"=%	c #211600",
"-%	c #C68300",
";%	c #DF9500",
">%	c #E79B00",
",%	c #F5AC00",
"'%	c #FACE07",
")%	c #FDD511",
"!%	c #FFD816",
"~%	c #FFD92E",
"{%	c #FFD929",
"]%	c #FFCE03",
"^%	c #FFCE01",
"/%	c #B99501",
"(%	c #AF6C6C",
"_%	c #1A1100",
":%	c #BA7A00",
"<%	c #D88F00",
"[%	c #FDD512",
"}%	c #FFD92F",
"|%	c #FFD81D",
"1%	c #FFCE00",
"2%	c #FFCD00",
"3%	c #FDCA00",
"4%	c #151000",
"5%	c #060400",
"6%	c #A66B00",
"7%	c #D08800",
"8%	c #FCD40F",
"9%	c #FED92C",
"0%	c #FFDA35",
"a%	c #FFD80D",
"b%	c #FECB02",
"c%	c #FBC500",
"d%	c #F9BF00",
"e%	c #F8BC00",
"f%	c #8A6100",
"g%	c #975D5D",
"h%	c #C47A7A",
"i%	c #674200",
"j%	c #C98200",
"k%	c #FED723",
"l%	c #FFD925",
"m%	c #F9CD02",
"n%	c #B38801",
"o%	c #8B6201",
"p%	c #E1A500",
"q%	c #F6B700",
"r%	c #F4B400",
"s%	c #F3B100",
"t%	c #F2AE00",
"u%	c #AF7500",
"v%	c #714444",
"w%	c #0E0900",
"x%	c #B87600",
"y%	c #FCD215",
"z%	c #FFDA34",
"A%	c #FFD811",
"B%	c #F2C702",
"C%	c #865D00",
"D%	c #784C00",
"E%	c #B77700",
"F%	c #EDA300",
"G%	c #F0A900",
"H%	c #EEA600",
"I%	c #EC9F00",
"J%	c #9B6600",
"K%	c #F09696",
"L%	c #482E00",
"M%	c #C17B00",
"N%	c #C88200",
"O%	c #FED82E",
"P%	c #FFD81E",
"Q%	c #EBC101",
"R%	c #885E00",
"S%	c #B27300",
"T%	c #E69700",
"U%	c #E99A00",
"V%	c #EA9A00",
"W%	c #EA9B00",
"X%	c #EB9C00",
"Y%	c #825500",
"Z%	c #734A00",
"`%	c #D88E00",
" &	c #FBD114",
".&	c #DFB501",
"+&	c #996500",
"@&	c #E09300",
"#&	c #E99900",
"$&	c #E79900",
"%&	c #523500",
"&&	c #976000",
"*&	c #D78E00",
"=&	c #F8B000",
"-&	c #FDD626",
";&	c #FFDA30",
">&	c #C29A01",
",&	c #AB7000",
"'&	c #E89800",
")&	c #E19400",
"!&	c #B57300",
"~&	c #FAC100",
"{&	c #FFD933",
"]&	c #FFDA33",
"^&	c #F4CE00",
"/&	c #9D7500",
"(&	c #B97800",
"_&	c #E89900",
":&	c #EB9B00",
"<&	c #E69800",
"[&	c #D18800",
"}&	c #020100",
"|&	c #965C00",
"1&	c #BF7900",
"2&	c #E69B00",
"3&	c #F9CC08",
"4&	c #FFDA32",
"5&	c #FFD818",
"6&	c #D4AD01",
"7&	c #825700",
"8&	c #C88300",
"9&	c #DE9100",
"0&	c #B17200",
"a&	c #100A00",
"b&	c #834E00",
"c&	c #905800",
"d&	c #966000",
"e&	c #CA8500",
"f&	c #F9CB06",
"g&	c #FFD934",
"h&	c #FFD717",
"i&	c #F8D106",
"j&	c #A57E02",
"k&	c #875700",
"l&	c #DA8F00",
"m&	c #D68A00",
"n&	c #7F5100",
"o&	c #3C3C3D",
"p&	c #824F4F",
"q&	c #030200",
"r&	c #4F2F00",
"s&	c #A15F00",
"t&	c #975C00",
"u&	c #AC7000",
"v&	c #E49A00",
"w&	c #FBD112",
"x&	c #FDD524",
"y&	c #FDD51E",
"z&	c #FED709",
"A&	c #C8A104",
"B&	c #7E5601",
"C&	c #B17300",
"D&	c #E29500",
"E&	c #D78C00",
"F&	c #CB8200",
"G&	c #311F00",
"H&	c #1F1F20",
"I&	c #838384",
"J&	c #828283",
"K&	c #484848",
"L&	c #865252",
"M&	c #231500",
"N&	c #9E620B",
"O&	c #A26000",
"P&	c #976100",
"Q&	c #DE9600",
"R&	c #FACD07",
"S&	c #FBD00A",
"T&	c #FCD20E",
"U&	c #FDD60D",
"V&	c #CDA607",
"W&	c #886002",
"X&	c #9B6400",
"Y&	c #DA9000",
"Z&	c #E39500",
"`&	c #D88C00",
" *	c #CA8407",
".*	c #997E4F",
"+*	c #242425",
"@*	c #6C6C6D",
"#*	c #847C70",
"$*	c #9F6613",
"%*	c #A36100",
"&*	c #895500",
"**	c #C18300",
"=*	c #F1A700",
"-*	c #FCBF00",
";*	c #E4BD0D",
">*	c #B48D07",
",*	c #845A02",
"'*	c #A06700",
")*	c #D68D00",
"!*	c #E29400",
"~*	c #CC8B12",
"{*	c #A88341",
"]*	c #8A8274",
"^*	c #787877",
"/*	c #777778",
"(*	c #5C5C5D",
"_*	c #1A1A19",
":*	c #9D9D9B",
"<*	c #887F71",
"[*	c #A1640B",
"}*	c #8A5500",
"|*	c #865700",
"1*	c #C98B00",
"2*	c #F4AD00",
"3*	c #EBC40F",
"4*	c #CBA30D",
"5*	c #A98108",
"6*	c #855B03",
"7*	c #956000",
"8*	c #BD7B00",
"9*	c #E79903",
"0*	c #BF8E2E",
"a*	c #968564",
"b*	c #838381",
"c*	c #878785",
"d*	c #B8B8B6",
"e*	c #B9B9B7",
"f*	c #171716",
"g*	c #353536",
"h*	c #7F7F80",
"i*	c #272727",
"j*	c #A2A2A0",
"k*	c #8A7C66",
"l*	c #A36305",
"m*	c #A86400",
"n*	c #A26400",
"o*	c #7B4D00",
"p*	c #9C6A00",
"q*	c #BD8400",
"r*	c #E4A900",
"s*	c #F0B500",
"t*	c #F0B800",
"u*	c #ECB800",
"v*	c #DFAF00",
"w*	c #D2A501",
"x*	c #BD9202",
"y*	c #A77D03",
"z*	c #8F6803",
"A*	c #7D5401",
"B*	c #8B5900",
"C*	c #AA6F00",
"D*	c #C98400",
"E*	c #C3902D",
"F*	c #8F8572",
"G*	c #999997",
"H*	c #ACACAA",
"I*	c #BABAB8",
"J*	c #2E2E2F",
"K*	c #8C5555",
"L*	c #B97272",
"M*	c #303030",
"N*	c #8E7757",
"O*	c #A46201",
"P*	c #AC6700",
"Q*	c #B46E00",
"R*	c #AD6C00",
"S*	c #955D00",
"T*	c #855A00",
"U*	c #724A00",
"V*	c #694200",
"W*	c #6B4300",
"X*	c #784F00",
"Y*	c #895E00",
"Z*	c #A07400",
"`*	c #B98A00",
" =	c #D1A100",
".=	c #E7A000",
"+=	c #DF980C",
"@=	c #9F875B",
"#=	c #AAAAA8",
"$=	c #6F6F70",
"%=	c #E38D8D",
"&=	c #9E9E9D",
"*=	c #967038",
"==	c #A66300",
"-=	c #AE6A00",
";=	c #B67000",
">=	c #BE7700",
",=	c #C78100",
"'=	c #E3AD00",
")=	c #E3B000",
"!=	c #DEAB00",
"~=	c #DFAD00",
"{=	c #E6B300",
"]=	c #E8A700",
"^=	c #E89A00",
"/=	c #C38F29",
"(=	c #8B8578",
"_=	c #9E9E9C",
":=	c #414140",
"<=	c #636364",
"[=	c #969592",
"}=	c #9D691E",
"|=	c #AF6B00",
"1=	c #B77100",
"2=	c #DFA700",
"3=	c #E6B000",
"4=	c #E9A400",
"5=	c #DE9302",
"6=	c #AC8845",
"7=	c #8F8F8C",
"8=	c #B1B1AF",
"9=	c #90908E",
"0=	c #92897B",
"a=	c #A16309",
"b=	c #AF6A00",
"c=	c #BC7500",
"d=	c #C27A00",
"e=	c #CF8C00",
"f=	c #DB9B00",
"g=	c #DFA200",
"h=	c #E0A100",
"i=	c #E29B00",
"j=	c #E49600",
"k=	c #E59700",
"l=	c #E19300",
"m=	c #DC8F00",
"n=	c #CD8A0F",
"o=	c #958466",
"p=	c #252525",
"q=	c #4A4A4B",
"r=	c #6B6B6C",
"s=	c #965C5C",
"t=	c #4C4C4B",
"u=	c #B5B5B3",
"v=	c #907E63",
"w=	c #A46203",
"x=	c #A76400",
"y=	c #AD6900",
"z=	c #B97300",
"A=	c #BF7700",
"B=	c #C47C00",
"C=	c #C98000",
"D=	c #CE8400",
"E=	c #D28700",
"F=	c #D68B00",
"G=	c #DA8E00",
"H=	c #DD9000",
"I=	c #DF9200",
"J=	c #DE9200",
"K=	c #DC9000",
"L=	c #D98D00",
"M=	c #D58A00",
"N=	c #D18700",
"O=	c #B3832D",
"P=	c #8F8A81",
"Q=	c #C3C3C1",
"R=	c #CDCDCB",
"S=	c #C8C8C6",
"T=	c #7B7B7A",
"U=	c #59595A",
"V=	c #2F2F30",
"W=	c #E48E8E",
"X=	c #4F2E2E",
"Y=	c #656564",
"Z=	c #927953",
"`=	c #A56200",
" -	c #AA6600",
".-	c #B06B00",
"+-	c #B56F00",
"@-	c #BA7300",
"#-	c #C67D00",
"$-	c #CC8200",
"%-	c #CF8500",
"&-	c #D18600",
"*-	c #D38800",
"=-	c #D28800",
"--	c #CC8300",
";-	c #C27E09",
">-	c #9A8155",
",-	c #CACAC8",
"'-	c #E9E9E7",
")-	c #232322",
"!-	c #945B5B",
"~-	c #828281",
"{-	c #907A58",
"]-	c #A46100",
"^-	c #AB6700",
"/-	c #B36E00",
"(-	c #BA7400",
"_-	c #BD7600",
":-	c #C07800",
"<-	c #C37B00",
"[-	c #C57C00",
"}-	c #C47B00",
"|-	c #C17900",
"1-	c #BC7705",
"2-	c #A47C38",
"3-	c #938D81",
"4-	c #B0B0AE",
"5-	c #B3B3B1",
"6-	c #92836B",
"7-	c #9F6612",
"8-	c #B16C00",
"9-	c #B87100",
"0-	c #B2710A",
"a-	c #9E7839",
"b-	c #938C82",
"c-	c #1B1B1A",
"d-	c #784848",
"e-	c #4C2C2C",
"f-	c #9E9C97",
"g-	c #937548",
"h-	c #9F6510",
"i-	c #A76300",
"j-	c #A96500",
"k-	c #A86705",
"l-	c #9D6F2A",
"m-	c #937E5E",
"n-	c #9B9995",
"o-	c #8F8F8E",
"p-	c #C07777",
"q-	c #BF7676",
"r-	c #C2C2C0",
"s-	c #B7B7B5",
"t-	c #A3A29F",
"u-	c #958670",
"v-	c #947443",
"w-	c #996C2C",
"x-	c #9D681B",
"y-	c #9E6819",
"z-	c #9E6718",
"A-	c #9C6A22",
"B-	c #976E32",
"C-	c #947649",
"D-	c #95856D",
"E-	c #9E9C98",
"F-	c #AEAEAC",
"G-	c #C0C0BE",
"H-	c #533030",
"I-	c #DFDFDE",
"J-	c #B2B2B0",
"K-	c #B4B4B2",
"L-	c #C9C9C7",
"M-	c #794949",
"N-	c #6B4040",
"O-	c #CB7E7E",
"P-	c #AD6A6A",
"Q-	c #888887",
"R-	c #F0F0EE",
"S-	c #CCCCCA",
"T-	c #282827",
"U-	c #E6E6E4",
"V-	c #8F5757",
"W-	c #BFBFBD",
"X-	c #777776",
"Y-	c #CFCFCD",
"Z-	c #D2D2D0",
"`-	c #845050",
" ;	c #C7C7C5",
".;	c #616160",
"+;	c #D08181",
"@;	c #AC6A6A",
"#;	c #CBCBC9",
"$;	c #DADAD9",
"%;	c #E7E7E5",
"&;	c #CECECC",
"*;	c #8A8A89",
"=;	c #949493",
"-;	c #424242",
";;	c #5E5E5D",
">;	c #979796",
",;	c #855050",
"';	c #E8E8E6",
");	c #6D6D6C",
"!;	c #603939",
"~;	c #464646",
"{;	c #704343",
"];	c #3A2121",
"^;	c #A6A6A5",
"/;	c #834F4F",
"(;	c #E3E3E1",
"_;	c #727271",
":;	c #7C7C7B",
"<;	c #A0A09F",
"[;	c #A9A9A7",
"};	c #C4C4C2",
"|;	c #D2D2D1",
"1;	c #A96868",
"2;	c #C97D7D",
"3;	c #D0D0CE",
"4;	c #D5D5D4",
"5;	c #D1D1CF",
"6;	c #1D1D1C",
"7;	c #D8D8D7",
"8;	c #C5C5C3",
"9;	c #C6C6C4",
"0;	c #C1C1BF",
"a;	c #7E7E7D",
"b;	c #C17777",
"c;	c #979795",
"d;	c #49494A",
"e;	c #1C1C1C",
"f;	c #646465",
"g;	c #585857",
"h;	c #676768",
"i;	c #2B2B2B",
"j;	c #525253",
"k;	c #AAAAA9",
"l;	c #5D5D5E",
"m;	c #A76767",
"n;	c #DDDDDB",
"o;	c #343434",
"p;	c #686869",
"q;	c #683E3E",
"r;	c #7F7F7E",
"s;	c #ABABAA",
"t;	c #7A7A7B",
"u;	c #444445",
"v;	c #CA7D7D",
"w;	c #767676",
"x;	c #515151",
"y;	c #232324",
"z;	c #767677",
"A;	c #212120",
"B;	c #282828",
"C;	c #7D7D7E",
"D;	c #B97373",
"E;	c #666666",
"F;	c #545453",
"G;	c #464647",
"H;	c #818182",
"I;	c #CD7F7F",
"J;	c #2F2F2F",
"K;	c #ACACAB",
"L;	c #575758",
"M;	c #4E4E4F",
"N;	c #101011",
"O;	c #353535",
"P;	c #474748",
"Q;	c #6F6F6F",
"R;	c #646463",
"S;	c #919190",
"T;	c #494949",
"U;	c #1F1F1F",
"V;	c #6D6D6E",
"W;	c #757576",
"X;	c #7F4D4D",
"Y;	c #2A2A29",
"Z;	c #969695",
"`;	c #808081",
" >	c #734545",
".>	c #474747",
"+>	c #575756",
"@>	c #3D3D3E",
"#>	c #CF8080",
"$>	c #484849",
"%>	c #4D4D4E",
"&>	c #454546",
"*>	c #724545",
"=>	c #626261",
"->	c #5F5F60",
";>	c #202021",
">>	c #593535",
",>	c #4D4D4C",
"'>	c #9F6262",
")>	c #4E2D2D",
"!>	c #121213",
"~>	c #673E3E",
"{>	c #787879",
"]>	c #616162",
"^>	c #525251",
"/>	c #686867",
"(>	c #7A7A79",
"_>	c #585859",
":>	c #727273",
"<>	c #606060",
"[>	c #7E7E7F",
"}>	c #9B9B9A",
"|>	c #69696A",
"1>	c #A8A8A7",
"2>	c #737374",
"3>	c #483500",
"4>	c #523D00",
"5>	c #322500",
"6>	c #1B1400",
"7>	c #B88600",
"8>	c #FCBB00",
"9>	c #FFBD00",
"0>	c #E2A800",
"a>	c #826000",
"b>	c #0A0700",
"c>	c #624100",
"d>	c #F5B400",
"e>	c #DEA400",
"f>	c #352700",
"g>	c #A1A1A0",
"h>	c #FCF7E7",
"i>	c #FEDB71",
"j>	c #FED043",
"k>	c #FED34E",
"l>	c #FDE088",
"m>	c #FCF2D3",
"n>	c #7B4F00",
"o>	c #F3B000",
"p>	c #F6B500",
"q>	c #3D2D00",
"r>	c #FCFBF5",
"s>	c #FECB2F",
"t>	c #FFC000",
"u>	c #FFC821",
"v>	c #FED65B",
"w>	c #FDE18C",
"x>	c #67551C",
"y>	c #251C00",
"z>	c #7A4F00",
"A>	c #DC9600",
"B>	c #251B00",
"C>	c #888888",
"D>	c #FDE8A8",
"E>	c #FABC00",
"F>	c #BA8D00",
"G>	c #030300",
"H>	c #A06452",
"I>	c #CA8300",
"J>	c #F0AD00",
"K>	c #E5A800",
"L>	c #FEDC75",
"M>	c #5C4500",
"N>	c #F09690",
"O>	c #CA831D",
"P>	c #CC8500",
"Q>	c #FDBB00",
"R>	c #A87700",
"S>	c #F7D061",
"T>	c #FFC100",
"U>	c #FFC500",
"V>	c #FFC400",
"W>	c #FFC300",
"X>	c #FFC200",
"Y>	c #EDB300",
"Z>	c #070500",
"`>	c #302400",
" ,	c #443300",
".,	c #D98B5A",
"+,	c #D89200",
"@,	c #FBB900",
"#,	c #4D3400",
"$,	c #5C5C5B",
"%,	c #D5BD93",
"&,	c #DAA101",
"*,	c #FFCB00",
"=,	c #FFCC00",
"-,	c #967900",
";,	c #221A00",
">,	c #A8783C",
",,	c #EB9386",
"',	c #E09C00",
"),	c #E3A100",
"!,	c #1C1200",
"~,	c #4B4B4B",
"{,	c #E7DAC1",
"],	c #A46902",
"^,	c #D69E00",
"/,	c #FFC800",
"(,	c #FFCA00",
"_,	c #524200",
":,	c #322800",
"<,	c #FFC600",
"[,	c #F9A77E",
"},	c #F59998",
"|,	c #D38846",
"1,	c #E8A400",
"2,	c #FEBC00",
"3,	c #AD7300",
"4,	c #080500",
"5,	c #B9914C",
"6,	c #9C6200",
"7,	c #A56B00",
"8,	c #FFC900",
"9,	c #1C1600",
"0,	c #4F4000",
"a,	c #FEBD32",
"b,	c #F59A97",
"c,	c #E59078",
"d,	c #F1AD00",
"e,	c #EDA900",
"f,	c #FBFAF7",
"g,	c #9E680B",
"h,	c #9B6100",
"i,	c #FABA00",
"j,	c #F4C000",
"k,	c #927500",
"l,	c #F8A97C",
"m,	c #F19792",
"n,	c #CD8527",
"o,	c #F9B500",
"p,	c #CC8700",
"q,	c #392500",
"r,	c #F4EFE5",
"s,	c #996000",
"t,	c #996100",
"u,	c #9A6100",
"v,	c #F2B100",
"w,	c #FFC700",
"x,	c #D8A400",
"y,	c #E9B000",
"z,	c #F2B22B",
"A,	c #F49998",
"B,	c #F49897",
"C,	c #D5884C",
"D,	c #CB8400",
"E,	c #F3AE00",
"F,	c #AC6F00",
"G,	c #120B00",
"H,	c #EEE7D9",
"I,	c #975F00",
"J,	c #986000",
"K,	c #FCBD00",
"L,	c #C38C00",
"M,	c #745700",
"N,	c #FDC500",
"O,	c #DD8B71",
"P,	c #D98B5B",
"Q,	c #DF9600",
"R,	c #D28B00",
"S,	c #815300",
"T,	c #F0EADE",
"U,	c #965E00",
"V,	c #985F00",
"W,	c #EAA500",
"X,	c #F6AF00",
"Y,	c #C58900",
"Z,	c #181200",
"`,	c #C57F1D",
" '	c #F19693",
".'	c #F19791",
"+'	c #D5884B",
"@'	c #F7B100",
"#'	c #B87700",
"$'	c #492F00",
"%'	c #5B5B5A",
"&'	c #F6F2EB",
"*'	c #955E00",
"='	c #E5A000",
"-'	c #FEBE00",
";'	c #F2AA00",
">'	c #C78500",
",'	c #AF8400",
"''	c #CD8400",
")'	c #E08D76",
"!'	c #F49896",
"~'	c #EB9487",
"{'	c #DD8D66",
"]'	c #CC841D",
"^'	c #D78D00",
"/'	c #FBB600",
"('	c #DD9800",
"_'	c #AD6F00",
":'	c #FBFBF8",
"<'	c #935D01",
"['	c #945D00",
"}'	c #E19C00",
"|'	c #EEA400",
"1'	c #715500",
"2'	c #D58500",
"3'	c #CF8252",
"4'	c #F39895",
"5'	c #E7927E",
"6'	c #DE8D68",
"7'	c #D88957",
"8'	c #D48849",
"9'	c #D48847",
"0'	c #D68A52",
"a'	c #D5884D",
"b'	c #D08738",
"c'	c #CA8304",
"d'	c #CE8500",
"e'	c #F0A300",
"f'	c #F8B700",
"g'	c #BE7B00",
"h'	c #8C5A00",
"i'	c #98640D",
"j'	c #935C00",
"k'	c #DF9B00",
"l'	c #FBBA00",
"m'	c #E99D00",
"n'	c #1D1300",
"o'	c #4B3700",
"p'	c #FBBD00",
"q'	c #DF8800",
"r'	c #BE7815",
"s'	c #F19793",
"t'	c #DD8C63",
"u'	c #CC8419",
"v'	c #C98300",
"w'	c #CD8500",
"x'	c #FDB900",
"y'	c #EDAD00",
"z'	c #583900",
"A'	c #9C6B19",
"B'	c #915B00",
"C'	c #925C00",
"D'	c #DE9B00",
"E'	c #DE9000",
"F'	c #513400",
"G'	c #3E2B00",
"H'	c #FDBC00",
"I'	c #E18900",
"J'	c #BF7800",
"K'	c #EE948E",
"L'	c #EF968E",
"M'	c #D08636",
"N'	c #D48B00",
"O'	c #EC9D00",
"P'	c #FCB700",
"Q'	c #CE8E00",
"R'	c #AB6E00",
"S'	c #231700",
"T'	c #9B6E22",
"U'	c #905A00",
"V'	c #DD9B00",
"W'	c #DE8F00",
"X'	c #9A6300",
"Y'	c #483100",
"Z'	c #EFAC00",
"`'	c #FCB900",
" )	c #E38D00",
".)	c #C37A00",
"+)	c #E59082",
"@)	c #D1863D",
"#)	c #CB8300",
"$)	c #DC9400",
"%)	c #EBA300",
"&)	c #F1AB00",
"*)	c #F2AB00",
"=)	c #F3AC00",
"-)	c #EFA800",
";)	c #EBA200",
">)	c #DD9400",
",)	c #D78B00",
"')	c #DF9100",
"))	c #EEA000",
"!)	c #F7AF00",
"~)	c #FFBE00",
"{)	c #F6BC00",
"])	c #B07200",
"^)	c #8C5900",
"/)	c #9A7029",
"()	c #8F5900",
"_)	c #FAB800",
":)	c #E59800",
"<)	c #DF9000",
"[)	c #D58900",
"})	c #241800",
"|)	c #6A4700",
"1)	c #F0AA00",
"2)	c #F8B200",
"3)	c #EEA100",
"4)	c #E18D7C",
"5)	c #E28F71",
"6)	c #DF9800",
"7)	c #FBB800",
"8)	c #FABF00",
"9)	c #DE9E00",
"0)	c #AA6D00",
"a)	c #4E3200",
"b)	c #9D7534",
"c)	c #8D5900",
"d)	c #8E5900",
"e)	c #D88B00",
"f)	c #A76C00",
"g)	c #150D00",
"h)	c #A06800",
"i)	c #EFA500",
"j)	c #F5AE00",
"k)	c #F7B200",
"l)	c #C57F00",
"m)	c #DD8A76",
"n)	c #F59A99",
"o)	c #CF8635",
"p)	c #E8A100",
"q)	c #F8C100",
"r)	c #B57600",
"s)	c #A16800",
"t)	c #170F00",
"u)	c #A9A9A8",
"v)	c #9D7738",
"w)	c #8C5800",
"x)	c #8D5800",
"y)	c #EA9E00",
"z)	c #DB8E00",
"A)	c #D38900",
"B)	c #8D5C00",
"C)	c #5D3C00",
"D)	c #D08700",
"E)	c #EAA000",
"F)	c #F1A900",
"G)	c #F9B300",
"H)	c #F1B000",
"I)	c #D6876A",
"J)	c #EE958C",
"K)	c #DA9200",
"L)	c #EAAD00",
"M)	c #7A4E00",
"N)	c #010000",
"O)	c #9D783C",
"P)	c #8B5700",
"Q)	c #8C5700",
"R)	c #E1A200",
"S)	c #A86D00",
"T)	c #312000",
"U)	c #523400",
"V)	c #B67500",
"W)	c #DC9100",
"X)	c #E69F00",
"Y)	c #ECA400",
"Z)	c #FCBA00",
"`)	c #E7A23F",
" !	c #E8927F",
".!	c #F5AF00",
"+!	c #FDBF00",
"@!	c #F8C300",
"#!	c #BE8000",
"$!	c #A46900",
"%!	c #3C2600",
"&!	c #9D793D",
"*!	c #895600",
"=!	c #8A5600",
"-!	c #E4A500",
";!	c #F0A800",
">!	c #E79A00",
",!	c #D98F00",
"'!	c #D48A00",
")!	c #976200",
"!!	c #4D3300",
"~!	c #1C1300",
"{!	c #372400",
"]!	c #734B00",
"^!	c #BD7C00",
"/!	c #DB9400",
"(!	c #E29E00",
"_!	c #E9A200",
":!	c #EDA500",
"<!	c #F6B000",
"[!	c #FFBF00",
"}!	c #FEBF00",
"|!	c #F7A18A",
"1!	c #E49076",
"2!	c #CE8700",
"3!	c #F9C300",
"4!	c #F2B800",
"5!	c #A26900",
"6!	c #965F00",
"7!	c #9D7A40",
"8!	c #885500",
"9!	c #E8A900",
"0!	c #FEBD00",
"a!	c #E39800",
"b!	c #D88D00",
"c!	c #C88100",
"d!	c #C17F00",
"e!	c #915F00",
"f!	c #835700",
"g!	c #7C5100",
"h!	c #8C5D00",
"i!	c #A06900",
"j!	c #C48000",
"k!	c #CA8400",
"l!	c #DA9800",
"m!	c #E09D00",
"n!	c #E49F00",
"o!	c #FAB700",
"p!	c #FAB741",
"q!	c #F59A98",
"r!	c #E18F6F",
"s!	c #FCC000",
"t!	c #F8C400",
"u!	c #CD8F00",
"v!	c #A06600",
"w!	c #664200",
"x!	c #9D7B43",
"y!	c #875400",
"z!	c #ECAD00",
"A!	c #E39A00",
"B!	c #DC9300",
"C!	c #D78F00",
"D!	c #D28900",
"E!	c #CD8700",
"F!	c #C68100",
"G!	c #C27E00",
"H!	c #BF7C00",
"I!	c #BE7C00",
"J!	c #C07E00",
"K!	c #C47F00",
"L!	c #CD8B00",
"M!	c #D29300",
"N!	c #D99800",
"O!	c #EAA300",
"P!	c #EFA700",
"Q!	c #F9A97D",
"R!	c #E29072",
"S!	c #E49C00",
"T!	c #F8C000",
"U!	c #9E6500",
"V!	c #2C1C00",
"W!	c #9D7C45",
"X!	c #855300",
"Y!	c #865400",
"Z!	c #F0B100",
"`!	c #EAA200",
" ~	c #E6A000",
".~	c #DC9800",
"+~	c #D28D00",
"@~	c #CF8A00",
"#~	c #C98500",
"$~	c #C78400",
"%~	c #C78300",
"&~	c #C98800",
"*~	c #CC8D00",
"=~	c #CF9200",
"-~	c #D39500",
";~	c #D89800",
">~	c #DB9A00",
",~	c #E49E00",
"'~	c #EDA400",
")~	c #FCBA35",
"!~	c #E59C00",
"~~	c #E8AB00",
"{~	c #9C6400",
"]~	c #855500",
"^~	c #9A7941",
"/~	c #845200",
"(~	c #F3B400",
"_~	c #DC9B00",
":~	c #D59500",
"<~	c #D09200",
"[~	c #CE9100",
"}~	c #CD9100",
"|~	c #CE9200",
"1~	c #CE9300",
"2~	c #D19400",
"3~	c #D69700",
"4~	c #DA9900",
"5~	c #DF9C00",
"6~	c #E39E00",
"7~	c #EFA600",
"8~	c #F8B500",
"9~	c #F7A977",
"0~	c #E7927D",
"a~	c #F9C200",
"b~	c #B97D00",
"c~	c #9A6200",
"d~	c #492E00",
"e~	c #97743B",
"f~	c #835100",
"g~	c #F5B600",
"h~	c #F9B700",
"i~	c #D69600",
"j~	c #D59600",
"k~	c #D29500",
"l~	c #D39600",
"m~	c #FCBC19",
"n~	c #F69C94",
"o~	c #EB9485",
"p~	c #DC9200",
"q~	c #F7BE00",
"r~	c #915C00",
"s~	c #947035",
"t~	c #815000",
"u~	c #825100",
"v~	c #DF9D00",
"w~	c #ECA74A",
"x~	c #EE968D",
"y~	c #D78A00",
"z~	c #E3A600",
"A~	c #603C00",
"B~	c #8C8C8B",
"C~	c #916C2E",
"D~	c #805000",
"E~	c #F4B500",
"F~	c #E19D00",
"G~	c #F2AC00",
"H~	c #DF9364",
"I~	c #FAB300",
"J~	c #B98000",
"K~	c #925D00",
"L~	c #8D6628",
"M~	c #7F4F00",
"N~	c #804F00",
"O~	c #F2B300",
"P~	c #E7A100",
"Q~	c #F5B000",
"R~	c #F7B800",
"S~	c #DB8D69",
"T~	c #C9821D",
"U~	c #C68000",
"V~	c #F5AB00",
"W~	c #FBC100",
"X~	c #F7BF00",
"Y~	c #754A00",
"Z~	c #896121",
"`~	c #7D4E00",
" {	c #7E4E00",
".{	c #F0AF00",
"+{	c #D68D57",
"@{	c #CD8439",
"#{	c #C78000",
"${	c #F0A200",
"%{	c #E8AD00",
"&{	c #8F5C00",
"*{	c #392400",
"={	c #7C520D",
"-{	c #7C4D00",
";{	c #7D4D00",
">{	c #EBA800",
",{	c #F4AF00",
"'{	c #FDBE00",
"){	c #E09C3A",
"!{	c #F19891",
"~{	c #CF854B",
"{{	c #C37E00",
"]{	c #C28800",
"^{	c #825200",
"/{	c #784A00",
"({	c #7B4C00",
"_{	c #E7A200",
":{	c #F8B400",
"<{	c #F4AE00",
"[{	c #F8B90C",
"}{	c #F2A66C",
"|{	c #F59B96",
"1{	c #D48658",
"2{	c #C17D00",
"3{	c #C07C00",
"4{	c #E79700",
"5{	c #FAC000",
"6{	c #A06B00",
"7{	c #543500",
"8{	c #0E0B06",
"9{	c #794B00",
"0{	c #7A4C00",
"a{	c #E59E00",
"b{	c #F6B100",
"c{	c #F8B300",
"d{	c #FDBC24",
"e{	c #FAAD73",
"f{	c #F59B97",
"g{	c #D78864",
"h{	c #BF7B00",
"i{	c #F5AA00",
"j{	c #EDB000",
"k{	c #8A5800",
"l{	c #221600",
"m{	c #949492",
"n{	c #774A00",
"o{	c #E69A00",
"p{	c #FDBC32",
"q{	c #F8A682",
"r{	c #DB8B6E",
"s{	c #BD7A00",
"t{	c #FBC200",
"u{	c #BE8600",
"v{	c #6F4600",
"w{	c #1B1100",
"x{	c #764900",
"y{	c #774900",
"z{	c #E99800",
"A{	c #FFC004",
"B{	c #F9A97B",
"C{	c #DF8D77",
"D{	c #BC7A00",
"E{	c #BC7900",
"F{	c #ED9B00",
"G{	c #956100",
"H{	c #442B00",
"I{	c #251700",
"J{	c #754800",
"K{	c #855200",
"L{	c #E79400",
"M{	c #FEBD12",
"N{	c #F69D93",
"O{	c #E28E7B",
"P{	c #BB7900",
"Q{	c #BA7800",
"R{	c #EC9A00",
"S{	c #FDBA00",
"T{	c #E0A500",
"U{	c #805100",
"V{	c #1D1200",
"W{	c #331F00",
"X{	c #734700",
"Y{	c #744800",
"Z{	c #935A00",
"`{	c #E48E00",
" ]	c #DB9745",
".]	c #F39897",
"+]	c #E28E7C",
"@]	c #D08600",
"#]	c #FBB500",
"$]	c #FCC100",
"%]	c #A57100",
"&]	c #6E4500",
"*]	c #999998",
"=]	c #412800",
"-]	c #724600",
";]	c #A16200",
">]	c #E18A00",
",]	c #E09900",
"']	c #C17B52",
")]	c #E28E7D",
"!]	c #B77600",
"~]	c #CC8400",
"{]	c #FAB400",
"]]	c #FAC300",
"^]	c #7E4F00",
"/]	c #4F3202",
"(]	c #6A6A69",
"_]	c #A3A3A2",
":]	c #503100",
"<]	c #714500",
"[]	c #714600",
"}]	c #A96B00",
"|]	c #D3846E",
"1]	c #DF8D79",
"2]	c #B67600",
"3]	c #B57500",
"4]	c #FAB500",
"5]	c #B27D00",
"6]	c #7C4E00",
"7]	c #9F8C6D",
"8]	c #858584",
"9]	c #666665",
"0]	c #5D3A00",
"a]	c #6F4400",
"b]	c #704500",
"c]	c #BE7400",
"d]	c #F9B400",
"e]	c #CE7F00",
"f]	c #A76A00",
"g]	c #AD6D21",
"h]	c #F29796",
"i]	c #DB8A72",
"j]	c #B57400",
"k]	c #B47400",
"l]	c #FCB800",
"m]	c #F5BC00",
"n]	c #7C4F00",
"o]	c #7D5005",
"p]	c #DED3C0",
"q]	c #6A4100",
"r]	c #6E4300",
"s]	c #D18000",
"t]	c #F9B600",
"u]	c #E89700",
"v]	c #A66900",
"w]	c #A76900",
"x]	c #E48E85",
"y]	c #D5876A",
"z]	c #B37300",
"A]	c #CF8600",
"B]	c #ED9C00",
"C]	c #C58D00",
"D]	c #784B00",
"E]	c #865F1C",
"F]	c #F1EDE5",
"G]	c #5A5A59",
"H]	c #0D0800",
"I]	c #6C4200",
"J]	c #6D4200",
"K]	c #724500",
"L]	c #E08900",
"M]	c #FAB600",
"N]	c #D88500",
"O]	c #A56700",
"P]	c #A56800",
"Q]	c #A56900",
"R]	c #E08C80",
"S]	c #C97F55",
"T]	c #B27200",
"U]	c #F1A400",
"V]	c #F7BB00",
"W]	c #987741",
"X]	c #FAF9F6",
"Y]	c #1D1100",
"Z]	c #6B4200",
"`]	c #835000",
" ^	c #B36F00",
".^	c #A26700",
"+^	c #A36700",
"@^	c #A46800",
"#^	c #E9918B",
"$^	c #BA7734",
"%^	c #B07100",
"&^	c #AF7100",
"*^	c #E09200",
"=^	c #F9B100",
"-^	c #E19A00",
";^	c #B19A72",
">^	c #2E1C00",
",^	c #694000",
"'^	c #E38C00",
")^	c #C37800",
"!^	c #A06500",
"~^	c #A16600",
"{^	c #A26600",
"]^	c #B57142",
"^^	c #EE9591",
"/^	c #AF7000",
"(^	c #ED9E00",
"_^	c #FFBC00",
":^	c #FBC000",
"<^	c #F6B400",
"[^	c #744700",
"}^	c #724701",
"|^	c #CDBEA6",
"1^	c #3F2600",
"2^	c #683F00",
"3^	c #AA6700",
"4^	c #C77A00",
"5^	c #9F6400",
"6^	c #A16500",
"7^	c #DA887A",
"8^	c #DA8976",
"9^	c #AE7000",
"0^	c #C27D00",
"a^	c #FABE00",
"b^	c #6F4500",
"c^	c #744C0B",
"d^	c #E4DDCF",
"e^	c #6C6C6B",
"f^	c #4F3000",
"g^	c #663E00",
"h^	c #673F00",
"i^	c #BF7400",
"j^	c #E18800",
"k^	c #C17800",
"l^	c #9D6200",
"m^	c #9D6300",
"n^	c #9E6300",
"o^	c #9E6400",
"p^	c #B57147",
"q^	c #C37B50",
"r^	c #AC6E00",
"s^	c #DB9100",
"t^	c #F0A600",
"u^	c #EB9900",
"v^	c #955F00",
"w^	c #6D4300",
"x^	c #825E25",
"y^	c #F4F2EC",
"z^	c #5E3900",
"A^	c #653D00",
"B^	c #D38000",
"C^	c #E69100",
"D^	c #F5AD00",
"E^	c #E48F00",
"F^	c #DC8600",
"G^	c #B06D00",
"H^	c #9B6200",
"I^	c #A2661F",
"J^	c #EB938E",
"K^	c #EB938D",
"L^	c #AD6E08",
"M^	c #F4B100",
"N^	c #E39400",
"O^	c #A0875D",
"P^	c #0A0600",
"Q^	c #633C00",
"R^	c #643D00",
"S^	c #6B4100",
"T^	c #E08800",
"U^	c #E99700",
"V^	c #E59100",
"W^	c #C67900",
"X^	c #9F651B",
"Y^	c #E28D85",
"Z^	c #CA7F5E",
"`^	c #A96D00",
" /	c #D38A00",
"./	c #F8B800",
"+/	c #EC9B00",
"@/	c #684000",
"#/	c #CCBFA9",
"$/	c #1B1000",
"%/	c #623B00",
"&/	c #623C00",
"*/	c #7E4D00",
"=/	c #F3AA00",
"-/	c #E28B00",
";/	c #CB7C00",
">/	c #A46600",
",/	c #9F6321",
"'/	c #E18D85",
")/	c #EC948F",
"!/	c #AC6E10",
"~/	c #A96C00",
"{/	c #663F00",
"]/	c #644008",
"^/	c #D5D3CE",
"//	c #6E6E6D",
"(/	c #2A1A00",
"_/	c #603A00",
":/	c #613B00",
"</	c #935900",
"[/	c #EFA200",
"}/	c #F2A900",
"|/	c #E59000",
"1/	c #CC7D00",
"2/	c #925B00",
"3/	c #AA6B3F",
"4/	c #E8918C",
"5/	c #CD8166",
"6/	c #A86C00",
"7/	c #A76B00",
"8/	c #F4A900",
"9/	c #F0A400",
"0/	c #E19200",
"a/	c #3B2503",
"b/	c #392200",
"c/	c #5F3900",
"d/	c #A96600",
"e/	c #CB7B00",
"f/	c #A06400",
"g/	c #965E0C",
"h/	c #C57B67",
"i/	c #F19694",
"j/	c #AC6D1D",
"k/	c #AA6C00",
"l/	c #F4A800",
"m/	c #A36900",
"n/	c #0F0900",
"o/	c #472B00",
"p/	c #5E3800",
"q/	c #F4AC00",
"r/	c #EC9E00",
"s/	c #9D6100",
"t/	c #8F5A00",
"u/	c #AF6D4B",
"v/	c #E6908A",
"w/	c #D48571",
"x/	c #A66A00",
"y/	c #A56A00",
"z/	c #F0A100",
"A/	c #F2A400",
"B/	c #653E00",
"C/	c #3C2400",
"D/	c #553400",
"E/	c #5C3800",
"F/	c #5D3800",
"G/	c #D17F00",
"H/	c #E79300",
"I/	c #C27700",
"J/	c #975E00",
"K/	c #A56740",
"L/	c #DB8980",
"M/	c #B4733E",
"N/	c #F2A600",
"O/	c #5B3800",
"P/	c #0B0700",
"Q/	c #090600",
"R/	c #5A3600",
"S/	c #5B3700",
"T/	c #DF8700",
"U/	c #C87A00",
"V/	c #965D00",
"W/	c #865300",
"X/	c #A46641",
"Y/	c #D6857C",
"Z/	c #ED9490",
"`/	c #A36800",
" (	c #A26800",
".(	c #EE9D00",
"+(	c #BE7A00",
"@(	c #2C1B00",
"#(	c #252524",
"$(	c #838382",
"%(	c #696968",
"&(	c #180E00",
"*(	c #593500",
"=(	c #683E00",
"-(	c #955C00",
";(	c #A26542",
">(	c #E38E84",
",(	c #5A3700",
"'(	c #4C2D00",
")(	c #20201F",
"!(	c #261700",
"~(	c #573400",
"{(	c #583500",
"](	c #754600",
"^(	c #D48100",
"/(	c #835200",
"((	c #A16442",
"_(	c #D5857C",
":(	c #DF8C80",
"<(	c #A16700",
"[(	c #9F6600",
"}(	c #EA9800",
"|(	c #F1A300",
"1(	c #311E00",
"2(	c #563300",
"3(	c #7C4A00",
"4(	c #DE8700",
"5(	c #AD6A00",
"6(	c #A26447",
"7(	c #DA8881",
"8(	c #E69088",
"9(	c #D98E00",
"0(	c #EF9E00",
"a(	c #563400",
"b(	c #201300",
"c(	c #3B2300",
"d(	c #553200",
"e(	c #553300",
"f(	c #814E00",
"g(	c #F1A600",
"h(	c #8D5700",
"i(	c #9A603F",
"j(	c #D7867F",
"k(	c #A76B2D",
"l(	c #9D6400",
"m(	c #9C6300",
"n(	c #8A5700",
"o(	c #2D1B00",
"p(	c #432800",
"q(	c #533200",
"r(	c #543200",
"s(	c #865000",
"t(	c #E89600",
"u(	c #ED9F00",
"v(	c #BA7200",
"w(	c #925A35",
"x(	c #D08279",
"y(	c #CD816D",
"z(	c #9B6300",
"A(	c #EE9E00",
"B(	c #F3A800",
"C(	c #F8B100",
"D(	c #372100",
"E(	c #4B2C00",
"F(	c #523100",
"G(	c #533100",
"H(	c #855000",
"I(	c #F4AB00",
"J(	c #D98400",
"K(	c #814F1B",
"L(	c #C47A6F",
"M(	c #B77250",
"N(	c #986100",
"O(	c #F2A500",
"P(	c #F7AE00",
"Q(	c #855400",
"R(	c #513000",
"S(	c #804D00",
"T(	c #E69200",
"U(	c #D28000",
"V(	c #AC6B59",
"W(	c #EA9290",
"X(	c #CB7F6D",
"Y(	c #9B6217",
"Z(	c #EFA000",
"`(	c #F3A600",
" _	c #F6AD00",
"._	c #503000",
"+_	c #4F2E00",
"@_	c #502F00",
"#_	c #E89500",
"$_	c #794A00",
"%_	c #895532",
"&_	c #D98782",
"*_	c #EA928E",
"=_	c #C67C69",
"-_	c #A06531",
";_	c #905C00",
">_	c #E49500",
",_	c #F7AD00",
"'_	c #382100",
")_	c #4D2D00",
"!_	c #4E2E00",
"~_	c #613A00",
"{_	c #F3AB00",
"]_	c #E28A00",
"^_	c #BB7200",
"/_	c #724700",
"(_	c #AD6B5C",
"__	c #EF9594",
":_	c #E48E89",
"<_	c #CB7F6F",
"[_	c #AB6B49",
"}_	c #8F5A04",
"|_	c #EC9900",
"1_	c #4D2E00",
"2_	c #301D00",
"3_	c #090500",
"4_	c #D58200",
"5_	c #EDA000",
"6_	c #AC6900",
"7_	c #6E4400",
"8_	c #77491B",
"9_	c #D0817B",
"0_	c #EF9593",
"a_	c #B8735C",
"b_	c #925B21",
"c_	c #885600",
"d_	c #875500",
"e_	c #CE8600",
"f_	c #4C2C00",
"g_	c #251600",
"h_	c #4A2C00",
"i_	c #AD6800",
"j_	c #A96700",
"k_	c #89553A",
"l_	c #E38E8B",
"m_	c #D9877F",
"n_	c #B7725E",
"o_	c #8E5A24",
"p_	c #845300",
"q_	c #865500",
"r_	c #4A2B00",
"s_	c #160D00",
"t_	c #492B00",
"u_	c #744600",
"v_	c #9E6000",
"w_	c #975D49",
"x_	c #ED9493",
"y_	c #F39797",
"z_	c #DC8983",
"A_	c #BB7564",
"B_	c #985F3A",
"C_	c #7F5000",
"D_	c #9F6500",
"E_	c #E49400",
"F_	c #482A00",
"G_	c #5A3535",
"H_	c #472A00",
"I_	c #492A00",
"J_	c #C07400",
"K_	c #975B00",
"L_	c #A56658",
"M_	c #F19796",
"N_	c #EC9492",
"O_	c #BA7464",
"P_	c #905A35",
"Q_	c #794C00",
"R_	c #845400",
"S_	c #8D564F",
"T_	c #8E5757",
"U_	c #5E3737",
"V_	c #3F2500",
"W_	c #D88400",
"X_	c #8E5700",
"Y_	c #B06D62",
"Z_	c #E68F8C",
"`_	c #CB7E75",
" :	c #AC6B58",
".:	c #88552E",
"+:	c #754900",
"@:	c #734800",
"#:	c #472900",
"$:	c #CB7E7C",
"%:	c #331D00",
"&:	c #462900",
"*:	c #744500",
"=:	c #DA8500",
"-:	c #D48200",
";:	c #653E04",
">:	c #C27871",
",:	c #EC9392",
"':	c #D5857F",
"):	c #BA7368",
"!:	c #995E47",
"~:	c #734708",
"{:	c #6C4300",
"]:	c #815100",
"^:	c #D48900",
"/:	c #543100",
"(:	c #462800",
"_:	c #673E2F",
"::	c #452800",
"<:	c #683D00",
"[:	c #D07E00",
"}:	c #C07500",
"|:	c #6B4000",
"1:	c #623C04",
"2:	c #C87C76",
"3:	c #F09695",
"4:	c #DA8884",
"5:	c #BF776E",
"6:	c #9C604D",
"7:	c #724615",
"8:	c #613C00",
"9:	c #442700",
"0:	c #C67B79",
"a:	c #895453",
"b:	c #432700",
"c:	c #A06100",
"d:	c #925900",
"e:	c #613C08",
"f:	c #CC7F7A",
"g:	c #DE8A87",
"h:	c #C47A73",
"i:	c #9F6252",
"j:	c #6E4419",
"k:	c #EA9900",
"l:	c #643E00",
"m:	c #845048",
"n:	c #925953",
"o:	c #442800",
"p:	c #A26200",
"q:	c #D88300",
"r:	c #643C00",
"s:	c #5C3700",
"t:	c #613A0C",
"u:	c #CE807C",
"v:	c #DB8985",
"w:	c #BA736B",
"x:	c #88543F",
"y:	c #603B00",
"z:	c #5F3A00",
"A:	c #5B3600",
"B:	c #583422",
"C:	c #E38E8D",
"D:	c #DD8988",
"E:	c #482A0C",
"F:	c #422600",
"G:	c #7C4B00",
"H:	c #AE6900",
"I:	c #DD8600",
"J:	c #BB7100",
"K:	c #8B5400",
"L:	c #593600",
"M:	c #633C15",
"N:	c #D2827F",
"O:	c #E7908E",
"P:	c #C47A74",
"Q:	c #8F5848",
"R:	c #BB7800",
"S:	c #432600",
"T:	c #462908",
"U:	c #D28381",
"V:	c #BB7471",
"W:	c #794800",
"X:	c #855100",
"Y:	c #955A00",
"Z:	c #8E5600",
"`:	c #714400",
" <	c #683F21",
".<	c #D88684",
"+<	c #E58F8D",
"@<	c #BA736C",
"#<	c #7A4A35",
"$<	c #8E5A00",
"%<	c #4E2F00",
"&<	c #47290C",
"*<	c #C77C79",
"=<	c #A86763",
"-<	c #7C4B39",
";<	c #E28D8B",
"><	c #D58582",
",<	c #9A5F55",
"'<	c #583508",
")<	c #AD7000",
"!<	c #412500",
"~<	c #4F2F19",
"{<	c #CF807F",
"]<	c #9A5E55",
"^<	c #EE9594",
"/<	c #E7908F",
"(<	c #B7716C",
"_<	c #6C412C",
":<	c #7B4A42",
"<<	c #E18C8B",
"[<	c #DF8B8A",
"}<	c #7E4D44",
"|<	c #693E28",
"1<	c #CB7E7A",
"2<	c #CB7E7B",
"3<	c #8A5349",
"4<	c #623A2D",
"5<	c #BE7673",
"6<	c #CC7F7D",
"7<	c #794940",
"8<	c #5C371B",
"9<	c #B26E68",
"0<	c #E6908F",
"a<	c #C07773",
"b<	c #8C564D",
"c<	c #4D2D08",
"d<	c #452808",
"e<	c #8A544D",
"f<	c #C47977",
"g<	c #DB8887",
"h<	c #A96864",
"i<	c #5D3727",
"j<	c #78483B",
"k<	c #B9736E",
"l<	c #ED9393",
"m<	c #D58483",
"n<	c #BD7572",
"o<	c #AD6B66",
"p<	c #9E615C",
"q<	c #A1635E",
"r<	c #BB7371",
"s<	c #D38382",
"t<	c #DE8A89",
"u<	c #C17775",
"v<	c #9D605B",
"w<	c #87524A",
"x<	c #6F4336",
"y<	c #523119",
"z<	c #593521",
"A<	c #6F4335",
"B<	c #804E44",
"C<	c #9E615B",
"D<	c #C17874",
"                                                                                                                                                                                                                                            . + @ # $ % & * = - ; > , ' ) ! ~ {                                                                                                                                                                                                                                                 ",
"                                                                                                                                                                                                                                    ] ^ / ( - - - - - - - - - - - - - - - - - - _ : < [                                                                                                                                                                                                                                         ",
"                                                                                                                                                                                                                              } | 1 2 - - - - - - - - - - - - - - - - - - - - - - - - 3 4 5 6                                                                                                                                                                                                                                   ",
"                                                                                                                                                                                                                          7 8 9 - - - - - - - - - - - - - - - - - - - - - - - - - - - - - - 0 a b                                                                                                                                                                                                                               ",
"                                                                                                                                                                                                                        ~ c - - - - - - - - - - - - - - - - - - - - - - - - - - - - - - - - - - 3 d e                                                                                                                                                                                                                           ",
"                                                                                                                                                                                                                    [ f - - - - - - - - - - - - - - - - - - - - - - - - - - - - - - - - - - - - - - g h {                                                                                                                                                                                                                       ",
"                                                                                                                                                                                                                  i j - - - - - - - - - - - - - - - - - - - - - - - - - - - - - - - - - - - - - - - - - k l                                                                                                                                                                                                                     ",
"                                                                                                                                                                                                                m 3 - - - - - - - - - - - - - - - - - - - - - - - - - - - - - - - - - - - - - - - - - - - - ' n                                                                                                                                                                                                                 ",
"                                                                                                                                                                                                            7 o - - - - - - - - - - - - - - - - - - - - - - - - - - - - - - - - - - - - - - - - - - - - - - - p q                                                                                                                                                                                                               ",
"                                                                                                                                                                                                          r s - - - - - - - - - - - - - - - - - - - - - - - - - - - - - - - - - - - - - - - - - - - - - - - - - 0 t                                                                                                                                                                                                             ",
"                                                                                                                                                                                                        } u - - - - - - - - - - - - - - - - - - - - - - - - - - - - - - - - - - - - - - - - - - - - - - - - - - - - v                                                                                                                                                                                                           ",
"                                                                                                                                                                                                        w - - - - - - - - - - - - - - - - - - - - - - - - - - - - - - - - - - - - - - - x y z A B - - - - - - - - - - C                                                                                                                                                                                                         ",
"                                                                                                                                                                                                      l - - - - - - - - - - - - - - - - - - - - - - - - - - - - - - - - - - - - - - - - D E E E F G - - - - - - - - - - H                                                                                                                                                                                                       ",
"                                                                                                                                                                                                    I J - - - - - - - - - - - - - - - - - - - - - - - - - - - - - - - - - - - - - - - - K E E E E L M - - - - - - - - - - 8                                                                                                                                                                                                     ",
"                                                                                                                                                                                                  7 N - - - - - - - - - - - - - - - - - - - - - - - - - - - - - - - - - - - - - - - - - O E E E E E P Q - - - - - - - - - R S                                                                                                                                                                                                   ",
"                                                                                                                                                                                                  H - - - - - - - - - - - - - - - - - - - - - - - - - - - - - - - - - - - - - - - - - - T E E E E E E U V - - - - - - - - - j W                                                                                                                                                                                                 ",
"                                                                                                                                                                                                { X - - - - - - - - - - - - - - - - - - - - - - - - - - - - - - - - - - - - - - - - - - - F E E E E E E P Y - - - - - - - - - Z 7                                                                                                                                                                                               ",
"                                                                                                                                                                                                ` - - - - - - - - - - - - - - - - - - - - - - - - - - - - - - - - - - - - - - - - - - - -  .E E E E E E E ..+.- - - - - - - - - @.                                                                                                                                                                                              ",
"                                                                                                                                                                                              #.$.- - - - - - - - - - - - - - - - - - - - - - - - - - - - - - - - - - - - - - - - - - - - %.E E E E E E E E &.*.- - - - - - - - =.-.                                                                                                                                                                                            ",
"                                                                                                                                                                                              ;.- - - - - - - - - - - - - - - - - - - - - - - - - - - - - - - - - - - - - - - - - - - - >.L E E E E ,.'.).!.~.K {.- - - - - - - - % 7                                                                                                                                                                                           ",
"                                                                                                                                                                                            ].X - - - - - - - - - - - - - - - - - - - - - - - - - - - - - - - - - - - - - - - - - - - - T E E E E ^.>.- - - /.(._.- - - - - - - - - :.                                                                                                                                                                                          ",
"                                                                                                                                                                                            5 - - - - - - - - - - - - - - - - - - - - - - - - - - - - - - - - - - - - - - - - - - - - - <.E E [.}.- - - - - - - |.1.- - - - - - - - 2.3.                                                                                                                                                                                        ",
"                                                                                                                                                                                            4.- - - - - - - - - - - - - - - - - - - - - - - - - - - - - - - - - - - - - - - - - - - - 1.5.E 6.7.- - - - - - - - - - - - - - - - - - - 8.                                                                                                                                                                                        ",
"                                                                                                                                                                                          6 g - - - - - - - - - - - - - - - - - - - - - - - - - - - - - - - - - - - - - - - - - - - - 9.0.a.- - - - - - - - - - - - - - - - - - - - - b.3.                                                                                                                                                                                      ",
"                                                                                                                                                                                          c.- - - - - - - - - - - - - - - - - - - - - - - - - - - - - - - - - - - - - - - - - - - - - d.- - - - - - - - - - - - - - - - - - - - - - - - e.                                                                                                                                                                                      ",
"                                                                                                                                                                                          a - - - - - - - - - - - - - - - - - - - - - - - - - - - - - - - - - - - - - - - - - - - - - - - - - - - - - - - - - - - - - - - - - - - - - - f.g.                                                                                                                                                                                    ",
"                                                                                                                                                                                          h.- - - - - - - - - - - - - - - - - - - - - - - - - - - - - - - - - - - - - - - - - - - - - - - - - - - - - - - - - - - - - - - - - - - - - - - <                                                                                                                                                                                     ",
"                                                                                                                                                                                        i.- - - - - - - - - - - - - - - - - - - - - - - - - - - - - - - - - - - - - - - - - - - - - - - - - - - - - - - - - - - - - - - - - - - - - - - - j.                                                                                                                                                                                    ",
"                                                                                                                                                                                        k.- - - - - - - - - - - - - - - - - - - - - - - - - - - - - - - - - - - - - - - - - - - - - - - - - - - - - - - - - - - - - - - - - - - - - - - - - #.                                                                                                                                                                                  ",
"                                                                                                                                                                                        l.- - - - - - - - - - - - - - - - - - - - - - - - - - - - - - - - - - - - - - - - - - - - - - - - - - - - - - - - - - - - - - - - - - - - - - - - - m.                                                                                                                                                                                  ",
"                                                                                                                                                                                        ) - - - - - - - - - - - - - - - - - - - - - - - - - - - - - - - - - - - - - - - - - - - - - - - - - - - - - - - - - - - - - - - - - - - - - - - - - n.                                                                                                                                                                                  ",
"                                                                                                                                                                                        4 - - - - - - - - - - - - - - - - - - - - - - - - - - - - - - - - - - - - - - - - - - - - - - o./.).o.- - - - - - - - - - - - - - - - - - - - - - - g 6                                                                                                                                                                                 ",
"                                                                                                                                                                                        h.- - - - - - - - - - - o.- - - - - - - - - - - - - - - - - - - - - - - - - - - - - - - - - - p.q.r.a.q.o.- - - - - - - - - - - - - - - - - - - - - - +                                                                                                                                                                                 ",
"                                                                                                                                                                                        s.- - - - - - - - - - - t.p.G u./.- - - - - - - - - - - - - - - - - - - - - - - - - - - - - - t.x v.Q w.!.x.- - - - - - - - - - - - - - - - - - - - - @.                                                                                                                                                                                ",
"                                                                                                                                                                                      7 3 - - - - - - - - - - - - - - x V y./.- - - - - - - - - - - - - - - - - - - - - - - - - - - - - - - x y._.D M - - - - - - - - - - - - - - - - - - - - z.                                                                                                                                                                                ",
"                                                                                                                                                                                      A.- - - - - - - - - - - - - - - - o.y.(.B.- - - - - - - - - - - - - - - - - - - - - - - - - - - - - - - - T %.C.Q - - - - - - - - - - - - - - - - - - - D.                                                                                                                                                                                ",
"                                                                                                                                                                                      W - - - - - - - - - - - - - - - - - - T  .E.- - - - - - - - - - - - - - - - - - - - - r.F.^.G.^.!.H.- - - - B.<.I.E.- - - - - - - - - - - - - - - - - - J                                                                                                                                                                                 ",
"                                                                                                                                                                                      J.- - - - - - - - - - - - - - - - - - - r.K.1.- - - - - - - - - - - - - - - - - - Y &.L.M.N.O.P.Q.R.S.v.- - - 7.T.!.x - - - - - - - - - - - - - - - - - - U.                                                                                                                                                                              ",
"                                                                                                                                                                                      I - - - - - - - - - - V.W.X.Y.D Z.- - - - d.`.o.- - - - - - - - - - - - - - - B (. +.+M.++@+#+$+%+&+*+Q.G.o.- - x M B.t.- - - - - - - - - - - - - - - - - =+                                                                                                                                                                              ",
"                                                                                                                                                                                      -+- - - - - - - - ;+>+,+'+)+!+~+*+%.).- - - Z.p.- - - - - - - - - - - - - - 7.{+]+^+/+(+@+*+_+:+~+<+[+%+#+Y.B - - H.d.1.- - - - - - - - - - - - - - - - - }+                                                                                                                                                                              ",
"                                                                                                                                                                                      |+- - - - - - - u.M.<+'+1+2+3+4+5+6+7+x.- - t.1.- - - - - - - - - - - - - x S.8+ +.+9+R.0+5+a+4+!+!+,+:+%+b+{+o.- - 1.x.{.- - - - - - - - - - - - - - - - c+                                                                                                                                                                              ",
"                                                                                                                                                                                      -.- - - - - - >.d+$+~+'+e+2+3+4+f+#+(+g+H.- - B o.- - - - - - - - - - - t.0.7+h+i+j+N.Q.&+<+k+)+l+3+'+m+f+0+R.n+- - o.p.B - - - - - - - - - - - - - - - - o+                                                                                                                                                                              ",
"                                                                                                                                                                                      p+- - - - - - q+++0+[+k+)+3+r+,+:+b+N.L.Y.o.- - o.- - - - - - - - - - - s+E 7+]+b+t+u+v+w+x+y+z+A+2+3+k+:+$+P./+d.- - {.o.- - - - - - - - - - - - - - - - :.                                                                                                                                                                              ",
"                                                                                                                                                                                      }+- - - - - o.E B+Q.%+C+D+E+F+G+G+G+H+I+J+K+- - - - - - - - - - - - - *.L+M+1+N+O+G+G+G+G+G+G+G+G+P+Q+R+:+$+P.9+S+- - - - - - - - - - - - - - - - - - - - T+                                                                                                                                                                              ",
"                                                                                                                                                                                      U+- - - - - E.V+/+$+W+G+G+G+G+G+G+G+G+G+G+X+1.- - - - - - - - - - - - Y+Z+`+ @.@G+G+G+G+G+G+G+G+G+G+G+G++@3+R.@@#@d.- - - - - - - - - - - - - - - - - - - H                                                                                                                                                                               ",
"                                                                                                                                                                                      $@- - - - - q+]+%@&@G+G+G+G+G+G+G+G+G+G+G+G+*@- - - - - - - - - - - t.)+z+=@-@G+G+G+G+G+W+;@>@,@'@G+G+G+G+G+W+R.^+ .- - - - - - - - - - - - - - - - - - - )@                                                                                                                                                                              ",
"                                                                                                                                                                                      S - - - - - 0.b+!@G+G+&@~@6.{@]@^@G+G+G+G+G+/@t.- - - - - - - - - - y.(@x+_@&@G+G+G+&@:@'.- - - t.(.<@G+G+G+G+[@}@E - - - - - - - - - - - - - - - - - - - 8.                                                                                                                                                                              ",
"                                                                                                                                                                                      $@- - - - - 8+Q+^@G+F+|@- - - - _._@G+G+G+G+G+1@- - - - - - - - - -  .2@3@-@G+G+G+P+O - - - v.4@>.- u.5@G+G+G+G+!@6@`.- - - - - - - - - - - - - - - - - - 7@                                                                                                                                                                              ",
"                                                                                                                                                                                      8@- - - - - 9@0@G+G+a@- - ).b@c@o.d@&@G+G+G+G+..- - - - - - - - - - e@f@g@!@G+G+G+h@- - - - w.6.i@}.- G '@G+G+G+^@j@ .- - - - - - - - - - - - - - - - - - k@                                                                                                                                                                              ",
"                                                                                                                                                                                      q - - - - - &+-@G+^@+.- - l@m@:@n@{.o@G+G+G+G+p@- - - - - - B - - - q@r@_@P+G+G+s@1.- - - - /.6.&.t@u@- I.G+G+G+G+-@v@- - - - - - - - - - - - - - - - - - w                                                                                                                                                                               ",
"                                                                                                                                                                                      I - - - - - w@x@G+y@- - - - z@A@:@B@q.-@G+G+G+r@- - - u.V A u@_.C@o.D@E@0@G+G+G+F@- - - - - - H.{+G@H@+.- I@G+G+G+J@ +- - - - - - - - - - - - - - - - - - K@                                                                                                                                                                              ",
"                                                                                                                                                                                      L@- - - - - M@J@G+N@- - - - - O@P@n@o.Q@G+G+G+O+B t.q.4@v.`.Y !.R@b@_.X+S@G+G+G+T@- - - - - t.B q.&.t@ .- U@G+G+G+!@M@- - - - - - - - - - - - - - - - - - V@                                                                                                                                                                              ",
"                                                                                                                                                                                      #.- - - - - #@J@G+W@- - - - - - X@X@H.Y@G+G+G+O+Z@- - - - - p.d.Y `@s+x+H+G+G+G+ #- - - - - .#+#x x @#i@- F.G+G+G+F+##- - - - - - - - - - - - - - - - - - )                                                                                                                                                                               ",
"                                                                                                                                                                                      $#- - - - - %#x@G+&#- - - - - - *#*#p.=#G+G+G+.@7.- - - - - - - 7.-#|./+S@G+G+G+;#- - - - - >#/.t.- {.4@- =#G+G+G+F+,#- - - - - - - - - - - - - - - - - - `                                                                                                                                                                               ",
"                                                                                                                                                                                      [ - - - - - '#-@G+)#- - - - - - T !#t.1.G+G+G+~#- - - - - - - - - 1.M s+{#G+G+G+=#- - - - - - - - - - - - ]#G+G+G+O+^#- - - - - - - - - - - - - - - - - - /#                                                                                                                                                                              ",
"                                                                                                                                                                                      6 - - - - - (#0@G+_#- - - - - - ).>.- t.^@G+:#H.- - - <#[#}#|#1#2#- ;+V.@@3#G+G+4#- - - - - - - - - - - - 5#G+G+G+x@6#- - - - - - - - - - - - - - - - - - 7#                                                                                                                                                                              ",
"                                                                                                                                                                                      U.- - - - - 9.s@^@8#H.- - - - - - - - *.G+&@9#0#a#b#c#d#e#f#g#h#i#j#k#l#O _@G+G+m#- - - - - - - - - - - - v@G+G+G+S@i@- - - - - - - - - - - - - - - - - - z.                                                                                                                                                                              ",
"                                                                                                                                                                                      7 - - - - - M =@F+G+n#- - - - - - - - o#p#q#r#s#t#u#v#d#e#f#g#h#w#w#x#y#z#A#B#G+C#- - - - - - - - - - - - D#G+G+E#F#G#- - - - - - - - - - - - - - - - - - 1                                                                                                                                                                               ",
"                                                                                                                                                                                        J - - - - t.2@+@G+H#x.- - - - - - I#J#K#L#M#s#t#u#v#d#e#f#g#N#O#P#Q#y#R#S#T#U#G+B@- - - - - - - - - - V#^@G+G+x@{#x - - - - - - - - - - - - - - - - - - W#                                                                                                                                                                              ",
"                                                                                                                                                                                        j - - - - - @+ @P+G+X#o.- - - - Y#Z#`# $.$M#s#t#u#+$@$e#f#g##$$$%$&$*$=$S#-$;$>$,$).- - - - - - - - B J+G+G+E#'$)$- - - - - - - - - - - - - - - - - - - !$                                                                                                                                                                              ",
"                                                                                                                                                                                        ~$- - - - - D@{$-@G+G+]$o.- - ^$/$($`#_$:$M#s#t#u#+$@$e#f#g#h#<$[$}$|$1$S#-$;$2$3$4$5$- - - - - - p.]@G+G+^@+@=@D - - - - - - - - - - - - - - - - - - - ,                                                                                                                                                                               ",
"                                                                                                                                                                                        6$- - - - - d.A+7$O+G+G+t+8$9$0$a$($`#b$L#M#s#t#u#+$@$e#f#g#h#w#w#c$d$R#S#-$;$2$3$e$f$g$h$i$- /.(.j$G+G+G+x@7$!+>.- - - - - - - - - - - - - - - - - - - (                                                                                                                                                                               ",
"                                                                                                                                                                                        j.- - - - - - E E@_@!@G+k$l$m$0$a$($`#n$L#M#s#t#u#+$@$e#f#g#h#o$w#x#y#R#S#-$;$2$3$e$f$p$q$r$s$t$G+G+G+u$8# @r@A - - - - - - - - - - - - - - - - - - - - b.                                                                                                                                                                              ",
"                                                                                                                                                                                        ' - - - - - - ;+)+v$F#w$x$y$m$0$a$($`#z$L#M#s#t#u#+$@$e#f#g#h#o$w#x#y#R#S#-$;$2$3$e$f$p$q$A$B$C$D$E$F$G$g@E@H$- - - - - - - - - - - - - - - - - - - - - - r                                                                                                                                                                             ",
"                                                                                                                                                                                        s - - - - - - - }.I$J$K$L$y$m$0$a$($`#z$L#M#s#t#M$+$@$e#f#g#h#o$w#x#N$O$P$w#;$2$3$e$f$p$q$A$B$Q$R$S$T$U$V$W$X$- - - - - - - - - - - - - - - - - - - - - - W                                                                                                                                                                             ",
"                                                                                                                                                                                        /#- - - - - - - - Y$Z$`$L$y$m$0$a$($`#z$L#M#s#t#M$+$@$e#f#g#h#o$ %.%+%+%+%P$;$2$3$e$f$p$q$A$B$Q$R$S$T$@%#%$%%%&%2#- - - - - - - - - - - - - - - - - - - - *%                                                                                                                                                                            ",
"                                                                                                                                                                                        ;.- - - - - - - =%-%;%>%L$y$m$,%a$($`#z$L#M#s#t#M$+$@$'%f#g#)%!%~%+%+%+%+%{%;$2$3$e$f$p$q$A$B$Q$R$S$T$@%#%]%^%^%/%- - - - - - - - - - - - - - - - - - - - o+                                                                                                                                                                            ",
"                                                                                                                                                                                        (%- - - - - - _%:%<%;%>%L$y$m$,%a$($`#z$L#M#s#t#M$+$@$'%f#g#[%}%+%+%+%+%+%|%;$2$3$e$f$p$q$A$B$Q$R$S$T$@%#%1%1%2%3%4%- - - - - - - - - - - - - - - - - - - (%                                                                                                                                                                            ",
"                                                                                                                                                                                        T+- - - - - 5%6%7%<%;%>%L$y$m$,%a$($`#z$L#M#s#t#M$+$@$'%f#8%9%+%+%+%+%+%0%a%;$2$3$e$f$p$q$A$B$Q$R$S$T$@%b%c%s#d%e%f%- - - - - - - - - - - - - - - - - - - g%                                                                                                                                                                            ",
"                                                                                                                                                                                        h%- - - - - i%j%7%<%;%>%L$y$m$,%a$($`#z$L#M#s#t#M$+$@$'%f#k%+%+%+%+%+%+%l%-$;$2$3$e$f$p$q$A$B$Q$R$m%n%o%p%q%r%s%t%u%- - - - - - - - - - - - - - - - - - - v%                                                                                                                                                                            ",
"                                                                                                                                                                                        c+- - - - w%x%j%7%<%;%>%L$y$m$,%a$($`#z$L#M#s#t#M$+$@$'%y%+%+%+%+%+%+%z%A%-$;$2$3$e$f$p$q$A$B$Q$B%C%D%E%F%G%H%F%I%J%- - - - - - - - - - - - - - - - - - - $.K%                                                                                                                                                                          ",
"                                                                                                                                                                                        $@- - - - L%M%N%7%<%;%>%L$y$m$,%a$($`#z$L#M#s#t#M$+$@$'%O%+%+%+%+%+%+%P%a%-$;$2$3$e$f$p$q$A$B$Q%R%S%T%U%V%W%W%W%X%Y%- - - - - - - - - - - - - - - - - - - - U+                                                                                                                                                                          ",
"                                                                                                                                                                                        J.- - - - Z%M%N%7%`%;%>%L$y$m$,%a$($`#z$L#M#s#t#M$+$@$ &+%+%+%+%+%+%O$R#a%-$;$2$3$e$f$p$q$A$.&+&@&#&U%V%V%W%W%X%$&%&- - - - - - - - - - - - - - - - - - - - H                                                                                                                                                                           ",
"                                                                                                                                                                                        { - - - - &&M%N%7%*&;%>%L$y$m$,%=&($`#z$L#M#s#t#M$+$@$-&+%+%+%+%+%;&A%R#a%-$;$2$3$e$f$p$q$>&,&'&#&#&U%V%W%W%X%X%)&=%- - - - - - - - - - - - - - - - - - - - n.                                                                                                                                                                          ",
"                                                                                                                                                                                        g.- - - - !&M%N%7%*&;%>%L$y$m$,%=&($`#z$L#M#~&t#M$+$@${&+%+%+%+%]&!%y#R#a%-$;$2$3$e$f$^&/&(&_&#&#&U%V%W%W%:&X%<&[&}&- - - - - - - - - - - - - - - - - - - - $.6                                                                                                                                                                         ",
"                                                                                                                                                                                          J - - - |&1&N%7%*&;%2&L$y$m$,%=&($`#z$L#M#~&t#M$+$3&+%+%+%+%4&5&x#y#R#a%-$;$2$3$e$6&7&8&_&#&#&U%V%V%W%W%X%W%9&0&- - - - - - - - - - - - - - - - - - - - - - o+                                                                                                                                                                        ",
"                                                                                                                                                                                          > - - - a&b&c&d&e&;%2&L$y$m$,%=&($`#z$L#M#~&t#M$+$f&g&+%+%}%h&w#x#y#R#a%-$;$2$i&j&k&l&#&#&#&U%V%V%W%W%X%X%)&m&n&- - - - - - - - - o&D r.- - - - - - - - - - p&                                                                                                                                                                        ",
"                                                                                                                                                                                          v%- - - - q&r&s&t&u&v&L$y$m$,%=&($`#z$L#M#~&t#M$+$@$w&x&y&[%o$w#x#y#R#a%-$z&A&B&C&$&#&#&#&U%V%V%W%W%X%X%D&E&F&G&- - - - - - - - H&I&I&J&K&>.- - - - - - - - 3 .                                                                                                                                                                       ",
"                                                                                                                                                                                          L&- - - - - - M&N&O&P&Q&y$m$,%=&($`#z$L#M#~&t#M$+$@$R&S&T&)%o$w#x#y#R#U&V&W&X&Y&#&#&#&U%U%V%W%W%W%X%X%Z&`& *.*4@- - - - - - - - +*I&I&I&I&@*+.- - - - - - - - T+                                                                                                                                                                      ",
"                                                                                                                                                                                          7#- - - - - - {.#*$*%*&***=*,%=&($`#z$L#-*~&t#M$+$@$R&S&T&)%o$w#x#;*>*,*'*)*#&#&#&U%U%V%V%W%W%W%X%X%!*~*{*]*&#^*- - - - - - - - >./*I&I&I&I&I&(*G - - - - - - ,                                                                                                                                                                       ",
"                                                                                                                                                                                          k@- - - - - - _*:*<*[*%*}*|*1*2*($`#z$L#-*~&t#M$+$@$R&S&T&3*4*5*6*7*8*!*#&#&U%U%U%V%V%W%W%W%:&X%9*0*a*b*c*:*d*e*f*- - - - - - - - g*I&I&I&I&I&I&h*T.- - - - - - +                                                                                                                                                                     ",
"                                                                                                                                                                                          @.- - - - - - i*D#j*k*l*m*n*o*Z%p*q* $r*s*t*u*v*w*x*y*z*A*B*C*D*<&U%U%U%U%U%V%V%V%W%W%W%:&X%X%E*F*h@G*H*I*D#D#D#{@- - - - - - - - t.@*I&I&I&I&I&I&I&J*- - - - - K*                                                                                                                                                                    ",
"                                                                                                                                                                                          L*- - - - - - M*D#D#j*N*O*P*Q*R*S*T*U*V*V*V*W*X*Y*Z*`* =.=V%V%V%V%V%V%V%V%V%W%W%W%W%:&X%X%+=@=o@Q@d*D#D#D#D#D#D##=>.- - - - - - - - Y I&I&I&I&I&I&I&$=- - - - - 3 %=                                                                                                                                                                  ",
"                                                                                                                                                                                          @ - - - - - - 1@D#D#D#&=*===-=;=>=,='=)=!=~={={={={={=]=W%W%W%W%W%W%W%W%W%W%W%W%:&X%X%^=/=(=_=e*D#D#D#D#D#D#D#D#D#:=- - - - - - - - - <=I&I&I&I&I&I&I&p.- - - - - )                                                                                                                                                                   ",
"                                                                                                                                                                                          H - - - - - - 5#D#D#D#D#[=}=m*|=1=>=N%2={={={={={=3=4=X%:&:&W%W%W%W%W%:&:&X%X%X%X%<&5=6=7=8=D#D#D#D#D#D#D#D#D#D#D#9=- - - - - - - - - E.J&I&I&I&I&I&I&/.- - - - - R W                                                                                                                                                                 ",
"                                                                                                                                                                                          7@- - - - - - :=D#D#D#D#e*0=a=m*b=;=c=d=e=f=g=h=i=j=$&W%X%X%X%X%X%X%X%X%X%^=k=l=m=n=o=:*I*D#D#D#D#D#D#D#D#D#D#D#D#D#p=- - - - - - - - - q=I&I&I&I&I&r=- - - - - - - `                                                                                                                                                                 ",
"                                                                                                                                                                                          s=- - - - - - t=D#D#D#D#D#u=v=w=x=y=Q*z=A=B=C=D=E=F=G=H=I=l=!*D&D&!*@&J=K=L=M=N=O=P=]@D#D#D#D#D#D#D#D#Q=R=S=_#D#D#D#T=- - - - - - - - - t.U=I&I&I&I&V=- - - - - - - =.W=                                                                                                                                                              ",
"                                                                                                                                                                                        } X=- - - - - - Y=D#D#D#D#D#D#8=Z=O*`= -.-+-@->=d=#-C=$-%-&-E=*-*-*-=-&-%---C=;->-:*e*D#D#D#D#D#D#D#,-N+^@^@^@P+'-2@2@s@)-- - - - - - - - - t.q+H$/*F.- - - - - - - - - !-                                                                                                                                                              ",
"                                                                                                                                                                                        -.- - - - - - - ~-D#D#D#D#D#D#D#]@{-l*]-==^-b=/-1=(-_-:-d=<-B=[-[-B=}-d=|-1-2-3-4-D#D#D#D#D#D#D#D#:#u$^@^@^@^@^@^@^@^@^@]$- - - - - - - - - - - - - - - - - - - - - - - - U+                                                                                                                                                            ",
"                                                                                                                                                                                        )@- - - - - - - 8=S=D#D#D#D#D#D#D#5-6-7-]-]-]-m*P*b=8-/-+-;=1=9-9-1=;=0-a-b-#=D#D#D#D#D#D#D#D#_#x+^@^@^@^@^@^@^@^@^@^@^@8#c-- - - - - - - - - - - - - - - - - - - - - - - d-                                                                                                                                                            ",
"                                                                                                                                                                                      g.e-- - - - - - - r@w+D#D#D#D#D#D#D#D#d*f-g-h-]-]-]-]-`=i-j- - -^-k-l-m-n-]@D#D#D#D#D#D#D#D#D#C#W+^@^@^@^@^@^@^@^@^@^@^@^@^@o-- - - - - - - - - - - - - - - - - - - - - - - - p-                                                                                                                                                          ",
"                                                                                                                                                                                      q-- - - - - - - w.^@u$r-D#D#D#D#D#D#D#D#D#s-t-u-v-w-x-y-z-A-B-C-D-E-F-I*D#D#D#D#D#D#D#D#D#D#G-g@^@^@^@^@^@^@^@^@^@^@^@^@^@^@8#_*- - - - - - - - - - - - - - - - - - - - - - - R 3.                                                                                                                                                        ",
"                                                                                                                                                                                    [ H-- - - - - - - ]$^@^@I-D#D#D#D#D#D#D#D#D#D#D#D#I*J-H*X#X#]@K-D#D#D#D#D#D#D#D#D#D#D#D#D#D#L-8#^@^@^@^@^@^@^@^@^@^@^@^@^@^@^@^@o-- - - - - - - - - - - - - - - - - - - - - - - - M-                                                                                                                                                        ",
"                                                                                                                                                                                    N-- - - - - - - ;+_@^@^@u$L-D#D#D#D#D#D#D#D#D#D#D#D#D#D#D#D#D#D#D#D#D#D#D#D#D#D#D#D#D#D#C#2@u$^@^@^@^@^@^@^@^@^@^@^@^@^@^@^@^@^@8#c-- - - - - - - - - - - - - - - - - - - - - - - - O-                                                                                                                                                      ",
"                                                                                                                                                                                  P-3 - - - - - - - Q-^@^@^@^@R-C#D#D#D#D#D#D#D#D#D#D#D#D#D#D#D#D#D#D#D#D#D#D#D#D#D#D#D#D#S-G$^@^@^@^@^@^@^@^@^@^@^@^@^@^@^@^@^@^@^@^@M+- - - - - - - - - - - - - - - - - - - - - - - - = U.                                                                                                                                                    ",
"                                                                                                                                                                                c+- - - - - - - - T-8#^@^@^@^@^@I-D#D#D#D#D#D#D#D#D#D#D#D#D#D#D#D#D#D#D#D#D#D#D#D#D#D#r-U-^@^@^@^@^@^@^@^@^@^@^@^@^@^@^@^@^@^@^@^@^@^@8#c-- - - - - - - - - - - - - - - - - - - - - - - - V-                                                                                                                                                    ",
"                                                                                                                                                                              q =.- ).- - - - - t.r-^@^@^@^@^@^@^@:#D#D#D#D#D#D#D#D#D#D#D#D#D#D#D#D#D#D#D#D#D#D#D#W-z+&@^@^@^@^@^@^@^@^@^@^@^@^@^@^@^@^@^@^@^@^@^@^@^@^@M+- - - - - - - - - - - - - - - - - - - - - - - - - +                                                                                                                                                   ",
"                                                                                                                                                                            W 2.- - B.- - - - - X-^@^@^@^@^@^@^@^@u$Y-D#D#D#D#D#D#D#D#D#D#D#D#D#D#D#D#D#D#D#D#C#A+F+^@^@^@^@^@^@^@^@^@^@^@^@^@^@^@^@^@^@^@^@^@^@^@^@^@^@8#c-- - - - - - - - - - - - - - - - - - - - - - - - f.[                                                                                                                                                 ",
"                                                                                                                                                                          6 c - - t.u.- - - - =#8#^@^@^@^@^@^@^@^@^@P+Z-D#D#D#D#D#D#D#D#D#D#D#D#D#D#D#D#D#D#Y--@^@^@^@^@^@^@^@^@^@^@^@^@^@^@^@^@^@^@^@^@^@^@^@^@^@^@^@^@^@o@- - - - - - - - - - - - - - - - - - - - - - - - - $ 7                                                                                                                                               ",
"                                                                                                                                                                        r `-- - - ).t.- - - >. ;^@^@^@^@^@^@^@^@^@^@^@u$:#D#D#D#D#D#D#D#D#D#D#D#D#D#D#D# ;N+^@^@^@^@^@^@^@^@^@^@^@^@^@^@^@^@^@^@^@^@^@^@^@^@^@^@^@^@^@^@^@N+H.- - - - - - - - - - - - - - - - - - - - - - - - - )@                                                                                                                                              ",
"                                                                                                                                                                      } o - - - - - - - - - a@^@^@^@^@^@^@^@^@^@^@^@^@^@^@x+C#D#D#D#D#D#D#D#D#D#D#D#C#v+u$^@^@^@^@^@^@^@^@^@^@^@^@^@^@^@^@^@^@^@^@^@^@^@^@^@^@^@^@^@^@^@^@^@.;- - - - - - - - - - - - - - - - - - - - - - - - - 3 +;                                                                                                                                            ",
"                                                                                                                                                                      @;- - - - - - - - - T.&@^@^@^@^@^@^@^@^@^@^@^@^@^@^@^@G$#;D#D#D#D#D#D#D#D#D##;H+^@^@^@^@^@^@^@^@^@^@^@^@^@^@^@^@^@^@^@^@^@^@^@^@^@^@^@^@^@^@^@^@^@^@^@S-- - - - - - - - - - - - - - - - - - - - - - - - - - j $#                                                                                                                                          ",
"                                                                                                                                                                    q-- - - - - - - - - H.$;^@^@^@^@^@^@^@^@^@^@^@^@^@^@^@^@^@^@%;&;C#D#D#D#_#R=Q+^@^@^@^@^@^@^@^@^@^@^@^@^@^@^@^@^@^@^@^@^@^@^@^@^@^@^@^@^@^@^@^@^@^@^@^@^@^@1@- - - - - - - - - - - - - - - - - - - - - - - - - - N g.                                                                                                                                        ",
"                                                                                                                                                                  ~ $.- - - - - - - - - *;^@^@^@^@^@^@^@^@^@^@^@^@^@^@^@^@^@^@^@^@^@F+g@U-Q+!@^@^@^@^@^@^@^@^@^@^@^@^@^@^@^@^@^@^@^@^@^@^@^@^@^@^@^@^@^@^@^@^@^@^@^@^@^@^@^@^@=;- - - - - - - - - - - - - - - - - - - - - - - - - - - /#                                                                                                                                        ",
"                                                                                                                                                                q b.- - - - - - - - - V.F+^@^@^@^@^@^@^@^@^@^@^@^@^@^@^@^@^@^@^@^@^@^@^@^@^@^@^@^@^@^@^@^@^@^@^@^@^@^@^@^@^@^@^@^@^@^@^@^@^@^@^@^@^@^@^@^@^@^@^@^@^@^@^@^@^@^@w+>.- - - - - - - - - - - - - - - - - - - - - - - - - - - m.                                                                                                                                      ",
"                                                                                                                                                              W=j - - - - - - - - - t.S-^@^@^@^@^@^@^@^@^@^@^@^@^@^@^@^@^@^@^@^@^@^@^@^@^@^@^@^@^@^@^@^@^@^@^@^@^@^@^@^@^@^@^@^@^@^@^@^@^@^@^@^@^@^@^@^@^@^@^@^@^@^@^@^@^@^@^@H+-;- - - - - - - - - - - - - - - - - - - - - - - - - - - $.+;                                                                                                                                    ",
"                                                                                                                                                            A.& - - - - - - - - - - ;;^@^@^@^@^@^@^@^@^@^@^@^@^@^@^@^@^@^@^@^@^@^@^@^@^@^@^@^@^@^@^@^@^@^@^@^@^@^@^@^@^@^@^@^@^@^@^@^@^@^@^@^@^@^@^@^@^@^@^@^@^@^@^@^@^@^@^@[@_@>;- - - - - - - - - - - - - - - - - - - - - - - - - - - - X U+                                                                                                                                  ",
"                                                                                                                                                          7 ,;- - - - - - - - - - ).2@^@^@^@^@^@^@^@^@^@^@^@^@^@^@^@^@^@^@^@^@^@^@^@^@^@^@^@^@^@^@^@^@^@^@^@^@^@^@^@^@^@^@^@^@^@^@^@^@^@^@^@^@^@^@^@^@^@^@^@^@^@^@^@^@^@^@^@_@g@';>.- - - - - - - - - - - - - - - - - - - - - - - - - - - - k -+                                                                                                                                ",
"                                                                                                                                                          V@- - - - - - - - - - - );^@^@^@^@^@^@^@^@^@^@^@^@^@^@^@^@^@^@^@^@^@^@^@^@^@^@^@^@^@^@^@^@^@^@^@^@^@^@^@^@^@^@^@^@^@^@^@^@^@^@^@^@^@^@^@^@^@^@^@^@^@^@^@^@^@^@^@^@W+';^@1@- - - - - - - - - - - - - - - - - - - - - - - - - - - - - _ #.                                                                                                                              ",
"                                                                                                                                                        m.- - - - - - - - - - - {.y+^@^@^@^@^@^@^@^@^@^@^@^@^@^@^@^@^@^@^@^@^@^@^@^@u$^@^@^@^@^@^@^@^@^@^@^@^@^@^@^@^@^@^@^@^@^@^@^@^@^@^@^@^@^@^@^@^@^@^@^@^@^@^@^@^@^@^@8#x+W+^@^*- - - - - - - - - - - - - - - - - - - - - - - - - - - - - - !;[                                                                                                                             ",
"                                                                                                                                                      | $.- - - - - - - - - - - ~;^@^@^@^@^@^@^@^@^@^@^@^@^@^@^@^@^@^@^@^@^@^@^@^@^@&@u$^@^@^@^@^@^@^@^@^@^@^@^@^@^@^@^@^@^@^@^@^@^@^@^@^@^@^@^@^@^@^@^@^@^@^@^@^@^@^@^@^@%;x+x+^@d*- - - - - - - - - - - - - - - - - - - - - - - - - - - - - - - {;].                                                                                                                          ",
"                                                                                                                                                    L@];- - - - - - - - - - - - ^;^@^@^@^@^@^@^@^@^@^@^@^@^@^@^@^@^@^@^@^@^@^@^@^@^@!@&@^@^@^@^@^@^@^@^@^@^@^@^@^@^@^@^@^@^@^@^@^@^@^@^@^@^@^@^@^@^@^@^@^@^@^@^@^@^@^@^@H+x+x+x+F+8#'.- - - - - - - - - - - - - - - - - - - - - - - - - - - - - - - /;r                                                                                                                         ",
"                                                                                                                                                  K%% - - - - - - - - - - - - *.8#^@^@^@^@^@^@^@^@^@^@^@^@^@^@^@^@^@^@^@^@^@^@^@^@^@-@8#^@^@^@^@^@^@^@^@^@^@^@^@^@^@^@^@^@^@^@^@^@^@^@^@^@^@^@^@^@^@^@^@^@^@^@^@^@^@^@!@x+x+x+x+8#^@G#- - - - - - - - - - - - - - - - - - - - - - - - - - - - - - - - /#                                                                                                                        ",
"                                                                                                                                                  / - - - - - - - - - - - - - X@F+^@^@^@^@^@^@^@^@^@^@^@^@^@^@^@^@^@^@^@^@^@^@^@^@u$R-'$F+^@^@^@^@^@^@^@^@^@^@^@^@^@^@^@^@^@^@^@^@^@^@^@^@^@^@^@^@^@^@^@^@^@^@^@^@^@.@(;x+x+x+x+R-^@_;- - - - - - - - - - - - - - - - - - - - - - - - - - - - - - - - - t                                                                                                                       ",
"                                                                                                                                                ^ - - - - - - - - - - - - - - :;_@^@^@^@^@^@^@^@^@^@^@^@^@^@^@^@^@^@^@^@^@^@^@^@^@8#'$'$R-P+^@^@^@^@^@^@^@^@^@^@^@^@^@^@^@^@^@^@^@^@^@^@^@^@^@^@^@^@^@^@^@^@^@^@u$_@x+x+x+x+x+x+Q+^@<;- - - - - - - - - - - - - - - - - - - - - - - - - - - - - - - - - J -+                                                                                                                    ",
"                                                                                                                                              $#f.- - - - - - - - - - - - - - [;v+^@^@^@^@^@^@^@^@^@^@^@^@^@^@^@^@^@^@^@^@^@^@&@-@'$'$'$'$R-F+^@^@^@^@^@^@^@^@^@^@^@^@^@^@^@^@^@^@^@^@^@^@^@^@^@^@^@^@^@^@^@&@s@I-z+D+I-r@x+x+x+w+^@Y-- - - - - - - - - - - - - - - - - - - - - - - - - - - - - - - - - - & K%                                                                                                                  ",
"                                                                                                                                              L&- - - - - - - - - - - - - - - };|;H+^@^@^@^@^@^@^@^@^@^@^@^@^@^@^@^@^@^@P+.@H+'$'$'$'$'$'$'$'$H+F+u$^@^@^@^@^@^@^@^@^@^@^@^@^@^@^@^@^@^@^@^@^@^@&@[@G$N+%;I-:#:#y@A+$;2@z+I-y+x+x+&@F+/.- - - - - - - - - - - - - - - - - - - - - - - - - - - - - - - - - - 1;                                                                                                                  ",
"                                                                                                                                            2;- - - - - - - - - - - - - - - l@3;Z-y@-@^@^@^@^@^@^@^@^@^@^@^@^@^@^@^@F+[@H+R-'$'$'$'$'$'$'$'$'$R-8#!@u$^@u$&@.@H+'$_@'$_@N+g@Q+';U-W+x+I-v+A+4;Z-3;3;3;5;5;5;Z-|;j$4;:#y@A+2@z+I-r@H+^@|.- - - - - - - - - - - - - - - - - - - - - - - - - - - - - - - - - - g p+                                                                                                                ",
"                                                                                                                                          U.> - - - - - - - - - - - - - - - 6;&;5;|;4;r@N+[@F+u$^@^@^@u$u$P+&@F+&@P+u$^@^@^@F+'$s@N+N+N+s@'$[@u$^@^@^@^@^@^@^@^@^@F+8#_@';x+2@4;j$Z-5;Y-&;&;R=S-S-#;S-S-S-R=&;Y-3;5;|;u+4;y@A+2@z+U-^@A+4@- - - - - - - - - - - - - - - - - - - - - - - - - - - - - - - - - - {;7                                                                                                               ",
"                                                                                                                                          P-- - - - - - - - - - - - - - - - Y R=3;Z-u+:#A+2@D+y+w+U-';g@H+!@P+^@^@^@^@^@^@^@^@&@Q+';';';Q+!@^@^@^@^@^@^@^@^@^@^@^@^@^@^@^@^@^@P+8#N+W+v+|;,-S=S= ; ; ;S=S=L-,-#;S-&;Y-5;|;u+:#7;$;z+8#^@S=1.- - - - - - - - - - - - - - - - - - - - - - - - - - - - - - - - - - m.                                                                                                              ",
"                                                                                                                                        n b.- - - - - - - - - - - - - - - - p=R=3;Z-u+:#A+2@D+y+(;g@8#u$^@^@^@^@^@^@^@^@^@^@^@^@'$w+w+U-!@^@^@^@^@^@^@^@^@^@^@^@^@^@^@^@^@^@^@^@^@^@^@^@^@P+G$U-$;R=Q=Q=};};8;9;S=L-#;R=Y-5;|;4;y@$;(;^@^@8=t.- - - - - o.7.- - - - - - - - - - - - - - - - - - - - - - - - - - f.A.                                                                                                            ",
"                                                                                                                                        7@- - - - - - - - - - - - - - - - - E.R=3;Z-u+:#A+2@I-N+F+^@^@^@^@^@^@^@^@^@^@^@^@^@^@^@.@r@y+G$^@^@^@^@^@^@^@^@^@^@^@^@^@^@^@^@^@^@^@^@^@^@^@^@^@^@^@^@^@^@!@w+5;0;0;r-};9; ;L-#;&;3;|;u+y@A+_@^@^@a;- - - - - - >.y.H&- - - - - - - - - - - - - - - - - - - - - - - - - ;.                                                                                                            ",
"                                                                                                                                      U.b.- - - - - - - - - - - - - - - - - T R=3;Z-u+:#v+_@P+^@^@^@^@^@^@^@^@^@^@^@^@^@^@^@^@^@P+z+w+^@^@^@^@^@^@^@^@^@^@^@^@^@^@^@^@^@^@^@^@^@^@^@^@^@^@^@^@^@^@^@^@^@^@[@D+ ;G-r-};9;S=#;R=3;Z-u+y@2@!@^@P+u@- - - - - - - i*q=d.- - - - - - - - - - - - - - - - - - - - - - - $.b                                                                                                           ",
"                                                                                                                                      b;- - - - - - - - - - - - - - - - - o.c;&;5;|;y@g@u$^@^@^@^@^@^@^@^@^@^@^@^@^@^@^@^@^@^@^@^@2@G$^@^@^@^@^@^@^@^@^@^@^@^@^@^@^@^@^@^@^@^@^@^@^@^@^@^@^@^@^@^@^@^@^@^@^@^@^@N+u+Q=Q=8; ;,-R=Y-Z-u+y@(;^@^@%;c-- - - - - - - /.d;<.1.- - - - - - - - - - - - - - - - - - - - - - V-                                                                                                          ",
"                                                                                                                                      Z - - - - - - - - - t.v.- - - - - -  .R=Y-Z-x+&@^@^@^@^@^@^@^@^@^@^@^@^@^@^@^@^@^@^@^@^@^@^@I-^@^@^@^@^@^@^@^@^@^@^@^@^@^@^@^@^@^@^@^@^@^@^@^@^@^@^@^@^@^@^@^@^@^@^@^@^@^@^@^@!@D+ ;8; ;,-R=3;|;4;7;N+^@^@K-- - - - - - - - - e;f;o&t.- - - - - - - - - - - - - - - - - - - - - -+                                                                                                        ",
"                                                                                                                                    #.- - - - - - - - - - _.l@- - - - - G W-Y-:#G$^@^@^@^@^@^@^@^@^@^@^@^@^@^@^@^@^@^@^@^@^@^@^@^@N+^@^@^@^@^@^@^@^@^@^@^@^@^@^@^@^@^@^@^@^@^@^@^@^@^@^@^@^@^@^@^@^@^@^@^@^@^@^@^@^@^@^@&@D+9;S=#;&;5;j$:#$;[@^@^@g;- - - - - - - - - {.F.h;4@- - - - - - - - - - - - - - - - - - - - s                                                                                                         ",
"                                                                                                                                    @ - - - - - - - - - !.-#- - - - - - &#Y-v+&@^@^@^@^@^@^@^@^@^@^@^@^@^@^@^@^@^@^@^@^@^@^@^@^@^@[@^@^@^@^@^@^@^@^@^@^@^@^@^@^@^@^@^@^@^@^@^@^@^@^@^@^@^@^@^@^@^@^@^@^@^@^@^@^@^@^@^@^@^@^@-@5;L-S-Y-Z-4;7;I-P+^@U-G - - - - - - - - - - `.$=T.- - - - - - - - - - - - - - - - - - - 3 e                                                                                                       ",
"                                                                                                                                    /;- - - - - - - - i;R@- - - - - - |.3;x+u$^@^@^@^@^@^@^@^@^@^@^@^@^@^@^@^@^@^@^@^@^@^@^@^@^@^@P+^@^@^@^@^@^@^@^@^@^@^@^@^@^@^@^@^@^@^@^@^@^@^@^@^@^@^@^@^@^@^@^@^@^@^@^@^@^@^@^@^@^@^@^@^@u$I-#;&;5;j$y@$;'-^@^@)#- - - - - - - - - - - p.<=j;>.- - - - - - - - - - - - - - - - - - 7#                                                                                                      ",
"                                                                                                                                  U.R - - - - - - - Y K+{.- - - - - {.N@'-^@^@^@^@^@^@^@^@^@^@^@^@^@^@^@^@^@^@^@^@^@^@^@^@^@^@^@^@^@^@^@^@^@^@^@^@^@^@^@^@^@^@^@^@^@^@^@^@^@^@^@^@^@^@^@^@^@^@^@^@^@^@^@^@^@^@^@^@^@^@^@^@^@^@^@^@Q+&;3;|;4;A+v+8#^@&@=#- - - - - - - - - - - >.U=q@B - - - - - - - - - - - - - - - - - R [                                                                                                     ",
"                                                                                                                                  +;- - - - - - - u.H$4@- - - - - - ;;g@^@^@^@^@^@^@^@^@^@^@^@^@^@^@^@^@^@^@^@^@^@^@^@^@^@^@^@^@^@^@^@^@^@^@^@^@^@^@^@^@^@^@^@^@^@^@^@^@^@^@^@^@^@^@^@^@^@^@^@^@^@^@^@^@^@^@^@^@^@^@^@^@^@^@^@^@^@^@_@5;|;4;7;v+x+^@^@k;- - - - - - - - - - - - {.l;C.B - - - - - - - - - - - - - - - - - m                                                                                                     ",
"                                                                                                                                  m;- - - - - - {.q@-;- - - - - - *.n;^@^@^@^@^@^@^@^@^@^@^@^@^@^@^@^@^@^@^@^@^@^@^@^@^@^@^@^@^@^@^@^@^@^@^@^@^@^@^@^@^@^@^@^@^@^@^@^@^@^@^@^@^@^@^@^@^@^@^@^@^@^@^@^@^@^@^@^@^@^@^@^@^@^@^@^@^@^@^@^@H+u+4;7;2@I--@^@u$o;- - - - - - - - - - - - ).p;U=o.- - - - - - - - - - - - - - - - _ r                                                                                                   ",
"                                                                                                                                  q;- - - - - - R@S.).- - - - - - r;^@^@^@^@^@^@^@^@^@^@^@^@^@^@^@^@^@^@^@^@^@^@^@^@^@^@^@^@^@^@^@^@^@^@^@^@^@^@^@^@^@^@^@^@^@^@^@^@^@^@^@^@^@^@^@^@^@^@^@^@^@^@^@^@^@^@^@^@^@^@^@^@^@^@^@^@^@^@^@^@^@^@8#7;y@2@I-Q+^@^@s;- - - - - - H.T.x - - - - l@t;u;- - - - - - - - - - - - - - - - - v;                                                                                                  ",
"                                                                                                                                { - - - - - - r.w;M*- - - - - - 4@H+^@^@^@^@^@^@^@^@^@^@^@^@^@^@^@^@^@^@^@^@^@^@^@^@^@^@^@^@^@^@^@^@^@^@^@^@^@^@^@^@^@^@^@^@^@^@^@^@^@^@^@^@^@^@^@^@^@^@^@^@^@^@^@^@^@^@^@^@^@^@^@^@^@^@^@^@^@^@^@^@^@^@^@.@v+2@I-w+^@^@P+O@- - - - - - x;@#r.- - - - Q J&y;- - - - - - - - - - - - - - - - W#                                                                                                  ",
"                                                                                                                                8 - - - - - - T@K t.- - - - - - =;^@^@^@^@^@^@^@^@^@^@^@^@^@^@^@^@^@^@^@^@^@^@^@^@^@^@^@^@^@^@^@^@^@^@^@^@^@^@^@^@^@^@^@^@^@^@^@^@^@^@^@^@^@^@^@^@^@^@^@^@^@^@^@^@^@^@^@^@^@^@^@^@^@^@^@^@^@^@^@^@^@^@^@^@^@!@y+I-x+&@^@^@M+- - - - - - }.K+,.i*- - - - U=z;p.- - - - - - - - - - - - - - - g $#                                                                                                ",
"                                                                                                                                u - - - - - z@L Q - - - - - - A;!@^@^@^@^@^@^@^@^@^@^@^@^@^@^@^@^@^@^@^@^@^@^@^@^@^@^@^@^@^@^@^@^@^@^@^@^@^@^@^@^@^@^@^@^@^@^@^@^@^@^@^@^@^@^@^@^@^@^@^@^@^@^@^@^@^@^@^@^@^@^@^@^@^@^@^@^@^@^@^@^@^@^@^@^@^@^@&@%;x+!@^@^@'-/.- - - - - B;K+K+K+i;- - - *.C;O - - - - - - - - - - - - - - - - D;                                                                                                ",
"                                                                                                                              g.b.- - - - - D@E;o.- - - - - - ~@^@^@^@^@^@^@^@^@^@^@^@^@^@^@^@^@^@^@^@^@^@^@^@^@^@^@^@^@^@^@^@^@^@^@^@^@^@^@^@^@^@^@^@^@^@^@^@^@^@^@^@^@^@^@^@^@^@^@^@^@^@^@^@^@^@^@^@^@^@^@^@^@^@^@^@^@^@^@^@^@^@^@^@^@^@^@^@^@^@s@.@^@^@^@F;- - - - {.<.K+K+K+K+a.- - - G;H;d.- - - - - - - - - - - - - - - %                                                                                                 ",
"                                                                                                                              I;- - - - - +.L J;- - - - - - d.-@^@^@^@^@^@^@^@^@^@^@^@^@^@^@^@^@^@^@^@^@^@^@^@^@^@^@^@^@^@^@^@^@^@^@^@^@^@^@^@^@^@^@^@^@^@^@^@^@^@^@^@^@^@^@^@^@^@^@^@^@^@^@^@^@^@^@^@^@^@^@^@^@^@^@^@^@^@^@^@^@^@^@^@^@^@^@^@^@^@^@u$^@^@^@K;- - - - !.K+K+K+K+K+@#p.- - x C;L;- - - - - - - - - - - - - - - - -+                                                                                              ",
"                                                                                                                              7#- - - - -  .S.{.- - - - - - ~-^@^@^@^@^@^@^@^@^@^@^@^@^@^@^@^@^@^@^@^@^@^@^@^@^@^@^@^@^@^@&@^@^@^@^@^@^@^@^@^@^@^@^@^@^@^@^@^@^@^@^@^@^@^@^@^@^@^@^@^@^@^@^@^@^@^@^@^@^@^@^@^@^@^@^@^@^@^@^@^@^@^@^@^@^@^@^@^@^@^@^@^@^@^@^@G$'.- - ;+i@K+K+K+K+K+K+J;- - - M;H;N;- - - - - - - - - - - - - - - 8.                                                                                              ",
"                                                                                                                            U.b.- - - - 7.[.O;- - - - - - 1.g@^@^@^@^@^@^@^@^@^@^@^@^@^@^@^@^@^@^@^@^@^@^@^@^@^@^@^@^@^@^@H+^@^@^@^@^@^@^@^@^@^@^@^@^@^@^@^@^@^@^@^@^@^@^@^@^@^@^@^@^@^@^@^@^@^@^@^@^@^@^@^@^@^@^@^@^@^@^@^@^@^@^@^@^@^@^@^@^@^@^@^@^@^@^@^@^@~;- - ~;K+K+K+K+K+K+K+V - - - E.I&P;- - - - - - - - - - - - - - - ~$                                                                                              ",
"                                                                                                                            l - - - - - T.Q;).- - - - - - R;^@^@^@^@^@^@^@^@^@^@^@^@^@^@^@^@^@^@^@^@^@^@^@^@^@^@^@^@^@^@^@g@^@^@^@^@^@^@^@^@^@^@^@^@^@^@^@^@^@^@^@^@^@^@^@^@^@^@^@^@^@^@^@^@^@^@^@^@^@^@^@^@^@^@^@^@^@^@^@^@^@^@^@^@^@^@^@^@^@^@^@^@^@^@^@^@^@S;- o.%.e@T;}.`.U;}.y.t.- - - - V;W;o.- - - - - - - - - - - - - - - I                                                                                             ",
"                                                                                                                            X;- - - - - Y+q+- - - - - - - L-^@^@^@^@^@^@^@^@^@^@^@^@^@^@^@^@^@^@^@^@^@^@^@^@^@^@^@^@^@^@^@w+^@^@^@^@^@^@^@^@^@^@^@^@^@^@^@^@^@^@^@^@^@^@^@^@^@^@^@^@^@^@^@^@^@^@^@^@^@^@^@^@^@^@^@^@^@^@^@^@^@^@^@^@^@^@^@^@^@^@^@^@^@^@^@^@^@D+- - >.o.- - - - - - - - - - - G;I&+.- - - - - - - - - - - - - - - m                                                                                             ",
"                                                                                                                          I - - - - - `.&.H.- - - - - - M*^@^@^@^@^@^@^@^@^@^@^@^@^@^@^@^@^@^@^@^@^@^@^@^@^@^@^@^@^@^@^@&@y+^@^@^@^@^@^@^@^@^@^@^@^@^@^@^@^@^@^@^@^@^@^@^@^@^@^@^@^@^@^@^@^@^@^@^@^@^@^@^@^@^@^@^@^@^@^@^@^@^@^@^@^@^@^@^@^@^@^@^@^@^@^@^@^@^@^@Y;- - - - - - - - - - - - - - -#I&-;- - - - - - - - - - - - - - - 6$                                                                                            ",
"                                                                                                                          ` - - - - - n+s+- - - - - - - Z;^@^@^@^@^@^@^@^@^@^@^@^@^@^@^@^@^@^@^@^@^@^@^@^@^@^@^@^@^@^@^@-@y+u$^@^@^@^@^@^@^@^@^@^@^@^@^@^@^@^@^@^@^@^@^@^@^@^@^@^@^@^@^@^@^@^@^@^@^@^@^@^@^@^@^@^@^@^@^@^@^@^@^@^@^@^@^@^@^@^@^@^@^@^@^@^@^@^@^@{@- - - - - - - - - - - - - - >.`;D@- - - - - - - - - - - - - - - - W=                                                                                          ",
"                                                                                                                        3.0 - - - - '.~.7.- - - - - - 1._@^@^@^@^@^@^@^@^@^@^@^@^@^@^@^@^@^@^@^@^@^@^@^@^@^@^@^@^@^@^@^@s@y+&@^@^@^@^@^@^@^@^@^@^@^@^@^@^@^@^@^@^@^@^@^@^@^@^@^@^@^@^@^@^@^@^@^@^@^@^@^@^@^@^@^@^@^@^@^@^@^@^@^@^@^@^@^@^@^@^@^@^@^@^@^@^@^@^@^@S;- - - - - - - - - - - - - - - r=t;- - - - - - - - - - - - - - - - :.                                                                                          ",
"                                                                                                                        @.- - - - - }.<.- - - - - - - R;^@^@^@^@^@^@^@^@^@^@^@^@^@^@^@^@^@^@^@^@^@^@^@^@^@^@^@^@^@^@^@^@'-y+F+^@^@^@^@^@^@^@^@^@^@^@^@^@^@^@^@^@^@^@^@^@^@^@^@^@^@^@^@^@^@^@^@^@^@^@^@^@^@^@^@^@^@^@^@^@^@^@^@^@^@^@^@^@^@^@^@^@^@^@^@^@^@^@^@^@};- - - - - - - - - - - - - - - (.I&x - - - - - - - - - - - - - - - V-                                                                                          ",
"                                                                                                                      r H-- - - - - D@`.- - - - - - - 0;^@^@^@^@^@^@^@^@^@^@^@^@^@^@^@^@^@^@^@^@^@^@^@^@^@^@^@^@^@^@^@^@U-y+F+^@^@^@^@^@^@^@^@^@^@^@^@^@^@^@^@^@^@^@^@^@^@^@^@^@^@^@^@^@^@^@^@^@^@^@^@^@^@^@^@^@^@^@^@^@^@^@^@^@^@^@^@^@^@^@^@^@^@^@^@^@^@^@^@^@H+{.- - - - - - - - - - - - - - G;I&e;- - - - - - - - - - - - - - - s.7                                                                                         ",
"                                                                                                                      ^ - - - - - d.K - - - - - - - 4@P+^@^@^@^@^@^@^@^@^@^@^@^@^@^@^@^@^@^@^@^@^@^@^@^@^@^@^@^@^@^@^@^@x+y+&@^@^@^@^@^@^@^@^@^@^@^@^@^@^@^@^@^@^@^@^@^@^@^@^@^@^@^@^@^@^@^@^@^@^@^@^@^@^@^@^@^@^@^@^@^@^@^@^@^@^@^@^@^@^@^@^@^@^@^@^@^@^@^@^@^@^@i;- - - - - - - - - - - - - - q+I&V - - - - - - - - - - - - - - - - -.                                                                                        ",
"                                                                                                                       >- - - - - .>|.- - - - - - - Y=^@^@^@^@^@^@^@^@^@^@^@^@^@^@^@^@^@^@^@^@^@^@^@^@^@^@^@^@^@^@^@^@P+y+y+&@^@^@^@^@^@^@^@^@^@^@^@^@^@^@^@^@^@^@^@^@^@^@^@^@^@^@^@^@^@^@^@^@^@^@^@^@^@^@^@^@^@^@^@^@^@^@^@^@^@^@^@^@^@^@^@^@^@^@^@^@^@^@^@^@^@^@+>- - - - - - - - - - - - - - J*I&@>- - - - - - - - - - - - - - - - !                                                                                         ",
"                                                                                                                    #>- - - - - >.Q;q.- - - - - - - u=^@^@^@^@^@^@^@^@^@^@^@^@^@^@^@^@^@^@^@^@^@^@^@^@^@^@^@^@^@^@^@^@.@y+y+P+^@^@^@^@^@^@^@^@^@^@^@^@^@^@^@^@^@^@^@^@^@^@^@^@^@^@^@^@^@^@^@^@^@^@^@^@^@^@^@^@^@^@^@^@^@^@^@^@^@^@^@^@^@^@^@^@^@^@^@^@^@^@^@^@^@^@m@- - - - - - - - - - - - - - Y I&u@- - - - - - - - - - - - - - - - ,;                                                                                        ",
"                                                                                                                    N - - - - - Q 0.- - - - - - - 7.[@^@^@^@^@^@^@^@^@^@^@^@^@^@^@^@^@^@^@^@^@^@^@^@^@^@^@^@^@^@^@^@^@-@y+y+u$^@^@^@^@^@^@^@^@^@^@^@^@^@^@^@^@^@^@^@^@^@^@^@^@^@^@^@^@^@^@^@^@^@^@^@^@^@^@^@^@^@^@^@^@^@^@^@^@^@^@^@^@^@^@^@^@^@^@^@^@^@^@^@^@^@^@S;- - - - - - - - - - - - - - B;I&$>- - - - - - - - - - - - - - - - b.7                                                                                       ",
"                                                                                                                  i - - - - - - O ~;- - - - - - - g;^@^@^@^@^@^@^@^@^@^@^@^@^@^@^@^@^@^@^@^@^@^@^@^@^@^@^@^@^@^@^@^@^@G$y+y+u$^@^@^@^@^@^@^@^@^@^@^@^@^@^@^@^@^@^@^@^@^@^@^@^@^@^@^@^@^@^@^@^@^@^@^@^@^@^@^@^@^@^@^@^@^@^@^@^@^@^@^@^@^@^@^@^@^@^@^@^@^@^@^@^@^@^@w@- - - - - - - - - - - - - - Q I&%>- - - - - - - - - - - - - - - - - J.                                                                                      ",
"                                                                                                                  N - - - - - o.Q;i;- - - - - - - ^;^@^@^@^@^@^@^@^@^@^@^@^@^@^@^@^@^@^@^@^@^@^@^@^@^@^@^@^@^@^@^@^@^@'$y+y+^@^@^@^@^@^@^@^@^@^@^@^@^@^@^@^@^@^@^@^@^@^@^@^@^@^@^@^@^@^@^@^@^@^@^@^@^@^@^@^@^@^@^@^@^@^@^@^@^@^@^@^@^@^@^@^@^@^@^@^@^@^@^@^@^@^@^@S-- - - - - - - - - - - - - - V I& .- - - - - - - - - - - - - - - - - t                                                                                       ",
"                                                                                                                +;- - - - - - x.L ;+- - - - - - o.%;^@^@^@^@^@^@^@^@^@^@^@^@^@^@^@^@^@^@^@^@^@^@^@^@^@^@^@^@^@^@^@^@^@s@y+r@^@^@^@^@^@^@^@^@^@^@^@^@^@^@^@^@^@^@^@^@^@^@^@^@^@^@^@^@^@^@^@^@^@^@^@^@^@^@^@^@^@^@^@^@^@^@^@^@^@^@^@^@^@^@^@^@^@^@^@^@^@^@^@^@^@^@^@'-- - - - - - - - - - - - - - w.I&&>- - - - - - - - - - - - - - - - - ;.                                                                                      ",
"                                                                                                              } *>- - - - - - U;[.t.- - - - - - T-^@^@^@^@^@^@^@^@^@^@^@^@^@^@^@^@^@^@^@^@^@^@^@^@^@^@^@^@^@^@^@^@^@^@g@y+x+^@^@^@^@^@^@^@^@^@^@^@^@^@^@^@^@^@^@^@^@^@^@^@^@^@^@^@^@^@^@^@^@^@^@^@^@^@^@^@^@^@^@^@^@^@^@^@^@^@^@^@^@^@^@^@^@^@^@^@^@^@^@^@^@^@^@^@u$t.- - - - - - - - - - - - - -;I&T.- - - - - - - - - - - - - - - - - d-                                                                                      ",
"                                                                                                              O-- - - - - - - Q K - - - - - - - =>^@^@^@^@^@^@^@^@^@^@^@^@^@^@^@^@^@^@^@^@^@^@^@^@^@^@^@^@^@^@^@^@^@^@Q+y+w+^@^@^@^@^@^@^@^@^@^@^@^@^@^@^@^@^@^@^@^@^@^@^@^@^@^@^@^@^@^@^@^@^@^@^@^@^@^@^@^@^@^@^@^@^@^@^@^@^@^@^@^@^@^@^@^@^@^@^@^@^@^@^@^@^@^@^@^@x - - - - - - - - - - - - - x;I&J*- - - - - - - - - - - - - - - - - 2 r                                                                                     ",
"                                                                                                            7 q;- - - - - - - C@%.- - - - - - - ^#^@^@^@^@^@^@^@^@^@^@^@^@^@^@^@^@^@^@^@^@^@^@^@^@^@^@^@^@^@^@^@^@^@^@'-y+U-^@^@^@^@^@^@^@^@^@^@^@^@^@^@^@^@^@^@^@^@^@^@^@^@^@^@^@^@^@^@^@^@^@^@^@^@^@^@^@^@^@^@^@^@^@^@^@^@^@^@^@^@^@^@^@^@^@^@^@^@^@^@^@^@^@^@^@^@d.- - - - - - - - - - - - - ->I&;>- - - - - - - - - - - - - - - - - - b                                                                                     ",
"                                                                                                            o+- - - - - - - - Y <.- - - - - - - :#^@^@^@^@^@^@^@^@^@^@^@^@^@^@^@^@^@^@^@^@^@^@^@^@^@^@^@^@^@^@^@^@^@^@';y+';^@^@^@^@^@^@^@^@^@^@^@^@^@^@^@^@^@^@^@^@^@^@^@^@^@^@^@^@^@^@^@^@^@^@^@^@^@^@^@^@^@^@^@^@^@^@^@^@^@^@^@^@^@^@^@^@^@^@^@^@^@^@^@^@^@^@^@^@A;- - - - - - - - - - - - - &.J&/.- - - - - - - - - - - - - - - - - - c+                                                                                    ",
"                                                                                                          r >>- - - - - - - - U;T;- - - - - - G u$^@^@^@^@^@^@^@^@^@^@^@^@^@^@^@^@^@^@^@^@^@^@^@^@^@^@^@^@^@^@^@^@^@^@%;y+Q+^@^@^@^@^@^@^@^@^@^@^@^@^@^@^@^@^@^@^@^@^@^@^@^@^@^@^@^@^@^@^@^@^@^@^@^@^@^@^@^@^@^@^@^@^@^@^@^@^@^@^@^@^@^@^@^@^@^@^@^@^@^@^@^@^@^@^@^@y.- - - - - - - - - - - - '.J&@*- - - - - - - - - - - - - - - - - - - v                                                                                     ",
"                                                                                                          l.- - - - - - - - - B.~;- - - - - - ,>^@^@^@^@^@^@^@^@^@^@^@^@^@^@^@^@^@^@^@^@^@^@^@^@^@^@^@^@^@^@^@^@^@^@^@U-y+N+^@^@^@^@^@^@^@^@^@^@^@^@^@^@^@^@^@^@^@^@^@^@^@^@^@^@^@^@^@^@^@^@^@^@^@^@^@^@^@^@^@^@^@^@^@^@^@^@^@^@^@^@^@^@^@^@^@^@^@^@^@^@^@^@^@^@^@^@|.- - - - - - - - - - - - -#I&x;- - - - - - - - - - - - - - - - - - - '>                                                                                    ",
"                                                                                                        K%)>- - - - - - - - - ;+~;- - - - - - :;^@^@^@^@^@^@^@^@^@^@^@^@^@^@^@^@^@^@^@^@^@^@^@^@^@^@^@^@^@^@^@^@^@^@^@W+y+_@^@^@^@^@^@^@^@^@^@^@^@^@^@^@^@^@^@^@^@^@^@^@^@^@^@^@^@^@^@^@^@^@^@^@^@^@^@^@^@^@^@^@^@^@^@^@^@^@^@^@^@^@^@^@^@^@^@^@^@^@^@^@^@^@^@^@^@^@`@- - - - - - - - - - - - T.I&g*- - - - - - - - - - - - - - - - - - - $                                                                                     ",
"                                                                                                        L*- - - - - - - - - - v.T;- - - - - - ,#^@^@^@^@^@^@^@^@^@^@^@^@^@^@^@^@^@^@^@^@^@^@^@^@^@^@^@^@^@^@^@^@^@^@^@w+y+R-^@^@^@^@^@^@^@^@^@^@^@^@^@^@^@^@^@^@^@^@^@^@^@^@^@^@^@^@^@^@^@^@^@^@^@^@^@^@^@^@^@^@^@^@^@^@^@^@^@^@^@^@^@^@^@^@^@^@^@^@^@^@^@^@^@^@^@^@o;- - - - - - - - - - - - L;I&!>- - - - - - - - - - - - - - - - - - - ~>                                                                                    ",
"                                                                                                      K%e-- - - - - - - - - - `.<.- - - - - - 3;^@^@^@^@^@^@^@^@^@^@^@^@^@^@^@^@^@^@^@^@^@^@^@^@^@^@^@^@^@^@^@^@^@^@^@(;y+H+^@^@^@^@^@^@^@^@^@^@^@^@^@^@^@^@^@^@^@^@^@^@^@^@^@^@^@^@^@^@^@^@^@^@^@^@^@^@^@^@^@^@^@^@^@^@^@^@^@^@^@^@^@^@^@^@^@^@^@^@^@^@^@^@^@^@^@^@}.- - - - - - - - - - - o.{>@*- - - - - - - - - - - - - - - - - - - - 2.                                                                                    ",
"                                                                                                      L*- - - - - - - - - - - !.,.- - - - - o.8#^@^@^@^@^@^@^@^@^@^@^@^@^@^@^@^@^@^@^@^@^@^@^@^@^@^@^@^@^@^@^@^@^@^@^@x+y+[@^@^@^@^@^@^@^@^@^@^@^@^@^@^@^@^@^@^@^@^@^@^@^@^@^@^@^@^@^@^@^@^@^@^@^@^@^@^@^@^@^@^@^@^@^@^@^@^@^@^@^@^@^@^@^@^@^@^@^@^@^@^@^@^@^@^@^@^@V - - - - - - - - - - - v.I&u;- - - - - - - - - - - - - - - - - - - - 3 r                                                                                   ",
"                                                                                                    7 ( - - - - - - - - - - - (#{+- - - - - 4@^@^@^@^@^@^@^@^@^@^@^@^@^@^@^@^@^@^@^@^@^@^@^@^@^@^@^@^@^@^@^@^@^@^@^@^@x+y+.@^@^@^@^@^@^@^@^@^@^@^@^@^@^@^@^@^@^@^@^@^@^@^@^@^@^@^@^@^@^@^@^@^@^@^@^@^@^@^@^@^@^@^@^@^@^@^@^@^@^@^@^@^@^@^@^@^@^@^@^@^@^@^@^@^@^@^@^@Y;- - - - - - - - - - - q+I&+.- - - - - - - - - - - - - - - - - - - - - [                                                                                   ",
"                                                                                                    ~ - - - - - - - - - - - B.L L B - - - - o;^@^@^@^@^@^@^@^@^@^@^@^@^@^@^@^@^@^@^@^@^@^@^@^@^@^@^@^@^@^@^@^@^@^@^@^@r@y+F+^@^@^@^@^@^@^@^@^@^@^@^@^@^@^@^@^@^@^@^@^@^@^@^@^@^@^@^@^@^@^@^@^@^@^@^@^@^@^@^@^@^@^@^@^@^@^@^@^@^@^@^@^@^@^@^@^@^@^@^@^@^@^@^@^@^@^@^@]#- - - - - - - - - - - ]>z;o.- - - - - - - - - - - - - - - - - - - - - W                                                                                   ",
"                                                                                                    / - - - - - - - - - - 1.Y+L L G - - - - ^>^@^@^@^@^@^@^@^@^@^@^@^@^@^@^@^@^@^@^@^@^@^@^@^@^@^@^@^@^@^@^@^@^@^@^@^@y+y+P+^@^@^@^@^@^@^@^@^@^@^@^@^@^@^@^@^@^@^@^@^@^@^@^@^@^@^@^@^@^@^@^@^@^@^@^@^@^@^@^@^@^@^@^@^@^@^@^@^@^@^@^@^@^@^@^@^@^@^@^@^@^@^@^@^@^@^@^@v.- - - - - - - - - - '.`;q=- - - - - - - - - - - - - - - - - - - - - - i.                                                                                  ",
"                                                                                                    > - - - - - - - - - p=S+L L L Y - - - - />^@^@^@^@^@^@^@^@^@^@^@^@^@^@^@^@^@^@^@^@^@^@^@^@^@^@^@^@^@^@^@^@^@^@^@u$y+y+u$^@^@^@^@^@^@^@^@^@^@^@^@^@^@^@^@^@^@^@^@^@^@^@^@^@^@^@^@^@^@^@^@^@^@^@^@^@^@^@^@^@^@^@^@^@^@^@^@^@^@^@^@^@^@^@^@^@^@^@^@^@^@^@^@^@^@^@^@'.- - - - - - - - - - V=I&e;- - - - - - - - - - - - - - - - - - - - - - .                                                                                   ",
"                                                                                                  i.- - - - - - - - - >.}.F L L L s+- - - - (>^@^@^@^@^@^@^@^@^@^@^@^@^@^@^@^@^@^@^@^@^@^@^@^@^@^@^@^@^@^@^@^@^@^@^@P+y+y+^@^@^@^@^@^@^@^@^@^@^@^@^@^@^@^@^@^@^@^@^@^@^@^@^@^@^@^@^@^@^@^@^@^@^@^@^@^@^@^@^@^@^@^@^@^@^@^@^@^@^@^@^@^@^@^@^@^@^@^@^@^@^@^@^@^@^@^@8#- - - - - - - - - - - _>:>o.- - - - - - - - - - - - - - - - - - - - - - $#                                                                                  ",
"                                                                                                  *%- - - - - - - - - - - B .>L L <>- - - - *;^@^@^@^@^@^@^@^@^@^@^@^@^@^@^@^@^@^@^@^@^@^@^@^@^@^@^@^@^@^@^@^@^@^@^@F+y+x+^@^@^@^@^@^@^@^@^@^@^@^@^@^@^@^@^@^@^@^@^@^@^@^@^@^@^@^@^@^@^@^@^@^@^@^@^@^@^@^@^@^@^@^@^@^@^@^@^@^@^@^@^@^@^@^@^@^@^@^@^@^@^@^@^@^@^@^@(;- - - - - - - - - - /.[>u;- - - - - - - - - - - - - - - - - - - - - - - n                                                                                   ",
"                                                                                                  2;- - - - - - - - - - - - - A L w;p.- - - }>^@^@^@^@^@^@^@^@^@^@^@^@^@^@^@^@^@^@^@^@^@^@^@^@^@^@^@^@^@^@^@^@^@^@^@!@y+x+^@^@^@^@^@^@^@^@^@^@^@^@^@^@^@^@^@^@^@^@^@^@^@^@^@^@^@^@^@^@^@^@^@^@^@^@^@^@^@^@^@^@^@^@^@^@^@^@^@^@^@^@^@^@^@^@^@^@^@^@^@^@^@^@^@^@^@^@u+- - - - - - - - - - }.I&4@- - - - - - - - - - - - - - - - - - - - - - g 7                                                                                   ",
"                                                                                                  2;- - - - - - - - - - - - - - <.L }.- - - ,#^@^@^@^@^@^@^@^@^@^@^@^@^@^@^@^@^@^@^@^@^@^@^@^@^@^@^@^@^@^@^@^@^@^@^@[@y+x+^@^@^@^@^@^@^@^@^@^@^@^@^@^@^@^@^@^@^@^@^@^@^@^@^@^@^@^@^@^@^@^@^@^@^@^@^@^@^@^@^@^@^@^@^@^@^@^@^@^@^@^@^@^@^@^@^@^@^@^@^@^@^@^@^@^@^@^@};- - - - - - - - - - ->|>- - - - - - - - - - - - - - - - - - - - - - - _                                                                                     ",
"                                                                                                  c+- - - - - - - - - - - - - - x ~.<>- - - 1>^@^@^@^@^@^@^@^@^@^@^@^@^@^@^@^@^@^@^@^@^@^@^@^@^@^@^@^@^@^@^@^@^@^@^@-@y+x+^@^@^@^@^@^@^@^@^@^@^@^@^@^@^@^@^@^@^@^@^@^@^@^@^@^@^@^@^@^@^@^@^@^@^@^@^@^@^@^@^@^@^@^@^@^@^@^@^@^@^@^@^@^@^@^@^@^@^@^@^@^@^@^@^@^@^@^@k;- - - - - - - - - x 2>R@r.x.>.- - - - - - - - - - - - - - - - - - - - 4                                                                                     ",
"                                                                                                  q - - - - - - - - - - - - - - - w.L Y - - s;^@^@^@^@^@^@^@^@^@^@^@^@^@^@^@^@^@^@^@^@^@^@^@^@^@^@^@^@^@^@^@^@^@^@^@H+y+r@^@^@^@^@^@^@^@^@^@^@^@^@^@^@^@^@^@^@^@^@^@^@^@^@^@^@^@^@^@^@^@^@^@^@^@^@^@^@^@^@^@^@^@^@^@^@^@^@^@^@^@^@^@^@^@^@^@^@^@^@^@^@^@^@^@^@^@^@]$- - - - - - - B.6.[.E S.G.u@u@R@1@Q e;x.t.- - - - - - - - - - - - - - )                                                                                     ",
"                                                                                                  ].3 - - - - - - 4%3>4>5>}&- - - t.E;W.).- 9@^@^@^@^@^@^@^@^@^@^@^@^@^@^@^@^@^@^@^@^@^@^@^@^@^@^@^@^@^@^@^@^@^@^@^@R-y+r@^@^@^@^@^@^@^@^@^@^@^@^@^@^@^@^@^@^@^@^@^@^@^@^@^@^@^@^@^@^@^@^@^@^@^@^@^@^@^@^@^@^@^@^@^@^@^@^@^@^@^@^@^@^@^@^@^@^@^@^@^@^@^@^@^@^@^@^@^*- - - - - {.O [.Y+q@K+@#I.s+u@u@u@u@u@u@s+`@i;`.*.- - - - - - - - - - b;                                                                                    ",
"                                                                                                    ~>- - - - 6>7>8>9>9>9>0>a>b>- - Y L I.- K;^@^@^@^@^@^@^@^@^@^@^@^@^@^@^@^@^@^@^@^@^@^@^@^@^@^@^@^@^@^@^@^@^@^@^@'$y+y+^@^@^@^@^@^@^@^@^@^@^@^@^@^@^@^@^@^@^@^@^@^@^@^@^@^@^@^@^@^@^@^@^@^@^@^@^@^@^@^@^@^@^@^@^@^@^@^@^@^@^@^@^@^@^@^@^@^@^@^@^@^@^@^@^@^@^@^@;;- - - - /.9.p=o.- - - - - t.x.v.p=!.-;u@u@u@u@u@u@R@J;Z.- - - - - - - -+                                                                                    ",
"                                                                                                    K@- - - c>d>9>9>9>9>9>9>9>e>f>- - n+L 1@g>^@^@^@^@^@^@^@^@^@^@^@^@^@^@^@^@^@^@^@^@^@^@^@^@^@^@^@^@^@^@^@^@^@^@^@'$y+y+P+^@^@^@^@^@^@^@^@^@^@^@^@^@^@^@^@^@^@^@^@^@^@^@^@^@^@^@^@^@^@^@^@^@^@^@^@^@^@^@^@^@^@^@^@^@^@^@^@^@^@^@^@^@^@^@^@^@^@h>i>j>k>l>m>^@^@^@u@- - - - p.- - - - - - - - - - - - - t.u.i;-;u@u@u@u@u@u@M*'.- - - - 0 r                                                                                     ",
"                                                                                                    $@- }&n>o>9>9>9>9>9>9>9>9>9>p>q>- ).,.L K ^@^@^@^@^@^@^@^@^@^@^@^@^@^@^@^@^@^@^@^@^@^@^@^@^@^@^@^@^@^@^@^@^@^@^@'$y+y+F+^@^@^@^@^@^@^@^@^@^@^@^@^@^@^@^@^@^@^@^@^@^@^@^@^@^@^@^@^@^@^@^@^@^@^@^@^@^@^@^@^@^@^@^@^@^@^@^@^@^@^@^@^@^@^@^@^@r>s>t>t>t>t>t>u>v>w>x>y>i$- - - - - - - - - - - - - - - - - - - ).B;s+u@u@u@u@u@A >.- - - !$                                                                                      ",
"                                                                                                    } > z>A>9>9>9>9>9>9>9>9>9>9>9>p>B>- ).G.L C>^@^@^@^@^@^@^@^@^@^@^@^@^@^@^@^@^@^@^@^@^@^@^@^@^@^@^@^@^@^@^@^@^@^@'$y+y+[@^@^@^@^@^@^@^@^@^@^@^@^@^@^@^@^@^@^@^@^@^@^@^@^@^@^@^@^@^@^@^@^@^@^@^@^@^@^@^@^@^@^@^@^@^@^@^@^@^@^@^@^@^@^@^@^@^@D>t>t>t>t>t>t>t>t>t>t>t>E>F>G>- - - - - - - - - - - - - - - - - - - l@9.u@u@u@u@u@B;- - - 1;                                                                                      ",
"                                                                                                      H>I>J>9>9>9>9>9>9>9>9>9>9>9>9>K>2#- - Y i@%#^@^@^@^@^@^@^@^@^@^@^@^@^@^@^@^@^@^@^@^@^@^@^@^@^@^@^@^@^@^@^@^@^@R-y+y+-@^@^@^@^@^@^@^@^@^@^@^@^@^@^@^@^@^@^@^@^@^@^@^@^@^@^@^@^@^@^@^@^@^@^@^@^@^@^@^@^@^@^@^@^@^@^@^@^@^@^@^@^@^@^@^@^@^@L>t>t>t>t>t>t>t>t>t>t>t>t>M>- - - - - - - - - - - - - - - - - - - - - H.s+~;u@u@u@`@- - - ~                                                                                       ",
"                                                                                                    N>O>P>Q>9>9>9>9>9>9>9>9>9>9>9>9>9>R>- - - - /.);u$^@^@^@^@^@^@^@^@^@^@^@^@^@^@^@^@^@^@^@^@^@^@^@^@^@^@^@^@^@^@^@-@y+y+G$^@^@^@^@^@^@^@^@^@^@^@^@^@^@^@^@^@^@^@^@^@^@^@^@^@^@^@^@^@^@^@^@^@^@^@^@^@^@^@^@^@^@^@^@^@^@^@^@^@^@^@^@^@^@^@^@^@S>T>U>U>V>V>W>W>X>T>X>T>Y>Z>- - - - - - - - - - - - - - - - - - - - - - O;x;D T;u@1@`> ,2 U.                                                                                      ",
"                                                                                                    .,I>+,9>9>9>9>9>9>9>9>9>9>9>9>9>9>@,#,- - - - - $,!@^@^@^@^@^@^@^@^@^@^@^@^@^@^@^@^@^@^@^@^@^@^@^@^@^@^@^@^@^@^@.@y+y+'$^@^@^@^@^@^@^@^@^@^@^@^@^@^@^@^@^@^@^@^@^@^@^@^@^@^@^@^@^@^@^@^@^@^@^@^@^@^@^@^@^@^@^@^@^@^@^@^@^@^@^@^@^@^@^@^@%,&,*,=,=,=,=,=,=,=,=,2%=,-,- - - - - - - - - - - - - - - - - - - - - - - K.i@T@^.T;a.;,t>>,                                                                                        ",
"                                                                                                  ,,I>I>',9>9>9>9>9>9>9>9>9>9>9>9>9>9>9>),!,- - - - - ~,H+^@^@^@^@^@^@^@^@^@^@^@^@^@^@^@^@^@^@^@^@^@^@^@^@^@^@^@^@^@&@y+y+s@^@^@^@^@^@^@^@^@^@^@^@^@^@^@^@^@^@^@^@^@^@^@^@^@^@^@^@^@^@^@^@^@^@^@^@^@^@^@^@^@^@^@^@^@^@^@^@^@^@^@^@^@^@^@^@{,],^,V>U>/,(,*,*,*,=,*,=,=,_,- - - - - - - - - - - - - - - - - - - - - - - @#Y+C.T@F.t.:,<,t>[,                                                                                      ",
"                                                                                                },|,I>I>1,9>9>9>9>9>9>9>9>9>9>9>9>9>9>9>2,3,4,- - - - - T.Q+^@^@^@^@^@^@^@^@^@^@^@^@^@^@^@^@^@^@^@^@^@^@^@^@^@^@^@^@^@x+y+N+^@^@^@^@^@^@^@^@^@^@^@^@^@^@^@^@^@^@^@^@^@^@^@^@^@^@^@^@^@^@^@^@^@^@^@^@^@^@^@^@^@^@^@^@^@^@^@^@^@^@^@^@^@^@^@5,6,7,t>t>t>W>/,(,8,(,(,(,(,9,- - - - - - - - - - - - - - - - - - - - - - V.Y.&.F K&B - 0,2%/,a,b,                                                                                    ",
"                                                                                                c,I>I>I>d,9>9>9>9>9>9>9>9>9>9>9>9>9>9>9>9>e,U*- - - - - - O@:#^@^@^@^@^@^@^@^@^@^@^@^@^@^@^@^@^@^@^@^@^@^@^@^@^@^@^@^@'-y+g@^@^@^@^@^@^@^@^@^@^@^@^@^@^@^@^@^@^@^@^@^@^@^@^@^@^@^@^@^@^@^@^@^@^@^@^@^@^@^@^@^@^@^@^@^@^@^@^@^@^@^@^@^@^@f,g,h,6,i,t>t>t>T><,8,8,8,8,j,- - - - - - - - - - - - - - - - - - - - - - r.F L W.i;- - - k,2%2%/,l,                                                                                    ",
"                                                                                              m,n,I>I>I>o,9>9>9>9>9>9>9>9>9>9>9>9>9>9>9>9>9>p,q,- - - - - - ;+0;^@^@^@^@^@^@^@^@^@^@^@^@^@^@^@^@^@^@^@^@^@^@^@^@^@^@^@'$y+N+^@^@^@^@^@^@^@^@^@^@^@^@^@^@^@^@^@^@^@^@^@^@^@^@^@^@^@^@^@^@^@^@^@^@^@^@^@^@^@^@^@^@^@^@^@^@^@^@^@^@^@^@^@^@r,s,t,u,v,t>t>t>t>t>W>w,w,/,x,- - - - - - - - - - - - - - - - - - - - - B.T;G#-#- - - - Z>y,w,=,=,z,A,                                                                                  ",
"                                                                                            B,C,I>I>I>D,2,9>9>9>9>9>9>9>9>9>9>9>9>9>9>9>9>9>E,F,G,- - - - - - p.s;^@^@^@^@^@^@^@^@^@^@^@^@^@^@^@^@^@^@^@^@^@^@^@^@^@^@!@y+s@^@^@^@^@^@^@^@^@^@^@^@^@^@^@^@^@^@^@^@^@^@^@^@^@^@^@^@^@^@^@^@^@^@^@^@^@^@^@^@^@^@^@^@^@^@^@^@^@^@^@^@^@^@^@H,I,J,s,e,t>t>t>t>t>t>t>X>K,L,- - - - - - - - - - - - - - - - - - - - - t.- - - - - - - M,t>t>V>=,N,O,                                                                                  ",
"                                                                                          B,P,I>I>I>I>Q,9>9>9>9>9>9>9>9>9>9>9>9>9>9>9>9>9>9>9>R,S,- - - - - - - t.&#^@^@^@^@^@^@^@^@^@^@^@^@^@^@^@^@^@^@^@^@^@^@^@^@^@^@W+_@^@^@^@^@^@^@^@^@^@^@^@^@^@^@^@^@^@^@^@^@^@^@^@^@^@^@^@^@^@^@^@^@^@^@^@^@^@^@^@^@^@^@^@^@^@^@^@^@^@^@^@^@^@^@T,U,I,V,W,t>t>t>t>t>t>t>t>X,Y,- - - - - - - - - - - - - - - - - - - - - - - - - - - - Z,s*t>t>t>U>8,`, '                                                                                ",
"                                                                                        .'+'I>I>I>I>I>=*9>9>9>9>9>9>9>9>9>9>9>9>9>9>9>9>9>9>9>@'#'$'- - - - - - - - %'-@^@^@^@^@^@^@^@^@^@^@^@^@^@^@^@^@^@^@^@^@^@^@^@^@G$H+^@^@^@^@^@^@^@^@^@^@^@^@^@^@^@^@^@^@^@^@^@^@^@^@^@^@^@^@^@^@^@^@^@^@^@^@^@^@^@^@^@^@^@^@^@^@^@^@^@^@^@^@^@^@&'S**'U,='t>t>t>t>t>t>t>-';'>'- - - - - - - - - - - - - - - - - - - - - - - - - - - I#,'t>t>t>t>t>T>'')'                                                                                ",
"                                                                                  !'~'{']'I>I>I>I>I>^'/'9>9>9>9>9>9>9>9>9>9>9>9>9>9>9>9>9>9>9>9>('_'_%- - - - - - - - `@(;^@^@^@^@^@^@^@^@^@^@^@^@^@^@^@^@^@^@^@^@^@^@^@u$!@^@^@^@^@^@^@^@^@^@^@^@^@^@^@^@^@^@^@^@^@^@^@^@^@^@^@^@^@^@^@^@^@^@^@^@^@^@^@^@^@^@^@^@^@^@^@^@^@^@^@^@^@^@^@:'<'['*'}'t>t>t>t>t>t>t>8>|'m=I#- - - - - - - - - - - - - - - - - - - - - - - - - - 1't>t>t>t>t>t>t>2'3'                                                                                ",
"                                                          4'5'6'7'8'9'9'9'0'a'9'b'c'I>I>I>I>I>I>I>d'e'9>9>9>9>9>9>9>9>9>9>9>9>9>9>9>9>9>9>9>9>9>f'g'h'q&- - - - - - - - _*8;^@^@^@^@^@^@^@^@^@^@^@^@^@^@^@^@^@^@^@^@^@^@^@^@^@^@^@^@^@^@^@^@^@^@^@^@^@^@^@^@^@^@^@^@^@^@^@^@^@^@^@^@^@^@^@^@^@^@^@^@^@^@^@^@^@^@^@^@^@^@^@^@^@^@^@^@^@^@^@i'j'['k't>t>t>t>t>t>t>l'm'I=n'- - - - - - - - - - - - - - - - - - - - - - - - - o'p't>t>t>t>t>t>L#q'r'B,                                                                              ",
"                                                      s't'u'I>I>I>I>I>I>I>I>I>I>I>I>I>I>I>I>I>v'w'_&x'9>9>9>9>9>9>9>9>9>9>9>9>9>9>9>9>9>9>9>9>9>9>y'0&z'- - - - - - - - - /.}>^@^@^@^@^@^@^@^@^@^@^@^@^@^@^@^@^@^@^@^@^@^@^@^@^@^@^@^@^@^@^@^@^@^@^@^@^@^@^@^@^@^@^@^@^@^@^@^@^@^@^@^@^@^@^@^@^@^@^@^@^@^@^@^@^@^@^@^@^@^@^@^@^@^@^@^@^@^@A'B'C'D't>t>t>t>t>t>t>b$k=E'F'- - - - - - - - - - - - - - - - - - - - - - - - G'v,t>t>t>t>t>t>t>H'I'J'K'                                                                              ",
"                                                    L'M'I>I>I>I>I>I>I>I>I>I>I>I>I>I>I>I>I>I>j%N'O'P'9>9>9>9>9>9>9>9>9>9>9>9>9>9>9>9>9>9>9>9>9>9>9>E>Q'R'S'- - - - - - - - - - Y=!@^@^@^@^@^@^@^@^@^@^@^@^@^@^@^@^@^@^@^@^@^@^@^@^@^@^@^@^@^@^@^@^@^@^@^@^@^@^@^@^@^@^@^@^@^@^@^@^@^@^@^@^@^@^@^@^@^@^@^@^@^@^@^@^@^@^@^@^@^@^@^@H+W+D+2@$;T'U'B'V't>t>t>t>t>t>t>@,T%W'X'- - - - - - - - - - - - - - - - - - - - - - - Y'Z'`'t>t>t>t>t>t>t>t> ).)+)                                                                              ",
"                                                  !'@)I>I>I>I>#)$)%)&)*)=)-);)v&>),)m&F=L=')))!)2,9>9>9>9>9>9>9>9>9>9>9>9>9>9>9>9>9>9>9>9>9>9>9>9>~){)])^)q&- - - - - - - - - - -;'-^@^@^@^@^@^@^@^@^@^@^@^@^@^@^@^@^@^@^@^@^@^@^@^@^@^@^@^@^@^@^@^@^@^@^@^@^@^@^@^@^@^@^@^@^@^@^@^@^@^@^@^@^@^@^@^@^@^@^@^@^@^@^@^@^@^@^@^@[@u+,-,-,-,-,-/)()U'V't>t>t>t>t>t>t>_):)<)[)})- - - - - - - - - - - - - - - - - - - - - |)1)2)Q>t>t>t>t>t>t>t>t>3)|-4)                                                                              ",
"                                                  5)I>I>I>I>6)7)9>9>9>9>9>9>9>9>9>9>n$n$x'9>9>9>9>9>9>9>9>9>9>9>9>9>9>9>9>9>9>9>9>9>9>9>9>9>9>9>9>9>8)9)0)a)- - - - - - - - - - - 6;,-^@^@^@^@^@^@^@^@^@^@^@^@^@^@^@^@^@^@^@^@^@^@^@^@^@^@^@^@^@^@^@^@^@^@^@^@^@^@^@^@^@^@^@^@^@^@^@^@^@^@^@^@^@^@^@^@^@^@^@^@^@^@^@^@^@^@.@&;,-,-,-,-,-,-b)c)d)f=t>t>t>t>t>t>t>l'$&<)e)f)i$- - - - - - - - - - - - - - - - - - g)h)i)j)k)-'t>t>t>t>t>t>t>t>H'l)m)                                                                              ",
"                                                n)o)I>I>I>p)9>9>9>9>9>9>9>9>9>9>9>9>9>9>9>9>9>9>9>9>9>9>9>9>9>9>9>9>9>9>9>9>9>9>9>9>9>9>9>9>9>9>9>9>-'q)r)s)t)- - - - - - - - - - - x u)^@^@^@^@^@^@^@^@^@^@^@^@^@^@^@^@^@^@^@^@^@^@^@^@^@^@^@^@^@^@^@^@^@^@^@^@^@^@^@^@^@^@^@^@^@^@^@^@^@^@^@^@^@^@^@^@^@^@^@^@^@^@^@^@^@D+,-,-,-,-,-,-,-v)w)x)9)t>t>t>t>t>t>t>b$y)@&z)A)B)5%- - - - - - - - - - - - - - - q&C)D)E)F)j)G)t>t>t>t>t>t>t>t>t>t>H)I)                                                                              ",
"                                                J)I>I>I>K)9>9>9>9>9>9>9>9>9>9>9>9>9>9>9>9>9>9>9>9>9>9>9>9>9>9>9>9>9>9>9>9>9>9>9>9>9>9>9>9>9>9>9>9>9>9>~&L)6%M)N)- - - - - - - - - - - o.X-&@^@^@^@^@^@^@^@^@^@^@^@^@^@^@^@^@^@^@^@^@^@^@^@^@^@^@^@^@^@^@^@^@^@^@^@^@^@^@^@^@^@^@^@^@^@^@^@^@^@^@^@^@^@^@^@^@^@^@^@^@^@^@^@Z-,-,-,-,-,-,-,-O)P)Q)R)t>t>t>t>t>t>t>@,|'Z&H=m&D)S)T)- - - - - - - - - - - - 5%U)V)W)X)Y)G%j)Z)t>t>t>t>t>t>t>t>t>t>t>`)                                                                              ",
"                                                 !I>I>I>.!9>9>9>9>9>9>9>9>9>9>9>9>9>9>9>9>9>9>9>9>9>9>9>9>9>9>9>9>9>9>9>9>9>9>9>9>9>9>9>9>9>9>9>9>9>9>+!@!#!$!%!- - - - - - - - - - - - - -;';^@^@^@^@^@^@^@^@^@^@^@^@^@^@^@^@^@^@^@^@^@^@^@^@^@^@^@^@^@^@^@^@^@^@^@^@^@^@^@^@^@^@^@^@^@^@^@^@^@^@^@^@^@^@^@^@^@^@^@^@^@u$,-,-,-,-,-,-,-,-&!*!=!-!t>t>t>t>t>t>t>8>;!>!@&,!'!d',=)!!!~!N)- - - - - b>{!]!^!D)/!(!_!:!F)<![!t>t>t>t>t>t>t>t>t>t>t>}!|!                                                                            ",
"                                                1!I>I>2!2,9>9>9>9>9>9>9>9>9>9>9>9>9>9>9>9>9>9>9>9>9>9>9>9>9>9>9>9>9>9>9>9>9>9>9>9>9>9>9>9>9>9>9>9>9>9>~)3!4!5!6!w%- - - - - - - - - - - - - A;|;^@^@^@^@^@^@^@^@^@^@^@^@^@^@^@^@^@^@^@^@^@^@^@^@^@^@^@^@^@^@^@^@^@^@^@^@^@^@^@^@^@^@^@^@^@^@^@^@^@^@^@^@^@^@^@^@^@^@^@^@u$,-,-,-,-,-,-,-,-7!8!&*9!t>t>t>t>t>t>t>0!G%%)a!J=b!A)P>c!d!^!3,e!f!g!h!i!8*j!k!R,l!m!n!_!H%*)o!t>t>t>t>t>t>t>t>t>t>t>t>t>p!q!                                                                          ",
"                                                r!I>I>>)9>9>9>9>9>9>9>9>9>9>9>9>9>9>9>9>9>9>9>9>9>9>9>9>9>9>9>9>9>9>9>9>9>9>9>9>9>9>9>9>9>9>9>9>9>9>9>9>s!t!u!v!w!- - - - - - - - - - - - - - l@I*^@^@^@^@^@^@^@^@^@^@^@^@^@^@^@^@^@^@^@^@^@^@^@^@^@^@^@^@^@^@^@^@^@^@^@^@^@^@^@^@^@^@^@^@^@^@^@^@^@^@^@^@^@^@^@^@^@^@^@^@S-,-,-,-,-,-,-,-x!y!8!z!t>t>t>t>t>t>t>[!F):!_!A!B!C!D!E!D*F!G!H!I!I!J!K!N%L!M!N!V'(!.=O!P!.!t>t>t>t>t>t>t>t>t>t>t>t>t>t>t>Q!                                                                          ",
"                                                R!I>I>S!9>9>9>9>9>9>9>9>9>9>9>9>9>9>9>9>9>9>9>9>9>9>9>9>9>9>9>9>9>9>9>9>9>9>9>9>9>9>9>9>9>9>9>9>9>9>9>9>9>3!T!5!U!V!- - - - - - - - - - - - - - /.5-^@^@^@^@^@^@^@^@^@^@^@^@^@^@^@^@^@^@^@^@^@^@^@^@^@^@^@^@^@^@^@^@^@^@^@^@^@^@^@^@^@^@^@^@^@^@^@^@^@^@^@^@^@^@^@^@^@^@^@|;,-,-,-,-,-,-,-W!X!Y!Z!t>t>t>t>t>t>t>t>=)H%`! ~(!.~+,+~@~p,#~$~%~%~&~*~=~-~;~>~m!,~p)'~;!8>t>t>t>t>t>t>t>t>t>t>t>t>t>t>t>)~q!                                                                        ",
"                                                1!I>I>!~9>9>9>9>9>9>9>9>9>9>9>9>9>9>9>9>9>9>9>9>9>9>9>9>9>9>9>9>9>9>9>9>9>9>9>9>9>9>9>9>9>9>9>9>9>9>9>9>9>s!t!~~{~]~i$- - - - - - - - - - - - - - p._#^@^@^@^@^@^@^@^@^@^@^@^@^@^@^@^@^@^@^@^@^@^@^@^@^@^@^@^@^@^@^@^@^@^@^@^@^@^@^@^@^@^@^@^@^@^@^@^@^@^@^@^@^@^@^@^@^@^@7;,-,-,-,-,-,-,-^~/~X!(~t>t>t>t>t>t>t>t>k)G%Y)p),~m!_~;~:~M!<~[~}~|~1~2~-~3~4~5~6~.=`!7~8~t>t>t>t>t>t>t>t>t>t>t>t>t>t>t>t>t>9~                                                                        ",
"                                                0~I>I>A!9>9>9>9>9>9>9>9>9>9>9>9>9>9>9>9>9>9>9>9>9>9>9>9>9>9>9>9>9>9>9>9>9>9>9>9>9>9>9>9>9>9>9>9>9>9>9>9>9>9>a~t!b~c~d~- - - - - - - - - - - - - - - q.I-^@^@^@^@^@^@^@^@^@^@^@^@^@^@^@^@^@^@^@^@^@^@^@^@^@^@^@^@^@^@^@^@^@^@^@^@^@^@^@^@^@^@^@^@^@^@^@^@^@^@^@^@^@^@^@^@^@D+,-,-,-,-,-,-,-e~f~/~g~t>t>t>t>t>t>t>t>h~*)H%O!.=6~m!_~N!i~j~-~k~-~l~i~;~>~5~(! ~_!:!<!}!t>t>t>t>t>t>t>t>t>t>t>t>t>t>t>t>t>m~n~                                                                      ",
"                                                o~I>I>p~9>9>9>9>9>9>9>9>9>9>9>9>9>9>9>9>9>9>9>9>9>9>9>9>9>9>9>9>9>9>9>9>9>9>9>9>9>9>9>9>9>9>9>9>9>9>9>9>9>9>+!t!q~X'r~G,- - - - - - - - - - - - - - - q+F+^@^@^@^@^@^@^@^@^@^@^@^@^@^@^@^@^@^@^@^@^@^@^@^@^@^@^@^@^@^@^@^@^@^@^@^@^@^@^@^@^@^@^@^@^@^@^@^@^@^@^@^@^@^@^@^@w+,-,-,-,-,-,-,-s~t~u~q%t>t>t>t>t>t>t>t>0!2*F):!`! ~6~m!V'>~N!;~;~;~N!4~V'v~(!='_!Y)2*}!t>t>t>t>t>t>t>t>t>t>t>t>t>t>t>t>t>t>t>w~                                                                      ",
"                                                x~I>j%y~n$9>9>9>9>9>9>9>9>9>9>9>9>9>9>9>9>9>9>9>9>9>9>9>9>9>9>9>9>9>9>9>9>9>9>9>9>9>9>9>9>9>9>9>9>9>9>9>9>9>9>s#t!z~6!A~- - - - - - - - - - - - - - - - B~^@^@^@^@^@^@^@^@^@^@^@^@^@^@^@^@^@^@^@^@^@^@^@^@^@^@^@^@^@^@^@^@^@^@^@^@^@^@^@^@^@^@^@^@^@^@^@^@^@^@^@^@^@^@^@^@Q+,-,-,-,-,-,-,-C~D~t~E~t>t>t>t>t>t>t>t>t>@'=);!'~`!.=,~(!m!5~V'V'V'D'v~F~6~ ~_!Y)G~}!t>t>t>t>t>t>t>t>t>t>t>t>t>t>t>t>t>t>t>t>}!H~                                                                    ",
"                                                4'N%,=[&I~9>9>9>9>9>9>9>9>9>9>9>9>9>9>9>9>9>9>9>9>9>9>9>9>9>9>9>9>9>9>9>9>9>9>9>9>9>9>9>9>9>9>9>9>9>9>9>9>9>9>}!t!t#J~K~S'- - - - - - - - - - - - - - - 4@H+^@^@^@^@^@^@^@^@^@^@^@^@^@^@^@^@^@^@^@^@^@^@^@^@^@^@^@^@^@^@^@^@^@^@^@^@^@^@^@^@^@^@^@^@^@^@^@^@^@^@^@^@^@^@^@R-,-,-,-,-,-,-,-L~M~N~O~t>t>t>t>t>t>t>t>t>H'j)*);!:!`!p) ~,~6~(!(!(!6~,~ ~P~`!Y)Q~}!t>t>t>t>t>t>t>t>t>t>t>t>t>t>t>t>t>t>t>t>t>t>R~S~                                                                  ",
"                                                  T~U~P>V~9>9>9>9>9>9>9>9>9>9>9>9>9>9>9>9>9>9>9>9>9>9>9>9>9>9>9>9>9>9>9>9>9>9>9>9>9>9>9>9>9>9>9>9>9>9>9>9>9>9>9>W~t!X~X&Y~}&- - - - - - - - - - - - - - - Z;^@^@^@^@^@^@^@^@^@^@^@^@^@^@^@^@^@^@^@^@^@^@^@^@^@^@^@^@^@^@^@^@^@^@^@^@^@^@^@^@^@^@^@^@^@^@^@^@^@^@^@^@^@^@^@[@,-,-,-,-,-,-,-Z~`~ {.{t>t>t>t>t>t>t>t>t>t>7)j)=)F)H%Y)`!_!.=.=.=.=.=_!`!Y)H%8~t>t>t>t>t>t>t>t>t>t>t>t>t>t>t>t>t>t>t>t>t>t>t>t>t>q%+{}                                                               ",
"                                                  @{K!#{${9>9>9>9>9>9>9>9>9>9>9>9>9>9>9>9>9>9>9>9>9>9>9>9>9>9>9>9>9>9>9>9>9>9>9>9>9>9>9>9>9>9>9>9>9>9>9>9>9>9>9>0!t!t!%{&{*{- - - - - - - - - - - - - - - .>^@^@^@^@^@^@^@^@^@^@^@^@^@^@^@^@^@^@^@^@^@^@^@^@^@^@^@^@^@^@^@^@^@^@^@^@^@^@^@^@^@^@^@^@^@^@^@^@^@^@^@^@^@^@^@&@,-,-,-,-,-,-,-={-{;{>{t>t>t>t>t>t>t>t>t>t>t>@,X,2*/$;!H%'~Y)%)%)%)Y)'~H%,{L#t>t>t>t>t>t>t>t>t>t>t>t>t>t>t>t>t>t>t>t>t>t>t>t>t>t>t>'{){!{                                                            ",
"                                                  ~{{{{{:&n$9>9>9>9>9>9>9>9>9>9>9>9>9>9>9>9>9>9>9>9>9>9>9>9>9>9>9>9>9>9>9>9>9>9>9>9>9>9>9>9>9>9>9>9>9>9>9>9>9>9>9>s!t!t#]{^{b>- - - - - - - - - - - - - - u.^@^@^@^@^@^@^@^@^@^@^@^@^@^@^@^@^@^@^@^@^@^@^@^@^@^@^@^@^@^@^@^@^@^@^@^@^@^@^@^@^@^@^@^@^@^@^@^@^@^@^@^@^@^@^@^@#;,-,-,-,-,-M+/{({-{_{t>t>t>t>t>t>t>t>t>t>t>t>0!:{.!=)*)F)G%P!P!P!;!<{8>t>t>t>t>t>t>t>t>t>t>t>t>t>t>t>t>t>t>t>t>t>t>t>t>t>t>t>t>t>t>t>[{}{|{                                                        ",
"                                                  1{2{3{4{I~9>9>9>9>9>9>9>9>9>9>9>9>9>9>9>9>9>9>9>9>9>9>9>9>9>9>9>9>9>9>9>9>9>9>9>9>9>9>9>9>9>9>9>9>9>9>9>9>9>9>9>9>3!t!5{6{7{- - - - - - - - - - - - - - {.^@^@^@^@^@^@^@^@^@^@^@^@^@^@^@^@^@^@^@^@^@^@^@^@^@^@^@^@^@^@^@^@^@^@^@^@^@^@^@^@^@^@^@^@^@^@^@^@^@^@^@^@^@^@^@^@Y-,-,-,-,-~@8{9{9{0{a{t>t>t>t>t>t>t>t>t>t>t>t>t>t>-'l':{k)<!b{c{o!-'t>t>t>t>t>t>t>t>t>t>t>t>t>t>t>t>t>t>t>t>t>t>t>t>t>t>t>t>t>t>t>t>t>t>t>d{e{f{                                                    ",
"                                                  g{3{h{!*i{9>9>9>9>9>9>9>9>9>9>9>9>9>9>9>9>9>9>9>9>9>9>9>9>9>9>9>9>9>9>9>9>9>9>9>9>9>9>9>9>9>9>9>9>9>9>9>9>9>9>9>9>'{t!t!j{k{l{- - - - - - - - - - - - - x.^@^@^@^@^@^@^@^@^@^@^@^@^@^@^@^@^@^@^@^@^@^@^@^@^@^@^@^@^@^@^@^@^@^@^@^@^@^@^@^@^@^@^@^@^@^@^@^@^@^@^@^@^@^@^@^@|;,-,-,-m{/.G,n{/{9{o{t>t>t>t>t>t>t>t>t>t>t>t>t>t>t>t>t>t>t>t>t>t>t>t>t>t>t>t>t>t>t>t>t>t>t>t>t>t>t>t>t>t>t>t>t>t>t>t>t>t>t>t>t>t>t>t>t>t>t>t>p{q{                                                  ",
"                                                  r{g's{H=${9>9>9>9>9>9>9>9>9>9>9>9>9>9>9>9>9>9>9>9>9>9>9>9>9>9>9>9>9>9>9>9>9>9>9>9>9>9>9>9>9>9>9>9>9>9>9>9>9>9>9>9>9>t{t!3!u{v{q&- - - - - - - - - - - - A ^@^@^@^@^@^@^@^@^@^@^@^@^@^@^@^@^@^@^@^@^@^@^@^@^@^@^@^@^@^@^@^@^@^@^@^@^@^@^@^@^@^@^@^@^@^@^@^@^@^@^@^@^@^@^@^@u+,-,-Z;'.- w{x{y{0{z{t>t>t>t>t>t>t>t>t>t>t>t>t>t>t>t>t>t>t>t>t>t>t>t>t>t>t>t>t>t>t>t>t>t>t>t>t>t>t>t>t>t>t>t>t>t>t>t>t>t>t>t>t>t>t>t>t>t>t>t>t>A{B{                                                ",
"                                                  C{D{E{`&F{9>9>9>9>9>9>9>9>9>9>9>9>9>9>9>9>9>9>9>9>9>9>9>9>9>9>9>9>9>9>9>9>9>9>9>9>9>9>9>9>9>9>9>9>9>9>9>9>9>9>9>9>9>0!t#t#d%G{H{- - - - - - - - - - - - W@^@^@^@^@^@^@^@^@^@^@^@^@^@^@^@^@^@^@^@^@^@^@^@^@^@^@^@^@^@^@^@^@^@^@^@^@^@^@^@^@^@^@^@^@^@^@^@^@^@^@^@^@^@^@^@^@:#,-G*p.- - I{J{J{K{L{t>t>t>t>t>t>t>t>t>t>t>t>t>t>t>t>t>t>t>t>t>t>t>t>t>t>t>t>t>t>t>t>t>t>t>t>t>t>t>t>t>t>t>t>t>t>t>t>t>t>t>t>t>t>t>t>t>t>t>t>t>t>M{N{                                              ",
"                                                  O{P{Q{=-R{S{9>9>9>9>9>9>9>9>9>9>9>9>9>9>9>9>9>9>9>9>9>9>9>9>9>9>9>9>9>9>9>9>9>9>9>9>9>9>9>9>9>9>9>9>9>9>9>9>9>9>9>9>9>-*t#3!T{U{V{- - - - - - - - - - ]#8#^@^@^@^@^@^@^@^@^@^@^@^@^@^@^@^@^@^@^@^@^@^@^@^@^@^@^@^@^@^@^@^@^@^@^@^@^@^@^@^@^@^@^@^@^@^@^@^@^@^@^@^@^@^@^@^@y@W@'.- - - W{X{Y{Z{`{t>t>t>t>t>t>t>t>t>t>t>t>t>t>t>t>t>t>t>t>t>t>t>t>t>t>t>t>t>t>t>t>t>t>t>t>t>t>t>t>t>t>t>t>t>t>t>t>t>t>t>t>t>t>t>t>t>t>t>t>t>t>t> ].]                                            ",
"                                                  +](&#'@]R{#]9>9>9>9>9>9>9>9>9>9>9>9>9>9>9>9>9>9>9>9>9>9>9>9>9>9>9>9>9>9>9>9>9>9>9>9>9>9>9>9>9>9>9>9>9>9>9>9>9>9>9>9>9>9>$]a~t{%]&]5%- - - - - - - - 6;y@^@^@^@^@^@^@^@^@^@^@^@^@^@^@^@^@^@^@^@^@^@^@^@^@^@^@^@^@^@^@^@^@^@^@^@^@^@^@^@^@^@^@^@^@^@^@^@^@^@^@^@^@^@^@^@^@^@*]).- - - - =]-]X{;]>]}!t>t>t>t>t>t>t>t>t>t>t>t>t>t>t>t>t>t>t>t>t>t>t>t>t>t>t>t>t>t>t>t>t>t>t>t>t>t>t>t>t>t>t>t>t>t>t>t>t>t>t>t>t>t>t>t>t>t>t>t>t>t>,]']A,                                          ",
"                                                  )]#'!]~]R{{]9>9>9>9>9>9>9>9>9>9>9>9>9>9>9>9>9>9>9>9>9>9>9>9>9>9>9>9>9>9>9>9>9>9>9>9>9>9>9>9>9>9>9>9>9>9>9>9>9>9>9>9>9>9>9>s#]]Y>^]/]- - - - - - >.(]N+^@^@^@^@^@^@^@^@^@^@^@^@^@^@^@^@^@^@^@^@^@^@^@^@^@^@^@^@^@^@^@^@^@^@^@^@^@^@^@^@^@^@^@^@^@^@^@^@^@^@^@^@^@^@^@^@^@_]>.- - - - - :]<][]|=I'8>t>t>t>t>t>t>t>t>t>t>t>t>t>t>t>t>t>t>t>t>t>t>t>t>t>t>t>t>t>t>t>t>t>t>t>t>t>t>t>t>t>t>t>t>t>t>t>t>t>t>t>t>t>t>t>t>t>t>t>t>t>t>E'}]|]                                          ",
"                                                  1]2]3]#)R{4]9>9>9>9>9>9>9>9>9>9>9>9>9>9>9>9>9>9>9>9>9>9>9>9>9>9>9>9>9>9>9>9>9>9>9>9>9>9>9>9>9>9>9>9>9>9>9>9>9>9>9>9>9>9>9>-']]s#5]6]7]8]);9](>##g@^@^@^@^@^@^@^@^@^@^@^@^@^@^@^@^@^@^@^@^@^@^@^@^@^@^@^@^@^@^@^@^@^@^@^@^@^@^@^@^@^@^@^@^@^@^@^@^@^@^@^@^@^@^@^@^@^@^@=;t.- - - - - - 0]a]b]c]I'7)t>t>t>t>t>t>t>t>t>t>t>t>t>t>t>t>t>t>t>t>t>t>t>t>t>t>t>t>t>t>t>t>t>t>t>t>t>t>t>t>t>t>t>t>t>t>t>t>t>t>t>t>t>t>t>t>t>t>t>t>t>d]e]f]g]h]                                        ",
"                                                  i]j]k]w'R{l]9>9>9>9>9>9>9>9>9>9>9>9>9>9>9>9>9>9>9>9>9>9>9>9>9>9>9>9>9>9>9>9>9>9>9>9>9>9>9>9>9>9>9>9>9>9>9>9>9>9>9>9>9>9>9>9>-*a~m]n]o]p]^@^@^@^@^@^@^@^@^@^@^@^@^@^@^@^@^@^@^@^@^@^@^@^@^@^@^@^@^@^@^@^@^@^@^@^@^@^@^@^@^@^@^@^@^@^@^@^@^@^@^@^@^@^@^@^@^@^@^@^@^@u$a;- - - - - - - I#q]r]a]s]I't]t>t>t>t>t>t>t>t>t>t>t>t>t>t>t>t>t>t>t>t>t>t>t>t>t>t>t>t>t>t>t>t>t>t>t>t>t>t>t>t>t>t>t>t>t>t>t>t>t>t>t>t>t>t>t>t>t>t>t>t>t>u]@-v]w]x]                                        ",
"                                                  y]z]S%A]B]9>9>9>9>9>9>9>9>9>9>9>9>9>9>9>9>9>9>9>9>9>9>9>9>9>9>9>9>9>9>9>9>9>9>9>9>9>9>9>9>9>9>9>9>9>9>9>9>9>9>9>9>9>9>9>9>9>~)W~s#C]D]E]F]^@^@^@^@^@^@^@^@^@^@^@^@^@^@^@^@^@^@^@^@^@^@^@^@^@^@^@^@^@^@^@^@^@^@^@^@^@^@^@^@^@^@^@^@^@^@^@^@^@^@^@^@^@^@^@^@^@^@^@.@G]- - - - - - - - H]I]J]K]L]I'M]t>t>t>t>t>t>t>t>t>t>t>t>t>t>t>t>t>t>t>t>t>t>t>t>t>t>t>t>t>t>t>t>t>t>t>t>t>t>t>t>t>t>t>t>t>t>t>t>t>t>t>t>t>t>t>t>t>t>t>t>m$N]O]P]Q]R]                                        ",
"                                                  S]T]0&,)U]9>9>9>9>9>9>9>9>9>9>9>9>9>9>9>9>9>9>9>9>9>9>9>9>9>9>9>9>9>9>9>9>9>9>9>9>9>9>9>9>9>9>9>9>9>9>9>9>9>9>9>9>9>9>9>9>9>9>~)s#V]k&x{W]X]^@^@^@^@^@^@^@^@^@^@^@^@^@^@^@^@^@^@^@^@^@^@^@^@^@^@^@^@^@^@^@^@^@^@^@^@^@^@^@^@^@^@^@^@^@^@^@^@^@^@^@^@^@^@^@^@^@g@9.- - - - - - - - - Y]q]Z]`]I'I'@,t>t>t>t>t>t>t>t>t>t>t>t>t>t>t>t>t>t>t>t>t>t>t>t>t>t>t>t>t>t>t>t>t>t>t>t>t>t>t>t>t>t>t>t>t>t>t>t>t>t>t>t>t>t>t>t>t>t>t>c{>] ^.^+^@^#^                                        ",
"                                                  $^%^&^*^=^9>9>9>9>9>9>9>9>9>9>9>9>9>9>9>9>9>9>9>9>9>9>9>9>9>9>9>9>9>9>9>9>9>9>9>9>9>9>9>9>9>9>9>9>9>9>9>9>9>9>9>9>9>9>9>9>9>9>9>s!~&-^o*X{;^^@^@^@^@^@^@^@^@^@^@^@^@^@^@^@^@^@^@^@^@^@^@^@^@^@^@^@^@^@^@^@^@^@^@^@^@^@^@^@^@^@^@^@^@^@^@^@^@^@^@^@^@^@^@^@^@7;Y;- - - - - - - - - - >^,^q]t&I'I'8>t>t>t>t>t>t>t>t>t>t>t>t>t>t>t>t>t>t>t>t>t>t>t>t>t>t>t>t>t>t>t>t>t>t>t>t>t>t>t>t>t>t>t>t>t>t>t>t>t>t>t>t>t>t>t>t>t>t>o,'^)^!^~^{^]^                                          ",
"                                                ^^%^/^0&(^_^9>9>9>9>9>9>9>9>9>9>9>9>9>9>9>9>9>9>9>9>9>9>9>9>9>9>9>9>9>9>9>9>9>9>9>9>9>9>9>9>9>9>9>9>9>9>9>9>9>9>9>9>9>9>9>9>9>9>9>~):^<^v'[^}^|^^@^@^@^@^@^@^@^@^@^@^@^@^@^@^@^@^@^@^@^@^@^@^@^@^@^@^@^@^@^@^@^@^@^@^@^@^@^@^@^@^@^@^@^@^@^@^@^@^@^@^@^@^@^@}@l@- - - - - - - - - - - 1^2^,^3^I'I'0!t>t>t>t>t>t>t>t>t>t>t>t>t>t>t>t>t>t>t>t>t>t>t>t>t>t>t>t>t>t>t>t>t>t>t>t>t>t>t>t>t>t>t>t>t>t>t>t>t>t>t>t>t>t>t>t>t>j)'^4^5^5^!^6^7^                                          ",
"                                                8^9^_'0^=&9>9>9>9>9>9>9>9>9>9>9>9>9>9>9>9>9>9>9>9>9>9>9>9>9>9>9>9>9>9>9>9>9>9>9>9>9>9>9>9>9>9>9>9>9>9>9>9>9>9>9>9>9>9>9>9>9>9>9>9>9>+!a^B]%^b^c^d^^@^@^@^@^@^@^@^@^@^@^@^@^@^@^@^@^@^@^@^@^@^@^@^@^@^@^@^@^@^@^@^@^@^@^@^@^@^@^@^@^@^@^@^@^@^@^@^@^@^@^@.@e^- - - - - - - - - - - - - f^g^h^i^I''^t>t>t>t>t>t>t>t>t>t>t>t>t>t>t>t>t>t>t>t>t>t>t>t>t>t>t>t>t>t>t>t>t>t>t>t>t>t>t>t>t>t>t>t>t>t>t>t>t>t>t>t>t>t>t>t>0!3)j^k^l^m^n^o^p^}                                           ",
"                                                q^_'r^s^_^9>9>9>9>9>9>9>9>9>9>9>9>9>9>9>9>9>9>9>9>9>9>9>9>9>9>9>9>9>9>9>9>9>9>9>9>9>9>9>9>9>9>9>9>9>9>9>9>9>9>9>9>9>9>9>9>9>9>9>9>9>~)M#t^u^v^w^x^y^^@^@^@^@^@^@^@^@^@^@^@^@^@^@^@^@^@^@^@^@^@^@^@^@^@^@^@^@^@^@^@^@^@^@^@^@^@^@^@^@^@^@^@^@^@^@^@^@^@I-`@- - - - - - - - - - - - - - z^A^g^B^I'C^t>t>t>t>t>t>t>t>t>t>t>t>t>t>t>t>t>t>t>t>t>t>t>t>t>t>t>t>t>t>t>t>t>t>t>t>t>t>t>t>t>t>t>t>t>t>t>t>t>t>t>t>t>t>[!D^E^F^G^u,h,H^6,I^J^                                            ",
"                                              K^L^R'S%!)9>9>9>9>9>9>9>9>9>9>9>9>9>9>9>9>9>9>9>9>9>9>9>9>9>9>9>9>9>9>9>9>9>9>9>9>9>9>9>9>9>9>9>9>9>9>9>9>9>9>9>9>9>9>9>9>9>9>9>9>9>9>9>'{M^R{N^o*q]O^^@^@^@^@^@^@^@^@^@^@^@^@^@^@^@^@^@^@^@^@^@^@^@^@^@^@^@^@^@^@^@^@^@^@^@^@^@^@^@^@^@^@^@^@^@^@^@u$Z;x.- - - - - - - - - - - - - - P^Q^R^S^T^I'U^t>t>t>t>t>t>t>t>t>t>t>t>t>t>t>t>t>t>t>t>t>t>t>t>t>t>t>t>t>t>t>t>t>t>t>t>t>t>t>t>t>t>t>t>t>t>t>t>t>t>t>t>L#m$V^j^W^l^V,J,s,u,X^Y^                                              ",
"                                              Z^0)`^ /n$9>9>9>9>9>9>9>9>9>9>9>9>9>9>9>9>9>9>9>9>9>9>9>9>9>9>9>9>9>9>9>9>9>9>9>9>9>9>9>9>9>9>9>9>9>9>9>9>9>9>9>9>9>9>9>9>9>9>9>9>9>9>9>9>./+/R{I>q]@/#/^@^@^@^@^@^@^@^@^@^@^@^@^@^@^@^@^@^@^@^@^@^@^@^@^@^@^@^@^@^@^@^@^@^@^@^@^@^@^@^@^@^@^@^@^@j$R@- - - - - - - - - - - - - - - - $/%/&/*/I'I'O't>t>t>t>t>t>t>t>t>t>t>t>t>t>t>t>t>t>t>t>t>t>t>t>t>t>t>t>t>t>t>t>t>t>t>t>t>t>t>t>t>t>t>t>t>t>t>t>t>@,=/V%-/I';/>/S**'U,I,J,,/'/                                                ",
"                                            )/!/~//^${9>9>9>9>9>9>9>9>9>9>9>9>9>9>9>9>9>9>9>9>9>9>9>9>9>9>9>9>9>9>9>9>9>9>9>9>9>9>9>9>9>9>9>9>9>9>9>9>9>9>9>9>9>9>9>9>9>9>9>9>9>9>9>9>9>8>))R{R{&&{/]/^/^@^@^@^@^@^@^@^@^@^@^@^@^@^@^@^@^@^@^@^@^@^@^@^@^@^@^@^@^@^@^@^@^@^@^@^@^@^@^@^@^@^@g@//B - - - - - - - - - - - - - - - - - (/_/:/</I'I'[/t>t>t>t>t>t>t>t>t>t>t>t>t>t>t>t>t>t>t>t>t>t>t>t>t>t>t>t>t>t>t>t>t>t>t>t>t>t>t>t>t>t>t>t>[!o,}/X%|/I'I'I'1/O]2/j'j'['*'U,3/4/                                                  ",
"                                            5/6/7/D,8/9>9>9>9>9>9>9>9>9>9>9>9>9>9>9>9>9>9>9>9>9>9>9>9>9>9>9>9>9>9>9>9>9>9>9>9>9>9>9>9>9>9>9>9>9>9>9>9>9>9>9>9>9>9>9>9>9>9>9>9>9>9>9>9>9>9>9/R{R{0/Z]R^a/(]$;^@^@^@^@^@^@^@^@^@^@^@^@^@^@^@^@^@^@^@^@^@^@^@^@^@^@^@^@^@^@^@^@^@^@^@^@^@^@Q+6#l@- - - - - - - - - - - - - - - - - - - b/c/_/d/I'I'm$t>t>t>t>t>t>t>t>t>t>t>t>t>t>t>t>t>t>t>t>t>t>t>t>t>t>t>t>t>t>t>t>t>t>t>t>t>t>t>t>t>c{t^z{'^I'I'I'I'I'e/f/()U'U'B'C'j'g/h/h]                                                    ",
"                                          i/j/7/k/u]l/9>9>9>9>9>9>9>9>9>9>9>9>9>9>9>9>9>9>9>9>9>9>9>9>9>9>9>9>9>9>9>9>9>9>9>9>9>9>9>9>9>9>9>9>9>9>9>9>9>9>9>9>9>9>9>9>9>9>9>9>9>9>9>9>9>9>e'+/R{R{m/&/_/n/{.F;_#u$^@^@^@^@^@^@^@^@^@^@^@^@^@^@^@^@^@^@^@^@^@^@^@^@^@^@^@^@^@^@^@^@^@|;n#7.- - - - - - - - - - - - - - - - - - - - - o/p/z^c]I'I'q/t>t>t>t>t>t>t>t>t>t>t>t>t>t>t>t>t>t>t>t>t>t>t>t>t>t>t>t>t>t>t>t>t>t>t>t>t>t>:{r/ )I'I'I'I'I'I'j^4^s/Q)x)x)d)t/U'B'u/v/                                                        ",
"                                          w/x/y/{{R{z/9>9>9>9>9>9>9>9>9>9>9>9>9>9>9>9>9>9>9>9>9>9>9>9>9>9>9>9>9>9>9>9>9>9>9>9>9>9>9>9>9>9>9>9>9>9>9>9>9>9>9>9>9>9>9>9>9>9>9>9>9>9>9>9>9>9>A/B]R{R{0/B/_/C/- - - ;#a;3;^@^@^@^@^@^@^@^@^@^@^@^@^@^@^@^@^@^@^@^@^@^@^@^@^@^@^@^@%;=;A - - - - - - - - - - - - - - - - - - - - - - - - D/E/F/G/I'I'.!t>t>t>t>t>t>t>t>t>t>t>t>t>t>t>t>t>t>t>t>t>t>t>t>t>t>t>t>t>t>t>t>t>t>t>t>j)H/I'I'I'I'I'I'I'L]I/J/&*=!=!P)w)x)d)K/L/                                                            ",
"                                          M/Q]$!G=R{R{#]9>9>9>9>9>9>9>9>9>9>9>9>9>9>9>9>9>9>9>9>9>9>9>9>9>9>9>9>9>9>9>9>9>9>9>9>9>9>9>9>9>9>9>9>9>9>9>9>9>9>9>9>9>9>9>9>9>9>9>9>9>9>9>9>9>N/R{R{R{R{c)z^O/P/- - - - - )-e^K;Q+^@^@^@^@^@^@^@^@^@^@^@^@^@^@^@^@^@^@^@^@!@ ;~-b@>.- - - - - - - - - - - - - - - - - - - - - - - - - Q/R/S/F/T/I'I'k)t>t>t>t>t>t>t>t>t>t>t>t>t>t>t>t>t>t>t>t>t>t>t>t>t>t>t>t>t>t>t>t>t>t>:{L{I'I'I'I'I'I'I'I'U/V/W/y!y!8!*!=!P)X/Y/}                                                               ",
"                                        Z/$!`/ (4{R{R{.(P'9>9>9>9>9>9>9>9>9>9>9>9>9>9>9>9>9>9>9>9>9>9>9>9>9>9>9>9>9>9>9>9>9>9>9>9>9>9>9>9>9>9>9>9>9>9>9>9>9>9>9>9>9>9>9>9>9>9>9>9>9>9>9>9>N/R{R{R{R{+(F/E/@(- - - - - - - - o.#(n@$()$L-W+F+^@^@^@^@^@^@^@'$u+d*S;%(`@'.- - - - - - - - - - - - - - - - - - - - - - - - - - - - - &(*(R/=(I'I'I'c{t>t>t>t>t>t>t>t>t>t>t>t>t>t>t>t>t>t>t>t>t>t>t>t>t>t>t>t>t>t>t>t>L#(^I'I'I'I'I'I'I'I'W^-(f~/~/~X!Y!y!8!;(Y/}                                                                   ",
"                                        >( (.^$!R{R{R{R{F{0$n$9>9>9>9>9>9>9>9>9>9>9>9>9>9>9>9>9>9>9>9>9>9>9>9>9>9>9>9>9>9>9>9>9>9>9>9>9>9>9>9>9>9>9>9>9>9>9>9>9>9>9>9>9>9>9>9>9>9>9>9>9>9>N/R{R{R{R{0/S/,('(- - - - - - - - - - - - - - - - l@)(;#;#;#q.p.- - - - - - - - - - - - - - - - - - - - - - - - - - - - - - - - - - - - !(~({(](I'I'I'@'t>t>t>t>t>t>t>t>t>t>t>t>t>t>t>t>t>t>t>t>t>t>t>t>t>t>t>t>t>t>t>k)|/I'I'I'I'I'I'I'^(s/N~t~t~u~/(/~X!((_(}                                                                       ",
"                                        :(<(v![(}(R{R{R{R{R{+/|(0$I~z$9>9>9>9>9>9>9>9>9>9>9>9>9>9>9>9>9>9>9>9>9>9>9>9>9>9>9>9>9>9>9>9>9>9>9>9>9>9>9>9>9>9>9>9>9>9>9>9>9>9>9>9>9>9>9>9>9>9>${R{R{R{R{R{2^*({(H]- - - - - - - - - - - - - - - - - - - - - - - - - - - - - - - - - - - - - - - - - - - - - - - - - - - - - - - - - - 1(2(~(3(I'I'I'D^t>t>t>t>t>t>t>t>t>t>t>t>t>t>t>t>t>t>t>t>t>t>t>t>t>t>t>t>t>-'3)I'I'I'I'I'I'I'4(5(N~ { {M~D~t~u~6(7(                                                                            ",
"                                        8([(U!U!9(R{R{R{R{R{R{R{R{R{R{0(l/=^n$9>9>9>9>9>9>9>9>9>9>9>9>9>9>9>9>9>9>9>9>9>9>9>9>9>9>9>9>9>9>9>9>9>9>9>9>9>9>9>9>9>9>9>9>9>9>9>9>9>9>9>9>9>9>B]R{R{R{R{R{t~~(a(b(- - - - - - - - - - - - - - - - - - - - - - - - - - - - - - - - - - - - - - - - - - - - - - - - - - - - - - - - - - c(d(e(f(I'I'I'g(t>t>t>t>t>t>t>t>t>t>t>t>t>t>t>t>t>t>t>t>t>t>t>t>t>t>t>t>k)V^I'I'I'I'I'I'I's]h(({({-{`~ {M~i(j(                                                                                ",
"                                        .]k(l(m(#'R{R{R{R{R{R{R{R{R{R{R{R{R{+/${0$/'9>9>9>9>9>9>9>9>9>9>9>9>9>9>9>9>9>9>9>9>9>9>9>9>9>9>9>9>9>9>9>9>9>9>9>9>9>9>9>9>9>9>9>9>9>9>9>9>9>9>x'R{R{R{R{R{R{n(2(e(o(- - - - - - - - - - - - - - - - - - - - - - - - - - - - - - - - - - - - - - - - - - - - - - - - - - - - - - - - - - p(q(r(s(I'I'I't(t>t>t>t>t>t>t>t>t>t>t>t>t>t>t>t>t>t>t>t>t>t>t>t>t>t>L#u(I'I'I'I'I'I'I'I'v(;{/{9{0{({-{w(x(}                                                                                   ",
"                                          y(z(c~X'A]R{R{R{R{R{R{R{R{R{R{R{R{R{R{R{R{A(B(C(`'9>9>9>9>9>9>9>9>9>9>9>9>9>9>9>9>9>9>9>9>9>9>9>9>9>9>9>9>9>9>9>9>9>9>9>9>9>9>9>9>9>9>9>9>9>9>!)R{R{R{R{R{R{8!r(q(D(- - - - - - - - - - - - - - - - - - - - - - - - - - - - - - - - - - - - - - - - - - - - - - - - - - - - - - - - - - E(F(G(H(I'I'I'I'o,t>t>t>t>t>t>t>t>t>t>t>t>t>t>t>t>t>t>t>t>t>t>t>t>I(`{I'I'I'I'I'I'I'J(t&J{x{n{/{9{K(L(r                                                                                       ",
"                                          .]M(t,N(N(2{}(R{R{R{R{R{R{R{R{R{R{R{R{R{R{R{R{R{R{A(O(P(#]n$9>9>9>9>9>9>9>9>9>9>9>9>9>9>9>9>9>9>9>9>9>9>9>9>9>9>9>9>9>9>9>9>9>9>9>9>9>9>9>9>9>${R{R{R{R{R{R{Q(G(F(c(- - - - - - - - - - - - - - - - - - - - - - - - - - - - - - - - - - - - - - - - - - - - - - - - - - - - - - - - - - r&R(R(S(I'I'I'I'L{-'t>t>t>t>t>t>t>t>t>t>t>t>t>t>t>t>t>t>t>t>t>j)T(I'I'I'I'I'I'I'I'U(`]X{Y{J{x{y{V(W(                                                                                          ",
"                                            .]X(Y(6!*'U!h{H=R{R{R{R{R{R{R{R{R{R{R{R{R{R{R{R{R{R{R{R{R{Z(`( _{]n$9>9>9>9>9>9>9>9>9>9>9>9>9>9>9>9>9>9>9>9>9>9>9>9>9>9>9>9>9>9>9>9>9>9>9>#]R{R{R{R{R{R{R{D%R(._c(- - - - - - - - - - - - - - - - - - - - - - - - - - - - - - - - - - - - - - - - - - - - - - - - - - - - - - - - - q&+_r&@_](I'I'I'I'I'#_Z)t>t>t>t>t>t>t>t>t>t>t>t>t>t>t>t>t>H'}/H/I'I'I'I'I'I'I'I'I'W^$_[]-]X{[^%_&_                                                                                              ",
"                                                *_=_-_K~r~;_m(z]#)>_R{R{R{R{R{R{R{R{R{R{R{R{R{R{R{R{R{R{R{R{R{R{.(N/,_#]2,9>9>9>9>9>9>9>9>9>9>9>9>9>9>9>9>9>9>9>9>9>9>9>9>9>9>9>9>9>9>Z(R{R{R{R{R{R{R{c/@_r&'_- - - - - - - - - - - - - - - - - - - - - - - - - - - - - - - - - - - - - - - - - - - - - - - - - - - - - - - - - 5%)_!_r&~_I'I'I'I'I'I' ){_}!t>t>t>t>t>t>t>t>t>t>t>-':{m$U^]_I'I'I'I'I'I'I'I'I'I'^_/_a]b]<][](___                                                                                                ",
"                                                    } :_<_[_}_c)^)^)v!D{L=|_R{R{R{R{R{R{R{R{R{R{R{R{R{R{R{R{R{R{R{R{R{R{F{A/P(l]9>9>9>9>9>9>9>9>9>9>9>9>9>9>9>9>9>9>9>9>9>9>9>9>9>9>8/R{R{R{R{R{R{R{,)r&!_1_2_- - - - - - - - - - - - - - - - - - - - - - - - - - - - - - - - - - - - - - - - - - - - - - - - - - - - - - - - - 3_'()_1_r&4_I'I'I'I'I'I'I'`{5_=/2)Z)7)7)M]X,m$u(L{]_I'I'I'I'I'I'I'I'I'I'I'I'I'6_w^w^r]7_8_9_                                                                                                    ",
"                                                            0_Y/a_b_*!c_d_r~&^e_z{R{R{R{R{R{R{R{R{R{R{R{R{R{R{R{R{R{R{R{R{R{R{R{Z(0$`'9>9>9>9>9>9>9>9>9>9>9>9>9>9>9>9>9>9>9>9>9>9> _R{R{R{R{R{R{R{R{k/!_)_f_g_- - - - - - - - - - - - - - - - - - - - - - - - - - - - - - - - - - - - - - - - - - - - - - - - - - - - - - - - - 3_h_E('()_i_I'I'I'I'I'I'I'I'I'I'I'I'I'I'I'I'I'I'I'I'I'I'I'I'I'I'I'I'I'I'I'I'j_q]S^Z]I]k_l_                                                                                                      ",
"                                                                  h]m_n_o_X!p_/(q_$!h{L=u^R{R{R{R{R{R{R{R{R{R{R{R{R{R{R{R{R{R{R{R{R{R{|(=&n$9>9>9>9>9>9>9>9>9>9>9>9>9>9>9>9>9>9>i{R{R{R{R{R{R{R{R{R{b]'(E(r_s_- - - - 0 6$K*'>m 5 +;*%-+L@. ].].].].].].[ W I -.*%c+5 C 1;/#`-& 2 - - - - - - - - - - - - - - - - - - - - - - - 5%t_r_E(f_u_I'I'I'I'I'I'I'I'I'I'I'I'I'I'I'I'I'I'I'I'I'I'I'I'I'I'I'I'I'I'T^v_2^@/,^q]w_x_                                                                                                        ",
"                                                                        y_z_A_B_D~C_^]^]q_D_3]~]E_R{R{R{R{R{R{R{R{R{R{R{R{R{R{R{R{R{R{R{R{.(i{l]9>9>9>9>9>9>9>9>9>9>9>9>9>9>/'${R{R{R{R{R{R{R{R{R{I>E(E(r_F_G_s=H c+W=7                                                         } { 8@v;L*K@d , =.- - - - - - - - - - - - - - - }&H_I_t_h_E(J_I'I'I'I'I'I'I'I'I'I'I'I'I'I'I'I'I'I'I'I'I'I'I'I'I'I'I'I'T^K_g^g^h^2^L_M_                                                                                                          ",
"                                                                                N_j(O_P_o*0{Q_D]n{R_N(F,0^,)z{R{R{R{R{R{R{R{R{R{R{R{R{R{R{R{R{R{z/ _`'9>9>9>9>9>9>9>9>_^I~O(R{R{R{R{R{R{R{R{R{R{R{J{r_t_F_S_                                                                                    r e v;(%T_U_- - - - - - - - - - - V_H_F_t_r_~_W_I'I'I'I'I'I'I'I'I'I'I'I'I'I'I'I'I'I'I'I'I'I'I'I'I'I'4(X_Q^R^A^g^Y_}                                                                                                             ",
"                                                                                        Z_`_ :.:x{+:Y{@:/_[]@:d_D_x%N=u]R{R{R{R{R{R{R{R{R{R{R{R{R{R{R{.(O(V~!)!)P(i{A/B]R{R{R{R{R{R{R{R{R{R{R{R{T]t_F_H_#:$:                                                                                                n ~ @.T_2.- - - - - - %:&:#:F_F_t_*:=:I'I'I'I'I'I'I'I'I'I'I'I'I'I'I'I'I'I'I'I'I'I'I'I'-:*/:/%/Q^;:>:                                                                                                                ",
"                                                                                                ,:':):!:~:b]b^7_w^{:Z]I]]:z(!]`&R{R{R{R{R{R{R{R{R{R{R{R{R{R{R{R{R{R{R{R{R{R{R{R{R{R{R{R{R{R{R{^:/:F_#:(:_:r                                                                                                         7 -+:.s j - - b(::::&:#:F_t_<:[:I'I'I'I'I'I'I'I'I'I'I'I'I'I'I'I'I'I'I'I'I'I'}:|:c/_/:/1:2:                                                                                                                  ",
"                                                                                                        3:4:5:6:7:Z]q],^@/h^{/B/X{&&2{4{R{R{R{R{R{R{R{R{R{R{R{R{R{R{R{R{R{R{R{R{R{R{R{R{R{R{*^8:#:&:::9:0:                                                                                                                    b p-a:b:9:::&:#:H_F_._c:4(I'I'I'I'I'I'I'I'I'I'I'I'I'I'I'I'I'I'J(d:F/F/z^c/e:f:                                                                                                                    ",
"                                                                                                                r g:h:i:j:g^B/R^Q^&/:/g^t/{{k:R{R{R{R{R{R{R{R{R{R{R{R{R{R{R{R{R{R{R{R{R{R{z)l:#:(:::9:m:}                                                                                                                           n:b:9:o:::&:#:F_I_S/p:q:I'I'I'I'I'I'I'I'I'I'I'I'I'I'=:c:r:R/S/s:E/t:u:                                                                                                                      ",
"                                                                                                                        r v:w:x::/y:z:c/z^F/I].^9(R{R{R{R{R{R{R{R{R{R{R{R{R{R{R{R{R{R{R{l)A:(:::9:b:B:C:                                                                                                                            D:E:F:b:9:::(:&:#:F_t_+_G:H:G/I'I'I'I'I'I'I'I'I:J:K:p/~({(*(L:R/M:N:                                                                                                                        ",
"                                                                                                                                O:P:Q:F/E/S/R/L:L:t~R:u]R{R{R{R{R{R{R{R{R{R{R{R{R{R{I=r~H_::9:b:S:T:U:                                                                                                                                V:F:F:S:b:9:::&:#:F_F_t_r_E(p/W:X:Y:t&Z:s(`:e(G(r(e(2(a(~({( <.<                                                                                                                          ",
"                                                                                                                                      +<@<#<*({(~(2(e(_/$<s{4{R{R{R{R{R{R{R{R{R{A]C'%<(:::9:S:F:&<*<                                                                                                                                    =<F:F:F:b:9:::::&:#:F_I_t_h_E('()_!_!_r&@_R(F(G(q(r(e(2(-<;<                                                                                                                            ",
"                                                                                                                                          } ><,<'<r(r(G(F(R(2(9{N()<s{Q{2]`/y!_/#:(:::9:b:F:!<~<{<                                                                                                                                        V:E:F:F:F:b:9:::(:#:H_F_t_r_E(E('()_!_r&@_._R(F(G(r(]<^<                                                                                                                              ",
"                                                                                                                                                /<(<_<R(._r&!_1_)_f_E(r_t_F_#:&:::9:b:S:F:!<:<<<                                                                                                                                            [<}<F:F:F:S:9:o:::&:#:F_F_t_r_E('()_1_!_r&@_R(|<1<                                                                                                                                  ",
"                                                                                                                                                    r 2<3<!_)_'(E(r_t_F_#:&:(:::9:S:F:!<4<5<r                                                                                                                                                 } 6<7<F:F:F:b:9:::::&:#:F_t_r_h_E('()_!_8<9<A.                                                                                                                                    ",
"                                                                                                                                                          0<a<b<c<I_F_#:(:::9:b:F:d<e<f<K%                                                                                                                                                          g<h<i<F:F:b:9:::&:#:H_F_t_r_E(j<k<n                                                                                                                                         ",
"                                                                                                                                                                l<m<n<o<p<q<h<r<s<n                                                                                                                                                                     7 t<u<v<w<x<y<z<A<B<C<D<[<                                                                                                                                              "};
